; generated by Slic3r 1.2.9 on 2016-12-23 at 19:52:10

; external perimeters extrusion width = 0.40mm
; perimeters extrusion width = 0.56mm
; infill extrusion width = 0.56mm
; solid infill extrusion width = 0.56mm
; top infill extrusion width = 0.56mm

M107
G21        ;metric values
G90        ;absolute positioning
M82	       ;absolute E
M140 S65 ; start the bed heating
G28 ; home axes
G92 Z202.7
M104 S195 ; start the nozzle heating
G1 X5 Y98 F9000 ; go to front of bed
G1 Z0.00 ; use the bed to block the nozzle to prevent ooze
M190 S65 ; wait for the bed to get to temperature
M109 S195 ; wait for nozzle to get to temperature
G92 E0    ; zero the extruder
G1 E5 F50 ; make a blob
M400
G92 E0
G1 E-0.5 F1200 ; retract
G1 X40 F4000 ; wipe along the edge of the bed
G1 F12000
G21 ; set units to millimeters
G90 ; use absolute coordinates
M82 ; use absolute distances for extrusion
G92 E0
G1 Z0.300 F6000.000
G1 E-2.00000 F2400.00000
G92 E0
G1 X0.000 Y-49.607 F6000.000
G1 E2.00000 F2400.00000
G1 X45.000 Y-49.607 E3.05793 F1800.000
G1 X46.484 Y-49.461 E3.09298
G1 X47.441 Y-49.270 E3.11592 F1800.000
G1 X50.183 Y-48.135 E3.18569
G1 X50.994 Y-47.593 E3.20862
G1 X53.093 Y-45.494 E3.27841
G1 X53.635 Y-44.683 E3.30135
G1 X54.770 Y-41.941 E3.37112
G1 X54.961 Y-40.984 E3.39405
G1 X55.107 Y-39.500 E3.42911
G1 X55.107 Y39.500 E5.28636
G1 X54.961 Y40.984 E5.32141
G1 X54.770 Y41.941 E5.34435
G1 X53.635 Y44.683 E5.41412
G1 X53.093 Y45.494 E5.43705
G1 X50.994 Y47.593 E5.50684
G1 X50.183 Y48.135 E5.52978
G1 X47.441 Y49.270 E5.59954
G1 X46.484 Y49.461 E5.62248
G1 X45.000 Y49.607 E5.65753
G1 X-45.000 Y49.607 E7.77339
G1 X-46.484 Y49.461 E7.80845
G1 X-47.441 Y49.270 E7.83138
G1 X-50.182 Y48.135 E7.90115
G1 X-50.994 Y47.593 E7.92408
G1 X-53.093 Y45.494 E7.99388
G1 X-53.635 Y44.683 E8.01681
G1 X-54.770 Y41.941 E8.08658
G1 X-54.961 Y40.984 E8.10951
G1 X-55.107 Y39.500 E8.14457
G1 X-55.107 Y-39.500 E10.00182
G1 X-54.961 Y-40.984 E10.03688
G1 X-54.770 Y-41.941 E10.05981
G1 X-53.635 Y-44.683 E10.12958
G1 X-53.093 Y-45.494 E10.15251
G1 X-50.994 Y-47.593 E10.22230
G1 X-50.183 Y-48.135 E10.24524
G1 X-47.441 Y-49.270 E10.31501
G1 X-46.484 Y-49.461 E10.33794
G1 X-45.000 Y-49.607 E10.37300
G1 X-0.060 Y-49.607 E11.42952
G1 X-0.060 Y-49.071 F6000.000
G1 X45.000 Y-49.071 E12.48885 F1800.000
G1 X46.379 Y-48.935 E12.52144
G1 X47.336 Y-48.745 E12.54438 F1800.000
G1 X49.885 Y-47.689 E12.60923
G1 X50.696 Y-47.148 E12.63216
G1 X52.648 Y-45.196 E12.69704
G1 X53.189 Y-44.385 E12.71998
G1 X54.245 Y-41.836 E12.78483
G1 X54.435 Y-40.880 E12.80777
G1 X54.571 Y-39.500 E12.84035
G1 X54.571 Y39.500 E14.69761
G1 X54.435 Y40.880 E14.73020
G1 X54.245 Y41.836 E14.75313
G1 X53.189 Y44.385 E14.81798
G1 X52.647 Y45.196 E14.84092
G1 X50.696 Y47.148 E14.90580
G1 X49.885 Y47.689 E14.92873
G1 X47.336 Y48.745 E14.99359
G1 X46.380 Y48.935 E15.01652
G1 X45.000 Y49.071 E15.04911
G1 X-45.000 Y49.071 E17.16496
G1 X-46.379 Y48.935 E17.19755
G1 X-47.336 Y48.745 E17.22049
G1 X-49.885 Y47.689 E17.28534
G1 X-50.696 Y47.148 E17.30827
G1 X-52.648 Y45.196 E17.37315
G1 X-53.189 Y44.385 E17.39609
G1 X-54.245 Y41.836 E17.46094
G1 X-54.435 Y40.879 E17.48388
G1 X-54.571 Y39.500 E17.51646
G1 X-54.571 Y-39.500 E19.37372
G1 X-54.435 Y-40.880 E19.40630
G1 X-54.245 Y-41.836 E19.42924
G1 X-53.189 Y-44.385 E19.49409
G1 X-52.647 Y-45.196 E19.51703
G1 X-50.696 Y-47.147 E19.58190
G1 X-49.885 Y-47.689 E19.60484
G1 X-47.336 Y-48.745 E19.66969
G1 X-46.380 Y-48.935 E19.69263
G1 X-45.000 Y-49.071 E19.72522
G1 X-0.120 Y-49.071 E20.78032
G1 X-0.120 Y-48.536 F6000.000
G1 X45.000 Y-48.536 E21.84107 F1800.000
G1 X46.275 Y-48.410 E21.87119
G1 X47.232 Y-48.220 E21.89413 F1800.000
G1 X49.587 Y-47.244 E21.95407
G1 X50.399 Y-46.702 E21.97700
G1 X52.202 Y-44.899 E22.03697
G1 X52.744 Y-44.087 E22.05990
G1 X53.720 Y-41.732 E22.11984
G1 X53.910 Y-40.775 E22.14278
G1 X54.036 Y-39.500 E22.17290
G1 X54.036 Y39.500 E24.03015
G1 X53.910 Y40.775 E24.06027
G1 X53.720 Y41.732 E24.08321
G1 X52.744 Y44.087 E24.14314
G1 X52.202 Y44.899 E24.16608
G1 X50.399 Y46.702 E24.22604
G1 X49.587 Y47.244 E24.24898
G1 X47.232 Y48.220 E24.30892
G1 X46.275 Y48.410 E24.33185
G1 X45.000 Y48.536 E24.36197
G1 X-45.000 Y48.536 E26.47783
G1 X-46.275 Y48.410 E26.50795
G1 X-47.232 Y48.220 E26.53088
G1 X-49.587 Y47.244 E26.59082
G1 X-50.399 Y46.702 E26.61376
G1 X-52.202 Y44.899 E26.67372
G1 X-52.744 Y44.087 E26.69666
G1 X-53.720 Y41.732 E26.75660
G1 X-53.910 Y40.775 E26.77954
G1 X-54.036 Y39.500 E26.80965
G1 X-54.036 Y-39.500 E28.66691
G1 X-53.910 Y-40.775 E28.69703
G1 X-53.720 Y-41.732 E28.71996
G1 X-52.744 Y-44.087 E28.77990
G1 X-52.202 Y-44.899 E28.80284
G1 X-50.399 Y-46.702 E28.86280
G1 X-49.587 Y-47.244 E28.88573
G1 X-47.232 Y-48.220 E28.94568
G1 X-46.275 Y-48.410 E28.96861
G1 X-45.000 Y-48.536 E28.99873
G1 X-0.180 Y-48.536 E30.05243
G1 F4800
G1 X3.820 Y-48.536 E28.15243
G1 E28.05243 F2400.00000
G92 E0
G1 X19.200 Y16.700 F6000.000
G1 E2.00000 F2400.00000
G1 X24.800 Y16.700 E2.13165 F750.000
G1 X24.800 Y32.300 E2.49840
G1 X19.200 Y32.300 E2.63006
G1 X19.200 Y16.760 E2.99539
G1 X19.200 Y16.300 F6000.000
G1 X18.522 Y15.934 F6000.000
G1 X17.945 Y16.408 E3.01294 F750.000
G1 X17.029 Y16.898 E3.03738
G1 X16.034 Y17.200 E3.06181
G1 X15.015 Y17.300 E3.08589
G1 X8.985 Y17.300 E3.22764
G1 X7.966 Y17.200 E3.25173
G1 X6.971 Y16.898 E3.27616
G1 X6.055 Y16.408 E3.30059
G1 X5.251 Y15.749 E3.32503
G1 X4.592 Y14.945 E3.34946
G1 X4.102 Y14.029 E3.37389
G1 X3.800 Y13.034 E3.39832
G1 X3.699 Y12.000 E3.42276
G1 X3.800 Y10.966 E3.44719
G1 X4.102 Y9.971 E3.47162
G1 X4.592 Y9.055 E3.49605
G1 X5.251 Y8.251 E3.52049
G1 X6.055 Y7.592 E3.54492
G1 X6.971 Y7.102 E3.56935
G1 X7.966 Y6.800 E3.59378
G1 X8.936 Y6.705 E3.61671
G1 X15.015 Y6.700 E3.75961 F750.000
G1 X16.034 Y6.800 E3.78370
G1 X17.029 Y7.102 E3.80813
G1 X17.945 Y7.592 E3.83256
G1 X18.749 Y8.251 E3.85700
G1 X19.408 Y9.055 E3.88143
G1 X19.898 Y9.971 E3.90586
G1 X20.200 Y10.966 E3.93029
G1 X20.301 Y12.000 E3.95473
G1 X20.200 Y13.034 E3.97916
G1 X19.898 Y14.029 E4.00359
G1 X19.408 Y14.945 E4.02803
G1 X18.749 Y15.749 E4.05246
G1 X18.569 Y15.896 E4.05793
G1 X18.588 Y16.329 F6000.000
G1 X17.298 Y17.548 F6000.000
G1 X11.008 Y33.492 F6000.000
G1 X18.703 Y33.972 F6000.000
G1 X20.579 Y33.378 F6000.000
G1 X21.705 Y33.267 F6000.000
G1 X21.757 Y33.529 F6000.000
G1 X22.000 Y33.648 F6000.000
G1 X23.283 Y33.903 E4.08868 F450.000
G1 X24.370 Y34.630 E4.11942
G1 X25.097 Y35.717 E4.15017
G1 X25.352 Y37.000 E4.18092
G1 X25.097 Y38.283 E4.21167
G1 X24.370 Y39.370 E4.24241
G1 X23.283 Y40.097 E4.27316
G1 X22.000 Y40.352 E4.30391
G1 X20.717 Y40.097 E4.33466
G1 X19.630 Y39.370 E4.36541
G1 X18.903 Y38.283 E4.39615
G1 X18.648 Y37.000 E4.42690
G1 X18.903 Y35.717 E4.45765
G1 X19.630 Y34.630 E4.48840
G1 X20.717 Y33.903 E4.51915
G1 X21.789 Y33.690 E4.54484
G1 X21.941 Y33.660 E4.54848 F450.000
G1 X22.000 Y34.194 F6000.000
G1 X23.074 Y34.408 E4.57422 F450.000
G1 X23.984 Y35.016 E4.59996
G1 X24.592 Y35.926 E4.62570
G1 X24.806 Y37.000 E4.65144
G1 X24.592 Y38.074 E4.67717
G1 X23.984 Y38.984 E4.70291
G1 X23.074 Y39.592 E4.72865
G1 X22.000 Y39.806 E4.75439
G1 X20.926 Y39.592 E4.78013
G1 X20.016 Y38.984 E4.80586
G1 X19.408 Y38.074 E4.83160
G1 X19.194 Y37.000 E4.85734
G1 X19.408 Y35.926 E4.88308
G1 X20.016 Y35.016 E4.90882
G1 X20.926 Y34.408 E4.93456
G1 X21.894 Y34.215 E4.95775
G1 X21.941 Y34.206 E4.95888 F450.000
G1 X22.222 Y33.862 F6000.000
G1 X23.347 Y33.748 F6000.000
G1 X29.827 Y34.743 F6000.000
G1 X36.000 Y26.202 F6000.000
G1 X28.346 Y18.554 F6000.000
G1 X28.346 Y15.708 F6000.000
G1 X28.375 Y15.544 F6000.000
G1 X27.201 Y15.116 E4.98827 F450.000
G1 X26.243 Y14.313 E5.01765
G1 X25.618 Y13.231 E5.04703
G1 X25.401 Y12.000 E5.07641
G1 X25.618 Y10.769 E5.10579
G1 X26.243 Y9.687 E5.13517
G1 X27.201 Y8.884 E5.16455
G1 X28.375 Y8.456 E5.19394
G1 X35.625 Y8.456 E5.36437 F450.000
G1 X36.799 Y8.884 E5.39375
G1 X37.757 Y9.687 E5.42313
G1 X38.382 Y10.769 E5.45251
G1 X38.599 Y12.000 E5.48190
G1 X38.382 Y13.231 E5.51128
G1 X37.757 Y14.313 E5.54066
G1 X36.799 Y15.116 E5.57004
G1 X35.625 Y15.544 E5.59942
G1 X28.435 Y15.544 E5.76845
G1 X28.470 Y15.008 F6000.000
G1 X27.473 Y14.645 E5.79339 F450.000
G1 X26.660 Y13.964 E5.81833
G1 X26.130 Y13.045 E5.84327
G1 X25.945 Y12.000 E5.86821
G1 X26.130 Y10.955 E5.89315
G1 X26.660 Y10.036 E5.91809
G1 X27.473 Y9.355 E5.94303
G1 X28.470 Y8.992 E5.96797
G1 X35.530 Y8.992 E6.13397 F450.000
G1 X36.527 Y9.355 E6.15891
G1 X37.340 Y10.036 E6.18385
G1 X37.870 Y10.955 E6.20879
G1 X38.055 Y12.000 E6.23373
G1 X37.870 Y13.045 E6.25867
G1 X37.340 Y13.964 E6.28361
G1 X36.527 Y14.645 E6.30855
G1 X35.530 Y15.008 E6.33349
G1 X28.530 Y15.008 E6.49808
G1 X28.195 Y15.299 F6000.000
G1 X37.896 Y41.164 F6000.000
G1 X5.082 Y41.164 E7.26952 F1500.000
G1 X4.369 Y41.023 E7.28661
G1 X3.835 Y40.665 E7.30173
G1 X3.477 Y40.131 E7.31685
G1 X3.336 Y39.418 E7.33394
G1 X3.336 Y14.247 E7.92568
G1 X3.579 Y14.186 E7.93158
G1 X4.144 Y15.244 E7.95979
G1 X4.871 Y16.129 E7.98670
G1 X5.756 Y16.855 E8.01361
G1 X6.765 Y17.395 E8.04053
G1 X7.861 Y17.727 E8.06744
G1 X8.959 Y17.836 E8.09338
G1 X15.041 Y17.836 E8.23637
G1 X16.139 Y17.727 E8.26231
G1 X17.235 Y17.395 E8.28923
G1 X18.244 Y16.855 E8.31614
G1 X18.664 Y16.511 E8.32891
G1 X18.664 Y32.836 E8.71270
G1 X25.336 Y32.836 E8.86954
G1 X25.336 Y16.164 E9.26147
G1 X19.100 Y16.164 E9.40806
G1 X19.855 Y15.244 E9.43604
G1 X20.395 Y14.235 E9.46296
G1 X20.727 Y13.139 E9.48987
G1 X20.840 Y12.000 E9.51678
G1 X20.727 Y10.861 E9.54370
G1 X20.395 Y9.765 E9.57061
G1 X19.855 Y8.756 E9.59752
G1 X19.129 Y7.871 E9.62444
G1 X18.244 Y7.145 E9.65135
G1 X17.235 Y6.605 E9.67826
G1 X16.139 Y6.273 E9.70517
G1 X15.041 Y6.164 E9.73113
G1 X8.910 Y6.169 E9.87526
G1 X7.861 Y6.273 E9.90004
G1 X6.765 Y6.605 E9.92696
G1 X5.756 Y7.144 E9.95387
G1 X4.871 Y7.871 E9.98078
G1 X4.144 Y8.756 E10.00770
G1 X3.579 Y9.814 E10.03590
G1 X3.336 Y9.753 E10.04180
G1 X3.336 Y4.582 E10.16336
G1 X3.477 Y3.869 E10.18045
G1 X3.835 Y3.335 E10.19556
G1 X4.369 Y2.977 E10.21068
G1 X5.082 Y2.836 E10.22777
G1 X44.965 Y2.845 E11.16540
G1 X45.631 Y2.977 E11.18135 F1500.000
G1 X46.165 Y3.335 E11.19647
G1 X46.523 Y3.869 E11.21158
G1 X46.664 Y4.582 E11.22867
G1 X46.664 Y39.418 E12.04764
G1 X46.523 Y40.131 E12.06473
G1 X46.165 Y40.665 E12.07985
G1 X45.631 Y41.023 E12.09496
G1 X44.918 Y41.164 E12.11205
G1 X37.956 Y41.164 E12.27571
G1 X37.956 Y41.700 F6000.000
G1 X5.030 Y41.700 E13.04980 F750.000
G1 X4.160 Y41.527 E13.07064
G1 X3.449 Y41.052 E13.09076
G1 X2.973 Y40.340 E13.11089
G1 X2.800 Y39.470 E13.13173
G1 X2.800 Y4.530 E13.95317
G1 X2.973 Y3.660 E13.97401
G1 X3.449 Y2.949 E13.99413
G1 X4.160 Y2.473 E14.01426
G1 X5.030 Y2.300 E14.03509
G1 X45.018 Y2.310 E14.97521
G1 X45.840 Y2.473 E14.99490 F750.000
G1 X46.552 Y2.949 E15.01502
G1 X47.027 Y3.660 E15.03515
G1 X47.200 Y4.530 E15.05599
G1 X47.200 Y39.470 E15.87743
G1 X47.027 Y40.340 E15.89826
G1 X46.552 Y41.052 E15.91839
G1 X45.840 Y41.527 E15.93852
G1 X44.970 Y41.700 E15.95935
G1 X38.016 Y41.700 E16.12284
G1 X37.756 Y41.354 F6000.000
G1 X23.575 Y40.607 F6000.000
G1 X22.283 Y40.734 E16.18752 F600.000
G1 X21.717 Y40.734 F6000.000
G1 X20.425 Y40.607 E16.25221 F600.000
G1 X13.606 Y36.030 F6000.000
G1 X18.500 Y34.080 F6000.000
G1 X19.053 Y33.825 F6000.000
G1 X20.426 Y33.409 F6000.000
G1 X20.425 Y33.393 F6000.000
G1 X21.717 Y33.266 E16.31689 F600.000
G1 X22.283 Y33.266 F6000.000
G1 X23.575 Y33.393 E16.38158 F600.000
G1 X20.062 Y33.942 F6000.000
G1 X19.331 Y33.211 E16.40618 F1500.000
G1 X18.565 Y33.211 E16.42439
G1 X19.603 Y34.249 E16.45931
G1 X19.226 Y34.638 E16.47219
G1 X3.711 Y19.123 E16.99389
G1 X3.711 Y18.357 E17.01211
G1 X18.289 Y32.935 E17.50232
G1 X18.289 Y32.169 E17.52053
G1 X3.711 Y17.591 E18.01074
G1 X3.711 Y16.825 F6000.000
G1 X18.289 Y31.403 E18.50095 F1500.000
G1 X18.289 Y30.637 E18.51917
G1 X3.711 Y16.059 E19.00937
G1 X5.797 Y17.379 F6000.000
G1 X18.289 Y29.871 E19.42943 F1500.000
G1 X18.289 Y29.105 E19.44764
G1 X7.118 Y17.934 E19.82328
G1 X8.089 Y18.139 E19.84688
G1 X18.289 Y28.339 E20.18987
G1 X18.289 Y27.573 E20.20808
G1 X8.927 Y18.211 E20.52289
G1 X9.693 Y18.211 E20.54110
G1 X18.289 Y26.807 E20.83014
G1 X18.289 Y26.041 E20.84836
G1 X10.459 Y18.211 E21.11164
G1 X11.226 Y18.211 E21.12986
G1 X18.289 Y25.274 E21.36738
G1 X18.289 Y24.508 E21.38559
G1 X11.992 Y18.211 E21.59735
G1 X12.758 Y18.211 E21.61557
G1 X18.289 Y23.742 E21.80157
G1 X18.289 Y22.976 E21.81978
G1 X13.524 Y18.211 E21.98002
G1 X14.290 Y18.211 E21.99824
G1 X18.289 Y22.210 E22.13272
G1 X18.289 Y21.444 E22.15093
G1 X15.047 Y18.201 E22.25997
G1 X15.744 Y18.133 E22.27663
G1 X18.289 Y20.678 E22.36221
G1 X18.289 Y19.912 E22.38043
G1 X16.391 Y18.014 E22.44425
G1 X16.979 Y17.835 E22.45885
G1 X18.289 Y19.146 E22.50291
G1 X18.289 Y18.380 E22.52113
G1 X17.528 Y17.618 E22.54673
G1 X18.027 Y17.351 E22.56019
G1 X18.289 Y17.614 E22.56900
G1 X3.711 Y24.486 F6000.000
G1 X20.008 Y40.783 E23.11701 F1500.000
G1 X19.248 Y40.789 E23.13510
G1 X3.711 Y25.252 E23.65755
G1 X4.015 Y40.113 F6000.000
G1 X4.388 Y40.485 E23.67005 F1500.000
G1 X5.458 Y40.789 E23.69652
G1 X3.711 Y39.042 E23.75528
G1 X3.711 Y38.276 E23.77350
G1 X6.224 Y40.789 E23.85802
G1 X6.990 Y40.789 E23.87623
G1 X3.711 Y37.510 E23.98651
G1 X3.711 Y36.743 E24.00473
G1 X7.757 Y40.789 E24.14077
G1 X8.523 Y40.789 E24.15899
G1 X3.711 Y35.977 E24.32079
G1 X3.711 Y35.211 E24.33900
G1 X9.289 Y40.789 E24.52657
G1 X10.055 Y40.789 E24.54478
G1 X3.711 Y34.445 E24.75810
G1 X3.711 Y33.679 E24.77632
G1 X10.821 Y40.789 E25.01540
G1 X11.587 Y40.789 E25.03362
G1 X3.711 Y32.913 E25.29846
G1 X3.711 Y32.147 E25.31668
G1 X12.353 Y40.789 E25.60728
G1 X13.119 Y40.789 E25.62550
G1 X3.711 Y31.381 E25.94186
G1 X3.711 Y30.615 E25.96008
G1 X13.885 Y40.789 E26.30220
G1 X14.651 Y40.789 E26.32042
G1 X3.711 Y29.849 E26.68831
G1 X3.711 Y29.082 E26.70652
G1 X15.418 Y40.789 E27.10017
G1 X16.184 Y40.789 E27.11838
G1 X3.711 Y28.316 E27.53779
G1 X3.711 Y27.550 E27.55601
G1 X16.950 Y40.789 E28.00117
G1 X17.716 Y40.789 E28.01939
G1 X3.711 Y26.784 E28.49032
G1 X3.711 Y26.018 E28.50853
G1 X18.482 Y40.789 E29.00522
G1 X18.551 Y38.560 F6000.000
G1 X3.711 Y23.720 E29.50423 F1500.000
G1 X3.711 Y22.954 E29.52245
G1 X18.361 Y37.604 E30.01506
G1 X18.325 Y36.802 E30.03414
G1 X3.711 Y22.188 E30.52556
G1 X3.711 Y21.421 E30.54377
G1 X18.452 Y36.163 E31.03947
G1 X18.612 Y35.557 E31.05438
G1 X3.711 Y20.655 E31.55544
G1 X3.711 Y19.889 E31.57366
G1 X18.919 Y35.097 E32.08504
G1 X3.425 Y13.949 F6000.000
G1 X3.303 Y13.110 E32.12730 F600.000
G1 X3.249 Y12.018 E32.18180
G1 X3.303 Y10.890 E32.23806
G1 X3.425 Y10.051 E32.28032
G1 X4.017 Y8.392 F6000.000
G1 X3.711 Y8.086 E32.29056 F1500.000
G1 X3.711 Y7.324 E32.30857
G1 X4.361 Y7.974 E32.33030
G1 X4.719 Y7.570 E32.34306
G1 X3.711 Y6.562 E32.37676
G1 X3.711 Y5.801 E32.39477
G1 X5.137 Y7.227 E32.44246
G1 X5.555 Y6.883 E32.45526
G1 X3.711 Y5.039 E32.51694
G1 X3.751 Y4.317 E32.53404
G1 X6.044 Y6.610 E32.61073
G1 X6.541 Y6.345 E32.62405
G1 X3.952 Y3.756 E32.71062
G1 X4.348 Y3.390 E32.72337
G1 X7.099 Y6.141 E32.81535
G1 X7.683 Y5.964 E32.82980
G1 X4.945 Y3.225 E32.92137
G1 X5.692 Y3.211 E32.93905
G1 X8.340 Y5.859 E33.02760
G1 X9.037 Y5.794 E33.04414
G1 X6.454 Y3.211 E33.13051
G1 X7.216 Y3.211 E33.14853
G1 X9.798 Y5.793 E33.23487
G1 X10.560 Y5.793 E33.25287
G1 X7.978 Y3.212 E33.33918
G1 X8.740 Y3.212 E33.35720
G1 X11.321 Y5.792 E33.44349
G1 X12.082 Y5.792 E33.46149
G1 X9.502 Y3.212 E33.54775
G1 X10.264 Y3.212 E33.56577
G1 X12.843 Y5.791 E33.65200
G1 X13.605 Y5.790 E33.67000
G1 X11.026 Y3.212 E33.75621
G1 X11.788 Y3.212 E33.77423
G1 X14.366 Y5.790 E33.86041
G1 X15.127 Y5.789 E33.87841
G1 X12.550 Y3.213 E33.96457
G1 X13.313 Y3.213 E33.98258
G1 X15.966 Y5.867 E34.07133
G1 X16.948 Y6.086 E34.09510
G1 X14.075 Y3.213 E34.19117
G1 X14.837 Y3.213 E34.20919
G1 X18.292 Y6.669 E34.32473
G1 X20.331 Y8.708 F6000.000
G1 X25.441 Y13.817 E34.49558 F1500.000
G1 X25.130 Y12.745 E34.52198
G1 X15.599 Y3.213 E34.84071
G1 X16.361 Y3.214 E34.85872
G1 X25.055 Y11.908 E35.14945
G1 X25.169 Y11.260 E35.16500
G1 X17.123 Y3.214 E35.43407
G1 X17.885 Y3.214 E35.45209
G1 X25.309 Y10.638 E35.70035
G1 X25.588 Y10.155 E35.71354
G1 X18.647 Y3.214 E35.94564
G1 X19.409 Y3.214 E35.96366
