; generated by Slic3r 1.2.9 on 2016-12-23 at 16:50:16

; external perimeters extrusion width = 0.40mm
; perimeters extrusion width = 0.56mm
; infill extrusion width = 0.56mm
; solid infill extrusion width = 0.56mm
; top infill extrusion width = 0.56mm

M107
G21        ;metric values
G90        ;absolute positioning
M82	       ;absolute E
M140 S65 ; start the bed heating
G28 ; home axes
G92 Z202.7
M104 S195 ; start the nozzle heating
G1 X5 Y98 F9000 ; go to front of bed
G1 Z0.00 ; use the bed to block the nozzle to prevent ooze
M190 S65 ; wait for the bed to get to temperature
M109 S195 ; wait for nozzle to get to temperature
G92 E0    ; zero the extruder
G1 E5 F50 ; make a blob
M400
G92 E0
G1 E-0.5 F1200 ; retract
G1 X40 F4000 ; wipe along the edge of the bed
G1 F12000
G21 ; set units to millimeters
G90 ; use absolute coordinates
M82 ; use absolute distances for extrusion
G92 E0
G1 Z0.300 F6000.000
G1 E-2.00000 F2400.00000
G92 E0
G1 X-47.607 Y-0.000 F6000.000
G1 E2.00000 F2400.00000
G1 X-47.607 Y-45.050 E3.05909 F1800.000
G1 X-47.582 Y-45.779 E3.07624
G1 X-47.488 Y-46.725 E3.09860
G1 X-47.309 Y-47.720 E3.12236
G1 X-47.061 Y-48.668 E3.14541
G1 X-46.720 Y-49.642 E3.16967
G1 X-46.315 Y-50.558 E3.19320
G1 X-45.835 Y-51.443 E3.21687
G1 X-45.286 Y-52.288 E3.24059
G1 X-44.674 Y-53.083 E3.26416
G1 X-43.996 Y-53.831 E3.28790
G1 X-43.472 Y-54.336 E3.30500
G1 X-43.077 Y-54.679 E3.31730
G1 X-42.682 Y-54.995 E3.32919
G1 X-42.028 Y-55.465 E3.34813
G1 X-41.604 Y-55.738 E3.35998
G1 X-40.997 Y-56.088 E3.37645
G1 X-40.343 Y-56.418 E3.39368
G1 X-39.863 Y-56.630 E3.40601
G1 X-39.394 Y-56.815 E3.41786
G1 X-38.633 Y-57.071 E3.43675
G1 X-38.145 Y-57.207 E3.44866
G1 X-37.462 Y-57.363 E3.46511
G1 X-36.967 Y-57.451 E3.47694
G1 X-36.241 Y-57.545 E3.49417
G1 X-35.720 Y-57.585 E3.50644
G1 X-35.025 Y-57.606 E3.52279
G1 X-0.000 Y-57.607 E4.34621
G1 X34.975 Y-57.606 E5.16845 F1800.000
G1 X36.041 Y-57.563 E5.19354
G1 X37.039 Y-57.440 E5.21718
G1 X37.830 Y-57.284 E5.23612
G1 X38.721 Y-57.045 E5.25781
G1 X39.513 Y-56.770 E5.27752
G1 X40.161 Y-56.501 E5.29402
G1 X40.887 Y-56.147 E5.31301
G1 X41.544 Y-55.774 E5.33078
G1 X42.337 Y-55.250 E5.35312
G1 X42.973 Y-54.765 E5.37192
G1 X43.508 Y-54.302 E5.38856
G1 X44.087 Y-53.737 E5.40758
G1 X44.752 Y-52.988 E5.43112
G1 X45.184 Y-52.429 E5.44773
G1 X45.637 Y-51.765 E5.46661
G1 X45.997 Y-51.163 E5.48311
G1 X46.347 Y-50.491 E5.50092
G1 X46.674 Y-49.756 E5.51984
G1 X46.855 Y-49.286 E5.53170
G1 X47.075 Y-48.620 E5.54817
G1 X47.222 Y-48.086 E5.56119
G1 X47.376 Y-47.399 E5.57775
G1 X47.504 Y-46.603 E5.59670
G1 X47.558 Y-46.104 E5.60850
G1 X47.607 Y-45.000 E5.63449
G1 X47.605 Y45.153 E7.75394
G1 X47.577 Y45.849 E7.77031
G1 X47.533 Y46.359 E7.78235
G1 X47.376 Y47.399 E7.80708
G1 X47.146 Y48.376 E7.83066
G1 X46.829 Y49.358 E7.85493
G1 X46.555 Y50.039 E7.87218
G1 X46.347 Y50.493 E7.88392
G1 X45.872 Y51.380 E7.90758
G1 X45.315 Y52.248 E7.93182
G1 X44.748 Y52.993 E7.95384
G1 X44.224 Y53.593 E7.97255
G1 X43.731 Y54.094 E7.98909
G1 X43.360 Y54.436 E8.00094
G1 X42.744 Y54.947 E8.01977
G1 X42.337 Y55.251 E8.03171
G1 X41.754 Y55.644 E8.04824
G1 X41.279 Y55.932 E8.06129
G1 X40.618 Y56.285 E8.07892
G1 X40.161 Y56.502 E8.09080
G1 X39.513 Y56.771 E8.10730
G1 X38.750 Y57.036 E8.12628
G1 X38.076 Y57.225 E8.14275
G1 X37.290 Y57.397 E8.16168
G1 X36.788 Y57.479 E8.17362
G1 X36.094 Y57.559 E8.19004
G1 X35.338 Y57.602 E8.20784
G1 X-35.385 Y57.601 E9.87050
G1 X-36.217 Y57.548 E9.89011
G1 X-36.918 Y57.460 E9.90672
G1 X-37.705 Y57.313 E9.92555
G1 X-38.441 Y57.128 E9.94339
G1 X-39.109 Y56.918 E9.95985
G1 X-39.863 Y56.631 E9.97882
G1 X-40.501 Y56.343 E9.99526
G1 X-41.237 Y55.956 E10.01481
G1 X-41.860 Y55.577 E10.03197
G1 X-42.440 Y55.177 E10.04852
G1 X-43.076 Y54.680 E10.06751
G1 X-43.601 Y54.217 E10.08395
G1 X-44.172 Y53.648 E10.10291
G1 X-44.641 Y53.123 E10.11946
G1 X-45.110 Y52.531 E10.13720
G1 X-45.571 Y51.869 E10.15619
G1 X-45.936 Y51.271 E10.17266
G1 X-46.315 Y50.558 E10.19163
G1 X-46.606 Y49.921 E10.20810
G1 X-46.898 Y49.166 E10.22713
G1 X-47.111 Y48.501 E10.24354
G1 X-47.299 Y47.768 E10.26133
G1 X-47.438 Y47.056 E10.27839
G1 X-47.514 Y46.526 E10.29097
G1 X-47.585 Y45.730 E10.30976
G1 X-47.607 Y44.950 E10.32810
G1 X-47.607 Y0.060 E11.38345
G1 X-47.071 Y0.060 F6000.000
G1 X-47.071 Y-45.050 E12.44396 F1800.000
G1 X-47.016 Y-46.157 E12.47003
G1 X-46.957 Y-46.656 E12.48184
G1 X-46.827 Y-47.413 E12.49989
G1 X-46.716 Y-47.907 E12.51180
G1 X-46.520 Y-48.606 E12.52885
G1 X-46.293 Y-49.263 E12.54520
G1 X-46.035 Y-49.892 E12.56118
G1 X-45.832 Y-50.325 E12.57243
G1 X-45.474 Y-51.000 E12.59040
G1 X-45.120 Y-51.580 E12.60637
G1 X-44.846 Y-51.982 E12.61780
G1 X-44.387 Y-52.589 E12.63569
G1 X-43.944 Y-53.105 E12.65169
G1 X-43.415 Y-53.653 E12.66959
G1 X-43.039 Y-54.005 E12.68169
G1 X-42.510 Y-54.450 E12.69796
G1 X-41.965 Y-54.858 E12.71396
G1 X-41.327 Y-55.279 E12.73193
G1 X-40.488 Y-55.751 E12.75455
G1 X-39.653 Y-56.138 E12.77619
G1 X-38.750 Y-56.473 E12.79884
G1 X-38.015 Y-56.688 E12.81683
G1 X-37.076 Y-56.890 E12.83941
G1 X-36.190 Y-57.012 E12.86045
G1 X-35.398 Y-57.064 E12.87910
G1 X34.975 Y-57.071 E14.53354
G1 X36.001 Y-57.029 E14.55769 F1800.000
G1 X36.483 Y-56.979 E14.56907
G1 X37.232 Y-56.862 E14.58689
G1 X37.900 Y-56.717 E14.60296
G1 X38.367 Y-56.591 E14.61435
G1 X38.864 Y-56.435 E14.62658
G1 X39.503 Y-56.199 E14.64260
G1 X40.200 Y-55.893 E14.66049
G1 X40.633 Y-55.675 E14.67189
G1 X41.074 Y-55.431 E14.68375
G1 X41.604 Y-55.104 E14.69838
G1 X42.418 Y-54.522 E14.72192
G1 X43.000 Y-54.038 E14.73971
G1 X43.357 Y-53.710 E14.75110
G1 X43.698 Y-53.369 E14.76245
G1 X44.156 Y-52.866 E14.77843
G1 X44.635 Y-52.270 E14.79640
G1 X44.918 Y-51.880 E14.80773
G1 X45.285 Y-51.318 E14.82352
G1 X45.532 Y-50.898 E14.83497
G1 X45.985 Y-50.003 E14.85855
G1 X46.177 Y-49.558 E14.86994
G1 X46.416 Y-48.919 E14.88598
G1 X46.702 Y-47.959 E14.90953
G1 X46.811 Y-47.488 E14.92089
G1 X46.932 Y-46.820 E14.93687
G1 X46.996 Y-46.340 E14.94825
G1 X47.053 Y-45.653 E14.96445
G1 X47.071 Y-45.000 E14.97982
G1 X47.071 Y45.000 E17.09567
G1 X47.054 Y45.622 E17.11029
G1 X47.000 Y46.305 E17.12641
G1 X46.900 Y47.020 E17.14337
G1 X46.749 Y47.766 E17.16127
G1 X46.575 Y48.422 E17.17721
G1 X46.361 Y49.079 E17.19347
G1 X46.176 Y49.560 E17.20558
G1 X45.866 Y50.255 E17.22348
G1 X45.552 Y50.862 E17.23954
G1 X45.162 Y51.515 E17.25742
G1 X44.876 Y51.942 E17.26951
G1 X44.460 Y52.497 E17.28580
G1 X44.023 Y53.018 E17.30179
G1 X43.500 Y53.571 E17.31968
G1 X43.002 Y54.038 E17.33574
G1 X42.418 Y54.522 E17.35357
G1 X41.866 Y54.928 E17.36969
G1 X41.203 Y55.356 E17.38823
G1 X40.374 Y55.809 E17.41044
G1 X39.503 Y56.200 E17.43289
G1 X38.595 Y56.523 E17.45554
G1 X37.664 Y56.773 E17.47821
G1 X36.716 Y56.948 E17.50086
G1 X35.834 Y57.043 E17.52172
G1 X35.075 Y57.071 E17.53959
G1 X-35.366 Y57.066 E19.19562
G1 X-36.161 Y57.015 E19.21434
G1 X-36.841 Y56.930 E19.23045
G1 X-37.586 Y56.791 E19.24828
G1 X-38.482 Y56.558 E19.27005
G1 X-39.202 Y56.316 E19.28790
G1 X-39.836 Y56.060 E19.30397
G1 X-40.527 Y55.731 E19.32196
G1 X-41.327 Y55.280 E19.34354
G1 X-41.733 Y55.019 E19.35489
G1 X-42.353 Y54.573 E19.37285
G1 X-42.882 Y54.142 E19.38890
G1 X-43.443 Y53.627 E19.40680
G1 X-43.915 Y53.138 E19.42279
G1 X-44.431 Y52.535 E19.44145
G1 X-44.847 Y51.982 E19.45771
G1 X-45.227 Y51.412 E19.47380
G1 X-45.610 Y50.757 E19.49165
G1 X-45.832 Y50.326 E19.50305
G1 X-46.115 Y49.708 E19.51902
G1 X-46.391 Y48.993 E19.53704
G1 X-46.597 Y48.348 E19.55296
G1 X-46.777 Y47.646 E19.56999
G1 X-46.925 Y46.872 E19.58853
G1 X-47.013 Y46.183 E19.60487
G1 X-47.060 Y45.503 E19.62088
G1 X-47.071 Y44.950 E19.63388
G1 X-47.071 Y0.120 E20.68782
G1 X-46.535 Y0.120 F6000.000
G1 X-46.527 Y-45.442 E21.75896 F1800.000
G1 X-46.451 Y-46.389 E21.78129
G1 X-46.303 Y-47.302 E21.80303
G1 X-46.092 Y-48.166 E21.82394
G1 X-45.793 Y-49.069 E21.84631
G1 X-45.436 Y-49.913 E21.86786
G1 X-45.011 Y-50.730 E21.88950
G1 X-44.521 Y-51.512 E21.91119
G1 X-43.973 Y-52.248 E21.93278
G1 X-43.545 Y-52.749 E21.94827
G1 X-43.226 Y-53.087 E21.95919
G1 X-42.755 Y-53.539 E21.97454
G1 X-42.384 Y-53.862 E21.98610
G1 X-42.023 Y-54.151 E21.99697
G1 X-41.438 Y-54.571 E22.01391
G1 X-41.050 Y-54.821 E22.02475
G1 X-40.480 Y-55.150 E22.04022
G1 X-39.893 Y-55.446 E22.05569
G1 X-39.442 Y-55.645 E22.06727
G1 X-39.013 Y-55.814 E22.07811
G1 X-38.332 Y-56.043 E22.09500
G1 X-37.886 Y-56.168 E22.10589
G1 X-37.245 Y-56.314 E22.12135
G1 X-36.792 Y-56.395 E22.13217
G1 X-36.139 Y-56.479 E22.14763
G1 X-35.650 Y-56.516 E22.15917
G1 X-35.025 Y-56.535 E22.17387
G1 X-0.000 Y-56.535 E22.99729
G1 X34.975 Y-56.535 E23.81954 F1800.000
G1 X35.961 Y-56.495 E23.84274
G1 X36.874 Y-56.381 E23.86438
G1 X37.581 Y-56.242 E23.88131
G1 X38.401 Y-56.022 E23.90126
G1 X39.122 Y-55.773 E23.91919
G1 X39.730 Y-55.520 E23.93468
G1 X40.379 Y-55.204 E23.95166
G1 X40.981 Y-54.863 E23.96792
G1 X41.721 Y-54.374 E23.98876
G1 X42.289 Y-53.940 E24.00558
G1 X42.791 Y-53.506 E24.02120
G1 X43.309 Y-53.001 E24.03820
G1 X43.918 Y-52.316 E24.05974
G1 X44.324 Y-51.791 E24.07533
G1 X44.728 Y-51.198 E24.09222
G1 X45.066 Y-50.632 E24.10771
G1 X45.386 Y-50.017 E24.12401
G1 X45.679 Y-49.360 E24.14092
G1 X45.845 Y-48.929 E24.15177
G1 X46.051 Y-48.304 E24.16724
G1 X46.182 Y-47.832 E24.17875
G1 X46.326 Y-47.187 E24.19431
G1 X46.440 Y-46.475 E24.21125
G1 X46.490 Y-46.018 E24.22205
G1 X46.535 Y-45.000 E24.24602
G1 X46.534 Y45.132 E26.36497
G1 X46.508 Y45.785 E26.38033
G1 X46.467 Y46.252 E26.39136
G1 X46.326 Y47.187 E26.41360
G1 X46.116 Y48.081 E26.43518
G1 X45.823 Y48.992 E26.45768
G1 X45.577 Y49.603 E26.47316
G1 X45.386 Y50.018 E26.48391
G1 X44.953 Y50.831 E26.50555
G1 X44.436 Y51.635 E26.52803
G1 X43.915 Y52.320 E26.54827
G1 X43.446 Y52.856 E26.56501
G1 X42.983 Y53.327 E26.58054
G1 X42.643 Y53.639 E26.59138
G1 X42.092 Y54.097 E26.60822
G1 X41.721 Y54.375 E26.61914
G1 X41.173 Y54.744 E26.63466
G1 X40.753 Y54.998 E26.64620
G1 X40.148 Y55.323 E26.66234
G1 X39.730 Y55.521 E26.67321
G1 X39.122 Y55.774 E26.68871
G1 X38.440 Y56.010 E26.70567
G1 X37.806 Y56.189 E26.72114
G1 X37.103 Y56.342 E26.73806
G1 X36.645 Y56.417 E26.74898
G1 X35.993 Y56.493 E26.76441
G1 X35.301 Y56.531 E26.78070
G1 X-35.348 Y56.531 E28.44163
G1 X-36.105 Y56.482 E28.45946
G1 X-36.763 Y56.400 E28.47506
G1 X-37.467 Y56.269 E28.49189
G1 X-38.141 Y56.100 E28.50821
G1 X-38.768 Y55.903 E28.52368
G1 X-39.442 Y55.646 E28.54063
G1 X-40.041 Y55.376 E28.55608
G1 X-40.711 Y55.023 E28.57386
G1 X-41.270 Y54.683 E28.58927
G1 X-41.814 Y54.307 E28.60481
G1 X-42.384 Y53.863 E28.62179
G1 X-42.876 Y53.428 E28.63723
G1 X-43.387 Y52.920 E28.65418
G1 X-43.827 Y52.426 E28.66972
G1 X-44.256 Y51.885 E28.68595
G1 X-44.668 Y51.292 E28.70293
G1 X-45.011 Y50.731 E28.71840
G1 X-45.350 Y50.094 E28.73536
G1 X-45.623 Y49.495 E28.75083
G1 X-45.884 Y48.820 E28.76784
G1 X-46.084 Y48.195 E28.78326
G1 X-46.256 Y47.525 E28.79953
G1 X-46.396 Y46.787 E28.81720
G1 X-46.479 Y46.134 E28.83266
G1 X-46.525 Y45.476 E28.84816
G1 X-46.535 Y44.950 E28.86053
G1 X-46.535 Y0.180 E29.91306
G1 F4800
G1 X-46.535 Y-3.820 E28.01306
G1 E27.91306 F2400.00000
G92 E0
G1 X27.171 Y38.707 F6000.000
G1 E2.00000 F2400.00000
G1 X27.487 Y38.124 E2.01559 F450.000
G1 X27.912 Y37.615 E2.03117
G1 X28.429 Y37.201 E2.04676
G1 X29.018 Y36.896 E2.06234
G1 X29.647 Y36.716 E2.07773
G1 X30.192 Y36.662 E2.09060 F450.000
G1 X30.844 Y36.714 E2.10599
G1 X31.482 Y36.896 E2.12157
G1 X32.071 Y37.201 E2.13716
G1 X32.588 Y37.615 E2.15275
G1 X33.013 Y38.124 E2.16833
G1 X33.329 Y38.707 E2.18392
G1 X33.524 Y39.341 E2.19950
G1 X33.590 Y40.000 E2.21509
G1 X33.524 Y40.660 E2.23068
G1 X33.329 Y41.294 E2.24626
G1 X33.017 Y41.870 E2.26166
G1 X32.670 Y42.301 E2.27468
G1 X32.180 Y42.726 E2.28992
G1 X31.604 Y43.053 E2.30549
G1 X30.974 Y43.260 E2.32108
G1 X30.316 Y43.339 E2.33666
G1 X29.655 Y43.287 E2.35225
G1 X29.018 Y43.105 E2.36784
G1 X28.429 Y42.800 E2.38342
G1 X27.912 Y42.385 E2.39901
G1 X27.487 Y41.876 E2.41459
G1 X27.171 Y41.294 E2.43018
G1 X26.976 Y40.660 E2.44577
G1 X26.910 Y40.000 E2.46135
G1 X26.976 Y39.341 E2.47694
G1 X27.153 Y38.764 E2.49111
G1 X27.665 Y38.922 F6000.000
G1 X27.932 Y38.427 E2.50434 F450.000
G1 X28.289 Y38.000 E2.51741
G1 X28.722 Y37.652 E2.53049
G1 X29.216 Y37.396 E2.54356
G1 X29.748 Y37.244 E2.55656
G1 X30.197 Y37.200 E2.56717 F450.000
G1 X30.749 Y37.244 E2.58017
G1 X31.283 Y37.396 E2.59325
G1 X31.777 Y37.652 E2.60632
G1 X32.211 Y38.000 E2.61939
G1 X32.568 Y38.427 E2.63247
G1 X32.833 Y38.915 E2.64554
G1 X32.996 Y39.447 E2.65862
G1 X33.051 Y40.000 E2.67169
G1 X32.996 Y40.554 E2.68476
G1 X32.833 Y41.085 E2.69784
G1 X32.569 Y41.572 E2.71085
G1 X32.282 Y41.928 E2.72160
G1 X31.869 Y42.286 E2.73445
G1 X31.386 Y42.561 E2.74752
G1 X30.858 Y42.735 E2.76060
G1 X30.306 Y42.801 E2.77367
G1 X29.751 Y42.757 E2.78674
G1 X29.216 Y42.604 E2.79982
G1 X28.722 Y42.349 E2.81289
G1 X28.289 Y42.001 E2.82597
G1 X27.932 Y41.574 E2.83904
G1 X27.667 Y41.085 E2.85212
G1 X27.504 Y40.554 E2.86519
G1 X27.448 Y40.000 E2.87826
G1 X27.504 Y39.447 E2.89134
G1 X27.647 Y38.979 E2.90285
G1 X27.433 Y38.596 F6000.000
G1 X-26.910 Y40.000 F6000.000
G1 X-26.976 Y40.660 E2.91843 F450.000
G1 X-27.171 Y41.294 E2.93402
G1 X-27.487 Y41.876 E2.94960
G1 X-27.912 Y42.385 E2.96519
G1 X-28.429 Y42.800 E2.98078
G1 X-29.018 Y43.105 E2.99636
G1 X-29.656 Y43.287 E3.01195
G1 X-30.308 Y43.339 E3.02734
G1 X-30.853 Y43.284 E3.04020
G1 X-31.482 Y43.105 E3.05559
G1 X-32.071 Y42.800 E3.07118
G1 X-32.588 Y42.385 E3.08676
G1 X-33.013 Y41.876 E3.10235
G1 X-33.329 Y41.294 E3.11794
G1 X-33.524 Y40.660 E3.13352
G1 X-33.590 Y40.000 E3.14911
G1 X-33.524 Y39.341 E3.16469
G1 X-33.329 Y38.707 E3.18028
G1 X-33.013 Y38.124 E3.19587
G1 X-32.588 Y37.615 E3.21145
G1 X-32.071 Y37.201 E3.22704
G1 X-31.482 Y36.896 E3.24262
G1 X-30.845 Y36.714 E3.25820
G1 X-30.199 Y36.662 E3.27344 F450.000
G1 X-29.648 Y36.716 E3.28645
G1 X-29.018 Y36.896 E3.30185
G1 X-28.429 Y37.201 E3.31744
G1 X-27.912 Y37.615 E3.33302
G1 X-27.487 Y38.124 E3.34861
G1 X-27.171 Y38.707 E3.36420
G1 X-26.976 Y39.341 E3.37978
G1 X-26.916 Y39.941 E3.39396
G1 X-27.449 Y39.994 F6000.000
G1 X-27.504 Y40.554 E3.40718 F450.000
G1 X-27.667 Y41.085 E3.42026
G1 X-27.932 Y41.574 E3.43333
G1 X-28.289 Y42.001 E3.44641
G1 X-28.723 Y42.349 E3.45948
G1 X-29.217 Y42.604 E3.47255
G1 X-29.751 Y42.757 E3.48563
G1 X-30.303 Y42.801 E3.49863
G1 X-30.752 Y42.756 E3.50924
G1 X-31.284 Y42.604 E3.52224
G1 X-31.778 Y42.349 E3.53531
G1 X-32.211 Y42.001 E3.54839
G1 X-32.568 Y41.574 E3.56146
G1 X-32.833 Y41.085 E3.57454
G1 X-32.996 Y40.554 E3.58761
G1 X-33.052 Y40.000 E3.60068
G1 X-32.996 Y39.447 E3.61376
G1 X-32.833 Y38.915 E3.62683
G1 X-32.568 Y38.427 E3.63991
G1 X-32.211 Y38.000 E3.65298
G1 X-31.778 Y37.652 E3.66605
G1 X-31.284 Y37.396 E3.67913
G1 X-30.749 Y37.244 E3.69220
G1 X-30.204 Y37.200 E3.70506 F450.000
G1 X-29.749 Y37.244 E3.71580
G1 X-29.217 Y37.396 E3.72881
G1 X-28.723 Y37.652 E3.74189
G1 X-28.289 Y38.000 E3.75496
G1 X-27.932 Y38.427 E3.76804
G1 X-27.667 Y38.915 E3.78111
G1 X-27.504 Y39.447 E3.79418
G1 X-27.455 Y39.934 E3.80569
G1 X-27.109 Y40.205 F6000.000
G1 X-30.192 Y-36.661 F6000.000
G1 X-30.845 Y-36.713 E3.82108 F450.000
G1 X-31.482 Y-36.895 E3.83667
G1 X-32.071 Y-37.200 E3.85225
G1 X-32.588 Y-37.615 E3.86784
G1 X-33.013 Y-38.124 E3.88343
G1 X-33.329 Y-38.706 E3.89901
G1 X-33.524 Y-39.340 E3.91460
G1 X-33.590 Y-40.000 E3.93019
G1 X-33.524 Y-40.659 E3.94577
G1 X-33.329 Y-41.293 E3.96136
G1 X-33.013 Y-41.876 E3.97694
G1 X-32.588 Y-42.385 E3.99253
G1 X-32.071 Y-42.799 E4.00812
G1 X-31.482 Y-43.104 E4.02370
G1 X-30.853 Y-43.284 E4.03909
G1 X-30.308 Y-43.338 E4.05196 F450.000
G1 X-29.656 Y-43.286 E4.06734
G1 X-29.018 Y-43.104 E4.08293
G1 X-28.429 Y-42.799 E4.09852
G1 X-27.912 Y-42.385 E4.11410
G1 X-27.487 Y-41.876 E4.12969
G1 X-27.171 Y-41.293 E4.14528
G1 X-26.976 Y-40.659 E4.16086
G1 X-26.910 Y-40.000 E4.17645
G1 X-26.976 Y-39.340 E4.19203
G1 X-27.171 Y-38.706 E4.20762
G1 X-27.487 Y-38.124 E4.22320
G1 X-27.912 Y-37.615 E4.23879
G1 X-28.429 Y-37.200 E4.25438
G1 X-29.018 Y-36.895 E4.26996
G1 X-29.648 Y-36.716 E4.28535
G1 X-30.132 Y-36.667 E4.29681
G1 X-30.186 Y-37.200 F6000.000
G1 X-30.749 Y-37.243 E4.31009 F450.000
G1 X-31.284 Y-37.396 E4.32316
G1 X-31.778 Y-37.651 E4.33624
