(Created with emc2b post processor 2016/08/24 19:15)
(tool change to 3 mm Slot Cutter)
T1 M06 G43
G17 G90 G21
G00 Z1 S7000 M03
X-19.885 Y65.946
G01 Z-0.442 F100
G03 X-19.448 Y65.925 I0.533 J6.552 
G01 X20.122 Y65.914 
G02 X20.845 Y64.632 I-0.027 J-0.86 
X20.248 Y64.119 I-0.757 J0.277 
X19.357 Y64.075 I-0.55 J2.114 
G01 X-19.963 Y64.075 
G02 X-20.874 Y65.291 I-0.115 J0.862 
X-20.3 Y65.868 I0.794 J-0.216 
X-19.885 Y65.946 I0.46 J-1.306 
G00 Z1
Z0.557
G01 Z-0.885 
G03 X-19.448 Y65.925 I0.533 J6.552 
G01 X20.122 Y65.914 
G02 X20.845 Y64.632 I-0.027 J-0.86 
X20.248 Y64.119 I-0.757 J0.277 
X19.357 Y64.075 I-0.55 J2.114 
G01 X-19.963 Y64.075 
G02 X-20.874 Y65.291 I-0.115 J0.862 
X-20.3 Y65.868 I0.794 J-0.216 
X-19.885 Y65.946 I0.46 J-1.306 
G00 Z1
Z0.114
G01 Z-1.328 
G03 X-19.448 Y65.925 I0.533 J6.552 
G01 X20.122 Y65.914 
G02 X20.845 Y64.632 I-0.027 J-0.86 
X20.248 Y64.119 I-0.757 J0.277 
X19.357 Y64.075 I-0.55 J2.114 
G01 X-19.963 Y64.075 
G02 X-20.874 Y65.291 I-0.115 J0.862 
X-20.3 Y65.868 I0.794 J-0.216 
X-19.885 Y65.946 I0.46 J-1.306 
G00 Z1
Z-0.328
G01 Z-1.771 
G03 X-19.448 Y65.925 I0.533 J6.552 
G01 X20.122 Y65.914 
G02 X20.845 Y64.632 I-0.027 J-0.86 
X20.248 Y64.119 I-0.757 J0.277 
X19.357 Y64.075 I-0.55 J2.114 
G01 X-19.963 Y64.075 
G02 X-20.874 Y65.291 I-0.115 J0.862 
X-20.3 Y65.868 I0.794 J-0.216 
X-19.885 Y65.946 I0.46 J-1.306 
G00 Z1
Z-0.771
G01 Z-2.214 
G03 X-19.448 Y65.925 I0.533 J6.552 
G01 X20.122 Y65.914 
G02 X20.845 Y64.632 I-0.027 J-0.86 
X20.248 Y64.119 I-0.757 J0.277 
X19.357 Y64.075 I-0.55 J2.114 
G01 X-19.963 Y64.075 
G02 X-20.874 Y65.291 I-0.115 J0.862 
X-20.3 Y65.868 I0.794 J-0.216 
X-19.885 Y65.946 I0.46 J-1.306 
G00 Z1
Z-1.214
G01 Z-2.657 
G03 X-19.448 Y65.925 I0.533 J6.552 
G01 X20.122 Y65.914 
G02 X20.845 Y64.632 I-0.027 J-0.86 
X20.248 Y64.119 I-0.757 J0.277 
X19.357 Y64.075 I-0.55 J2.114 
G01 X-19.963 Y64.075 
G02 X-20.874 Y65.291 I-0.115 J0.862 
X-20.3 Y65.868 I0.794 J-0.216 
X-19.885 Y65.946 I0.46 J-1.306 
G00 Z1
Z-1.657
G01 Z-3.1 
G03 X-19.448 Y65.925 I0.533 J6.552 
G01 X20.122 Y65.914 
G02 X20.845 Y64.632 I-0.027 J-0.86 
X20.248 Y64.119 I-0.757 J0.277 
X19.357 Y64.075 I-0.55 J2.114 
G01 X-19.963 Y64.075 
G02 X-20.874 Y65.291 I-0.115 J0.862 
X-20.3 Y65.868 I0.794 J-0.216 
X-19.885 Y65.946 I0.46 J-1.306 
G00 Z1
X29.98 Y55.923 S7000 M03
G01 Z-0.442 
G02 X30.107 Y54.084 I0.022 J-0.922 
X29.858 Y55.914 I-0.112 J0.916 
G01 X29.98 Y55.923 
G00 Z1
Z0.557
G01 Z-0.885 
G02 X30.107 Y54.084 I0.022 J-0.922 
X29.858 Y55.914 I-0.112 J0.916 
G01 X29.98 Y55.923 
G00 Z1
Z0.114
G01 Z-1.328 
G02 X30.107 Y54.084 I0.022 J-0.922 
X29.858 Y55.914 I-0.112 J0.916 
G01 X29.98 Y55.923 
G00 Z1
Z-0.328
G01 Z-1.771 
G02 X30.107 Y54.084 I0.022 J-0.922 
X29.858 Y55.914 I-0.112 J0.916 
G01 X29.98 Y55.923 
G00 Z1
Z-0.771
G01 Z-2.214 
G02 X30.107 Y54.084 I0.022 J-0.922 
X29.858 Y55.914 I-0.112 J0.916 
G01 X29.98 Y55.923 
G00 Z1
Z-1.214
G01 Z-2.657 
G02 X30.107 Y54.084 I0.022 J-0.922 
X29.858 Y55.914 I-0.112 J0.916 
G01 X29.98 Y55.923 
G00 Z1
Z-1.657
G01 Z-3.1 
G02 X30.107 Y54.084 I0.022 J-0.922 
X29.858 Y55.914 I-0.112 J0.916 
G01 X29.98 Y55.923 
G00 Z1
X-19.812 Y45.949 S7000 M03
G01 Z-0.442 
G03 X-19.356 Y45.925 I0.618 J7.4 
G01 X20.122 Y45.914 
G02 X20.845 Y44.632 I-0.027 J-0.86 
X20.248 Y44.119 I-0.757 J0.277 
X19.356 Y44.074 I-0.555 J2.141 
G01 X-20.042 Y44.076 
G02 X-20.859 Y45.335 I-0.044 J0.865 
X-20.257 Y45.877 I0.773 J-0.253 
X-19.812 Y45.949 I0.455 J-1.401 
G00 Z1
Z0.557
G01 Z-0.885 
G03 X-19.356 Y45.925 I0.618 J7.4 
G01 X20.122 Y45.914 
G02 X20.845 Y44.632 I-0.027 J-0.86 
X20.248 Y44.119 I-0.757 J0.277 
X19.356 Y44.074 I-0.555 J2.141 
G01 X-20.042 Y44.076 
G02 X-20.859 Y45.335 I-0.044 J0.865 
X-20.257 Y45.877 I0.773 J-0.253 
X-19.812 Y45.949 I0.455 J-1.401 
G00 Z1
Z0.114
G01 Z-1.328 
G03 X-19.356 Y45.925 I0.618 J7.4 
G01 X20.122 Y45.914 
G02 X20.845 Y44.632 I-0.027 J-0.86 
X20.248 Y44.119 I-0.757 J0.277 
X19.356 Y44.074 I-0.555 J2.141 
G01 X-20.042 Y44.076 
G02 X-20.859 Y45.335 I-0.044 J0.865 
X-20.257 Y45.877 I0.773 J-0.253 
X-19.812 Y45.949 I0.455 J-1.401 
G00 Z1
Z-0.328
G01 Z-1.771 
G03 X-19.356 Y45.925 I0.618 J7.4 
G01 X20.122 Y45.914 
G02 X20.845 Y44.632 I-0.027 J-0.86 
X20.248 Y44.119 I-0.757 J0.277 
X19.356 Y44.074 I-0.555 J2.141 
G01 X-20.042 Y44.076 
G02 X-20.859 Y45.335 I-0.044 J0.865 
X-20.257 Y45.877 I0.773 J-0.253 
X-19.812 Y45.949 I0.455 J-1.401 
G00 Z1
Z-0.771
G01 Z-2.214 
G03 X-19.356 Y45.925 I0.618 J7.4 
G01 X20.122 Y45.914 
G02 X20.845 Y44.632 I-0.027 J-0.86 
X20.248 Y44.119 I-0.757 J0.277 
X19.356 Y44.074 I-0.555 J2.141 
G01 X-20.042 Y44.076 
G02 X-20.859 Y45.335 I-0.044 J0.865 
X-20.257 Y45.877 I0.773 J-0.253 
X-19.812 Y45.949 I0.455 J-1.401 
G00 Z1
Z-1.214
G01 Z-2.657 
G03 X-19.356 Y45.925 I0.618 J7.4 
G01 X20.122 Y45.914 
G02 X20.845 Y44.632 I-0.027 J-0.86 
X20.248 Y44.119 I-0.757 J0.277 
X19.356 Y44.074 I-0.555 J2.141 
G01 X-20.042 Y44.076 
G02 X-20.859 Y45.335 I-0.044 J0.865 
X-20.257 Y45.877 I0.773 J-0.253 
X-19.812 Y45.949 I0.455 J-1.401 
G00 Z1
Z-1.657
G01 Z-3.1 
G03 X-19.356 Y45.925 I0.618 J7.4 
G01 X20.122 Y45.914 
G02 X20.845 Y44.632 I-0.027 J-0.86 
X20.248 Y44.119 I-0.757 J0.277 
X19.356 Y44.074 I-0.555 J2.141 
G01 X-20.042 Y44.076 
G02 X-20.859 Y45.335 I-0.044 J0.865 
X-20.257 Y45.877 I0.773 J-0.253 
X-19.812 Y45.949 I0.455 J-1.401 
G00 Z1
X-30.018 Y55.923 S7000 M03
G01 Z-0.442 
G02 X-29.891 Y54.084 I0.022 J-0.922 
X-30.14 Y55.914 I-0.112 J0.916 
G01 X-30.018 Y55.923 
G00 Z1
Z0.557
G01 Z-0.885 
G02 X-29.891 Y54.084 I0.022 J-0.922 
X-30.14 Y55.914 I-0.112 J0.916 
G01 X-30.018 Y55.923 
G00 Z1
Z0.114
G01 Z-1.328 
G02 X-29.891 Y54.084 I0.022 J-0.922 
X-30.14 Y55.914 I-0.112 J0.916 
G01 X-30.018 Y55.923 
G00 Z1
Z-0.328
G01 Z-1.771 
G02 X-29.891 Y54.084 I0.022 J-0.922 
X-30.14 Y55.914 I-0.112 J0.916 
G01 X-30.018 Y55.923 
G00 Z1
Z-0.771
G01 Z-2.214 
G02 X-29.891 Y54.084 I0.022 J-0.922 
X-30.14 Y55.914 I-0.112 J0.916 
G01 X-30.018 Y55.923 
G00 Z1
Z-1.214
G01 Z-2.657 
G02 X-29.891 Y54.084 I0.022 J-0.922 
X-30.14 Y55.914 I-0.112 J0.916 
G01 X-30.018 Y55.923 
G00 Z1
Z-1.657
G01 Z-3.1 
G02 X-29.891 Y54.084 I0.022 J-0.922 
X-30.14 Y55.914 I-0.112 J0.916 
G01 X-30.018 Y55.923 
G00 Z1
X-23.609 Y36.838 S7000 M03
G01 Z-0.442 
G02 X-22.601 Y35.856 I0.025 J-0.981 
X-22.65 Y30.806 I-968.19 J6.869 
X-24.143 Y30.136 I-0.925 J0.063 
X-24.497 Y31.044 I0.656 J0.778 
G03 X-24.494 Y31.985 I-11.693 J0.507 
G01 X-24.494 Y33.752 
G03 X-24.502 Y35.54 I-199.03 J0.003 
X-24.53 Y35.956 I-5.279 J-0.146 
G02 X-23.609 Y36.838 I0.948 J-0.068 
G00 Z1
Z0.557
G01 Z-0.885 
G02 X-22.601 Y35.856 I0.025 J-0.981 
X-22.65 Y30.806 I-968.19 J6.869 
X-24.143 Y30.136 I-0.925 J0.063 
X-24.497 Y31.044 I0.656 J0.778 
G03 X-24.494 Y31.985 I-11.693 J0.507 
G01 X-24.494 Y33.752 
G03 X-24.502 Y35.54 I-199.03 J0.003 
X-24.53 Y35.956 I-5.279 J-0.146 
G02 X-23.609 Y36.838 I0.948 J-0.068 
G00 Z1
Z0.114
G01 Z-1.328 
G02 X-22.601 Y35.856 I0.025 J-0.981 
X-22.65 Y30.806 I-968.19 J6.869 
X-24.143 Y30.136 I-0.925 J0.063 
X-24.497 Y31.044 I0.656 J0.778 
G03 X-24.494 Y31.985 I-11.693 J0.507 
G01 X-24.494 Y33.752 
G03 X-24.502 Y35.54 I-199.03 J0.003 
X-24.53 Y35.956 I-5.279 J-0.146 
G02 X-23.609 Y36.838 I0.948 J-0.068 
G00 Z1
Z-0.328
G01 Z-1.771 
G02 X-22.601 Y35.856 I0.025 J-0.981 
X-22.65 Y30.806 I-968.19 J6.869 
X-24.143 Y30.136 I-0.925 J0.063 
X-24.497 Y31.044 I0.656 J0.778 
G03 X-24.494 Y31.985 I-11.693 J0.507 
G01 X-24.494 Y33.752 
G03 X-24.502 Y35.54 I-199.03 J0.003 
X-24.53 Y35.956 I-5.279 J-0.146 
G02 X-23.609 Y36.838 I0.948 J-0.068 
G00 Z1
Z-0.771
G01 Z-2.214 
G02 X-22.601 Y35.856 I0.025 J-0.981 
X-22.65 Y30.806 I-968.19 J6.869 
X-24.143 Y30.136 I-0.925 J0.063 
X-24.497 Y31.044 I0.656 J0.778 
G03 X-24.494 Y31.985 I-11.693 J0.507 
G01 X-24.494 Y33.752 
G03 X-24.502 Y35.54 I-199.03 J0.003 
X-24.53 Y35.956 I-5.279 J-0.146 
G02 X-23.609 Y36.838 I0.948 J-0.068 
G00 Z1
Z-1.214
G01 Z-2.657 
G02 X-22.601 Y35.856 I0.025 J-0.981 
X-22.65 Y30.806 I-968.19 J6.869 
X-24.143 Y30.136 I-0.925 J0.063 
X-24.497 Y31.044 I0.656 J0.778 
G03 X-24.494 Y31.985 I-11.693 J0.507 
G01 X-24.494 Y33.752 
G03 X-24.502 Y35.54 I-199.03 J0.003 
X-24.53 Y35.956 I-5.279 J-0.146 
G02 X-23.609 Y36.838 I0.948 J-0.068 
G00 Z1
Z-1.657
G01 Z-3.1 
G02 X-22.601 Y35.856 I0.025 J-0.981 
X-22.65 Y30.806 I-968.19 J6.869 
X-24.143 Y30.136 I-0.925 J0.063 
X-24.497 Y31.044 I0.656 J0.778 
G03 X-24.494 Y31.985 I-11.693 J0.507 
G01 X-24.494 Y33.752 
G03 X-24.502 Y35.54 I-199.03 J0.003 
X-24.53 Y35.956 I-5.279 J-0.146 
G02 X-23.609 Y36.838 I0.948 J-0.068 
G00 Z1
(Sketch 9)
