(Created with emc2b post processor 2016/11/30 19:46)
(tool change to 3 mm Slot Cutter)
T1 M06 G43
G17 G90 G21
G00 Z1 S7000 M03
X63.113 Y143.946
G01 Z-0.5 F150
G03 X63.55 Y143.925 I0.533 J6.552
G01 X103.122 Y143.914
G02 X103.845 Y142.632 I-0.027 J-0.86
X103.248 Y142.119 I-0.757 J0.277
X102.357 Y142.075 I-0.55 J2.114
G01 X63.036 Y142.075
G02 X62.124 Y143.291 I-0.116 J0.862
X62.698 Y143.868 I0.794 J-0.216
X63.113 Y143.946 I0.46 J-1.306
G00 Z1
Z0.5
G01 Z-1
G03 X63.55 Y143.925 I0.533 J6.552
G01 X103.122 Y143.914
G02 X103.845 Y142.632 I-0.027 J-0.86
X103.248 Y142.119 I-0.757 J0.277
X102.357 Y142.075 I-0.55 J2.114
G01 X63.036 Y142.075
G02 X62.124 Y143.291 I-0.116 J0.862
X62.698 Y143.868 I0.794 J-0.216
X63.113 Y143.946 I0.46 J-1.306
G00 Z1
Z0
G01 Z-1.5
G03 X63.55 Y143.925 I0.533 J6.552
G01 X103.122 Y143.914
G02 X103.845 Y142.632 I-0.027 J-0.86
X103.248 Y142.119 I-0.757 J0.277
X102.357 Y142.075 I-0.55 J2.114
G01 X63.036 Y142.075
G02 X62.124 Y143.291 I-0.116 J0.862
X62.698 Y143.868 I0.794 J-0.216
X63.113 Y143.946 I0.46 J-1.306
G00 Z1
Z-0.5
G01 Z-2
G03 X63.55 Y143.925 I0.533 J6.552
G01 X103.122 Y143.914
G02 X103.845 Y142.632 I-0.027 J-0.86
X103.248 Y142.119 I-0.757 J0.277
X102.357 Y142.075 I-0.55 J2.114
G01 X63.036 Y142.075
G02 X62.124 Y143.291 I-0.116 J0.862
X62.698 Y143.868 I0.794 J-0.216
X63.113 Y143.946 I0.46 J-1.306
G00 Z1
Z-1
G01 Z-2.5
G03 X63.55 Y143.925 I0.533 J6.552
G01 X103.122 Y143.914
G02 X103.845 Y142.632 I-0.027 J-0.86
X103.248 Y142.119 I-0.757 J0.277
X102.357 Y142.075 I-0.55 J2.114
G01 X63.036 Y142.075
G02 X62.124 Y143.291 I-0.116 J0.862
X62.698 Y143.868 I0.794 J-0.216
X63.113 Y143.946 I0.46 J-1.306
G00 Z1
Z-1.5
G01 Z-3
G03 X63.55 Y143.925 I0.533 J6.552
G01 X103.122 Y143.914
G02 X103.845 Y142.632 I-0.027 J-0.86
X103.248 Y142.119 I-0.757 J0.277
X102.357 Y142.075 I-0.55 J2.114
G01 X63.036 Y142.075
G02 X62.124 Y143.291 I-0.116 J0.862
X62.698 Y143.868 I0.794 J-0.216
X63.113 Y143.946 I0.46 J-1.306
G00 Z1
Z-2
G01 Z-3.5
G03 X63.55 Y143.925 I0.533 J6.552
G01 X103.122 Y143.914
G02 X103.845 Y142.632 I-0.027 J-0.86
X103.248 Y142.119 I-0.757 J0.277
X102.357 Y142.075 I-0.55 J2.114
G01 X63.036 Y142.075
G02 X62.124 Y143.291 I-0.116 J0.862
X62.698 Y143.868 I0.794 J-0.216
X63.113 Y143.946 I0.46 J-1.306
G00 Z1
X112.98 Y133.923 S7000 M03
G01 Z-0.5
G02 X113.107 Y132.084 I0.022 J-0.922
X112.858 Y133.914 I-0.112 J0.916
G01 X112.98 Y133.923
G00 Z1
Z0.5
G01 Z-1
G02 X113.107 Y132.084 I0.022 J-0.922
X112.858 Y133.914 I-0.112 J0.916
G01 X112.98 Y133.923
G00 Z1
Z0
G01 Z-1.5
G02 X113.107 Y132.084 I0.022 J-0.922
X112.858 Y133.914 I-0.112 J0.916
G01 X112.98 Y133.923
G00 Z1
Z-0.5
G01 Z-2
G02 X113.107 Y132.084 I0.022 J-0.922
X112.858 Y133.914 I-0.112 J0.916
G01 X112.98 Y133.923
G00 Z1
Z-1
G01 Z-2.5
G02 X113.107 Y132.084 I0.022 J-0.922
X112.858 Y133.914 I-0.112 J0.916
G01 X112.98 Y133.923
G00 Z1
Z-1.5
G01 Z-3
G02 X113.107 Y132.084 I0.022 J-0.922
X112.858 Y133.914 I-0.112 J0.916
G01 X112.98 Y133.923
G00 Z1
Z-2
G01 Z-3.5
G02 X113.107 Y132.084 I0.022 J-0.922
X112.858 Y133.914 I-0.112 J0.916
G01 X112.98 Y133.923
G00 Z1
X63.186 Y123.949 S7000 M03
G01 Z-0.5
G03 X63.642 Y123.925 I0.618 J7.4
G01 X103.122 Y123.914
G02 X103.845 Y122.632 I-0.027 J-0.86
X103.248 Y122.119 I-0.757 J0.277
X102.356 Y122.074 I-0.555 J2.141
G01 X62.956 Y122.076
G02 X62.139 Y123.335 I-0.044 J0.865
X62.741 Y123.877 I0.773 J-0.253
X63.186 Y123.949 I0.455 J-1.401
G00 Z1
Z0.5
G01 Z-1
G03 X63.642 Y123.925 I0.618 J7.4
G01 X103.122 Y123.914
G02 X103.845 Y122.632 I-0.027 J-0.86
X103.248 Y122.119 I-0.757 J0.277
X102.356 Y122.074 I-0.555 J2.141
G01 X62.956 Y122.076
G02 X62.139 Y123.335 I-0.044 J0.865
X62.741 Y123.877 I0.773 J-0.253
X63.186 Y123.949 I0.455 J-1.401
G00 Z1
Z0
G01 Z-1.5
G03 X63.642 Y123.925 I0.618 J7.4
G01 X103.122 Y123.914
G02 X103.845 Y122.632 I-0.027 J-0.86
X103.248 Y122.119 I-0.757 J0.277
X102.356 Y122.074 I-0.555 J2.141
G01 X62.956 Y122.076
G02 X62.139 Y123.335 I-0.044 J0.865
X62.741 Y123.877 I0.773 J-0.253
X63.186 Y123.949 I0.455 J-1.401
G00 Z1
Z-0.5
G01 Z-2
G03 X63.642 Y123.925 I0.618 J7.4
G01 X103.122 Y123.914
G02 X103.845 Y122.632 I-0.027 J-0.86
X103.248 Y122.119 I-0.757 J0.277
X102.356 Y122.074 I-0.555 J2.141
G01 X62.956 Y122.076
G02 X62.139 Y123.335 I-0.044 J0.865
X62.741 Y123.877 I0.773 J-0.253
X63.186 Y123.949 I0.455 J-1.401
G00 Z1
Z-1
G01 Z-2.5
G03 X63.642 Y123.925 I0.618 J7.4
G01 X103.122 Y123.914
G02 X103.845 Y122.632 I-0.027 J-0.86
X103.248 Y122.119 I-0.757 J0.277
X102.356 Y122.074 I-0.555 J2.141
G01 X62.956 Y122.076
G02 X62.139 Y123.335 I-0.044 J0.865
X62.741 Y123.877 I0.773 J-0.253
X63.186 Y123.949 I0.455 J-1.401
G00 Z1
Z-1.5
G01 Z-3
G03 X63.642 Y123.925 I0.618 J7.4
G01 X103.122 Y123.914
G02 X103.845 Y122.632 I-0.027 J-0.86
X103.248 Y122.119 I-0.757 J0.277
X102.356 Y122.074 I-0.555 J2.141
G01 X62.956 Y122.076
G02 X62.139 Y123.335 I-0.044 J0.865
X62.741 Y123.877 I0.773 J-0.253
X63.186 Y123.949 I0.455 J-1.401
G00 Z1
Z-2
G01 Z-3.5
G03 X63.642 Y123.925 I0.618 J7.4
G01 X103.122 Y123.914
G02 X103.845 Y122.632 I-0.027 J-0.86
X103.248 Y122.119 I-0.757 J0.277
X102.356 Y122.074 I-0.555 J2.141
G01 X62.956 Y122.076
G02 X62.139 Y123.335 I-0.044 J0.865
X62.741 Y123.877 I0.773 J-0.253
X63.186 Y123.949 I0.455 J-1.401
G00 Z1
X52.98 Y133.923 S7000 M03
G01 Z-0.5
G02 X53.107 Y132.084 I0.022 J-0.922
X52.858 Y133.914 I-0.112 J0.916
G01 X52.98 Y133.923
G00 Z1
Z0.5
G01 Z-1
G02 X53.107 Y132.084 I0.022 J-0.922
X52.858 Y133.914 I-0.112 J0.916
G01 X52.98 Y133.923
G00 Z1
Z0
G01 Z-1.5
G02 X53.107 Y132.084 I0.022 J-0.922
X52.858 Y133.914 I-0.112 J0.916
G01 X52.98 Y133.923
G00 Z1
Z-0.5
G01 Z-2
G02 X53.107 Y132.084 I0.022 J-0.922
X52.858 Y133.914 I-0.112 J0.916
G01 X52.98 Y133.923
G00 Z1
Z-1
G01 Z-2.5
G02 X53.107 Y132.084 I0.022 J-0.922
X52.858 Y133.914 I-0.112 J0.916
G01 X52.98 Y133.923
G00 Z1
Z-1.5
G01 Z-3
G02 X53.107 Y132.084 I0.022 J-0.922
X52.858 Y133.914 I-0.112 J0.916
G01 X52.98 Y133.923
G00 Z1
Z-2
G01 Z-3.5
G02 X53.107 Y132.084 I0.022 J-0.922
X52.858 Y133.914 I-0.112 J0.916
G01 X52.98 Y133.923
G00 Z1
X59.389 Y114.838 S7000 M03
G01 Z-0.5
G02 X60.397 Y113.856 I0.025 J-0.981
X60.348 Y108.806 I-968.19 J6.869
X58.855 Y108.136 I-0.925 J0.063
X58.501 Y109.044 I0.656 J0.778
G03 X58.505 Y109.985 I-12.369 J0.523
G01 X58.505 Y111.752
X58.504 Y111.759
X58.496 Y113.54
G03 X58.468 Y113.956 I-5.279 J-0.146
G02 X59.389 Y114.838 I0.948 J-0.068
G00 Z1
Z0.5
G01 Z-1
G02 X60.397 Y113.856 I0.025 J-0.981
X60.348 Y108.806 I-968.19 J6.869
X58.855 Y108.136 I-0.925 J0.063
X58.501 Y109.044 I0.656 J0.778
G03 X58.505 Y109.985 I-12.369 J0.523
G01 X58.505 Y111.752
X58.504 Y111.759
X58.496 Y113.54
G03 X58.468 Y113.956 I-5.279 J-0.146
G02 X59.389 Y114.838 I0.948 J-0.068
G00 Z1
Z0
G01 Z-1.5
G02 X60.397 Y113.856 I0.025 J-0.981
X60.348 Y108.806 I-968.19 J6.869
X58.855 Y108.136 I-0.925 J0.063
X58.501 Y109.044 I0.656 J0.778
G03 X58.505 Y109.985 I-12.369 J0.523
G01 X58.505 Y111.752
X58.504 Y111.759
X58.496 Y113.54
G03 X58.468 Y113.956 I-5.279 J-0.146
G02 X59.389 Y114.838 I0.948 J-0.068
G00 Z1
Z-0.5
G01 Z-2
G02 X60.397 Y113.856 I0.025 J-0.981
X60.348 Y108.806 I-968.19 J6.869
X58.855 Y108.136 I-0.925 J0.063
X58.501 Y109.044 I0.656 J0.778
G03 X58.505 Y109.985 I-12.369 J0.523
G01 X58.505 Y111.752
X58.504 Y111.759
X58.496 Y113.54
G03 X58.468 Y113.956 I-5.279 J-0.146
G02 X59.389 Y114.838 I0.948 J-0.068
G00 Z1
Z-1
G01 Z-2.5
G02 X60.397 Y113.856 I0.025 J-0.981
X60.348 Y108.806 I-968.19 J6.869
X58.855 Y108.136 I-0.925 J0.063
X58.501 Y109.044 I0.656 J0.778
G03 X58.505 Y109.985 I-12.369 J0.523
G01 X58.505 Y111.752
X58.504 Y111.759
X58.496 Y113.54
G03 X58.468 Y113.956 I-5.279 J-0.146
G02 X59.389 Y114.838 I0.948 J-0.068
G00 Z1
Z-1.5
G01 Z-3
G02 X60.397 Y113.856 I0.025 J-0.981
X60.348 Y108.806 I-968.19 J6.869
X58.855 Y108.136 I-0.925 J0.063
X58.501 Y109.044 I0.656 J0.778
G03 X58.505 Y109.985 I-12.369 J0.523
G01 X58.505 Y111.752
X58.504 Y111.759
X58.496 Y113.54
G03 X58.468 Y113.956 I-5.279 J-0.146
G02 X59.389 Y114.838 I0.948 J-0.068
G00 Z1
Z-2
G01 Z-3.5
G02 X60.397 Y113.856 I0.025 J-0.981
X60.348 Y108.806 I-968.19 J6.869
X58.855 Y108.136 I-0.925 J0.063
X58.501 Y109.044 I0.656 J0.778
G03 X58.505 Y109.985 I-12.369 J0.523
G01 X58.505 Y111.752
X58.504 Y111.759
X58.496 Y113.54
G03 X58.468 Y113.956 I-5.279 J-0.146
G02 X59.389 Y114.838 I0.948 J-0.068
G00 Z1
(Sketch 9)
X67.382 Y98.326 S7000 M03
G01 Z-0.5
G03 X67.38 Y100.861 I-2066.133 J-0.27
G02 X67.386 Y105.837 I982.297 J1.333
X67.425 Y105.884 I0.171 J-0.102
X67.483 Y105.92 I0.133 J-0.151
G03 X67.545 Y105.917 I0.096 J1.496
G02 X67.607 Y105.89 I-0.002 J-0.087
X67.631 Y105.828 I-0.062 J-0.059
G03 X67.631 Y105.795 I1.499 J-0.034
X67.631 Y100.726 I2104.202 J-2.243
G02 X67.625 Y95.741 I-985.132 J-1.322
X67.595 Y95.692 I-0.094 J0.023
X67.523 Y95.667 I-0.066 J0.075
G03 X67.466 Y95.67 I-0.091 J-1.497
G02 X67.404 Y95.697 I0.002 J0.087
X67.38 Y95.759 I0.062 J0.06
G03 X67.38 Y95.792 I-1.499 J0.034
X67.382 Y98.326 I-2066.132 J2.263
G01 Z-1
G03 X67.38 Y100.861 I-2066.133 J-0.27
G02 X67.386 Y105.837 I982.297 J1.333
X67.425 Y105.884 I0.171 J-0.102
X67.483 Y105.92 I0.133 J-0.151
G03 X67.545 Y105.917 I0.096 J1.496
G02 X67.607 Y105.89 I-0.002 J-0.087
X67.631 Y105.828 I-0.062 J-0.059
G03 X67.631 Y105.795 I1.499 J-0.034
X67.631 Y100.726 I2104.202 J-2.243
G02 X67.625 Y95.741 I-985.132 J-1.322
X67.595 Y95.692 I-0.094 J0.023
X67.523 Y95.667 I-0.066 J0.075
G03 X67.466 Y95.67 I-0.091 J-1.497
G02 X67.404 Y95.697 I0.002 J0.087
X67.38 Y95.759 I0.062 J0.06
G03 X67.38 Y95.792 I-1.499 J0.034
X67.382 Y98.326 I-2066.132 J2.263
G01 Z-1.5
G03 X67.38 Y100.861 I-2066.133 J-0.27
G02 X67.386 Y105.837 I982.297 J1.333
X67.425 Y105.884 I0.171 J-0.102
X67.483 Y105.92 I0.133 J-0.151
G03 X67.545 Y105.917 I0.096 J1.496
G02 X67.607 Y105.89 I-0.002 J-0.087
X67.631 Y105.828 I-0.062 J-0.059
G03 X67.631 Y105.795 I1.499 J-0.034
X67.631 Y100.726 I2104.202 J-2.243
G02 X67.625 Y95.741 I-985.132 J-1.322
X67.595 Y95.692 I-0.094 J0.023
X67.523 Y95.667 I-0.066 J0.075
G03 X67.466 Y95.67 I-0.091 J-1.497
G02 X67.404 Y95.697 I0.002 J0.087
X67.38 Y95.759 I0.062 J0.06
G03 X67.38 Y95.792 I-1.499 J0.034
X67.382 Y98.326 I-2066.132 J2.263
G01 Z-2
G03 X67.38 Y100.861 I-2066.133 J-0.27
G02 X67.386 Y105.837 I982.297 J1.333
X67.425 Y105.884 I0.171 J-0.102
X67.483 Y105.92 I0.133 J-0.151
G03 X67.545 Y105.917 I0.096 J1.496
G02 X67.607 Y105.89 I-0.002 J-0.087
X67.631 Y105.828 I-0.062 J-0.059
G03 X67.631 Y105.795 I1.499 J-0.034
X67.631 Y100.726 I2104.202 J-2.243
G02 X67.625 Y95.741 I-985.132 J-1.322
X67.595 Y95.692 I-0.094 J0.023
X67.523 Y95.667 I-0.066 J0.075
G03 X67.466 Y95.67 I-0.091 J-1.497
G02 X67.404 Y95.697 I0.002 J0.087
X67.38 Y95.759 I0.062 J0.06
G03 X67.38 Y95.792 I-1.499 J0.034
X67.382 Y98.326 I-2066.132 J2.263
G01 Z-2.5
G03 X67.38 Y100.861 I-2066.133 J-0.27
G02 X67.386 Y105.837 I982.297 J1.333
X67.425 Y105.884 I0.171 J-0.102
X67.483 Y105.92 I0.133 J-0.151
G03 X67.545 Y105.917 I0.096 J1.496
G02 X67.607 Y105.89 I-0.002 J-0.087
X67.631 Y105.828 I-0.062 J-0.059
G03 X67.631 Y105.795 I1.499 J-0.034
X67.631 Y100.726 I2104.202 J-2.243
G02 X67.625 Y95.741 I-985.132 J-1.322
X67.595 Y95.692 I-0.094 J0.023
X67.523 Y95.667 I-0.066 J0.075
G03 X67.466 Y95.67 I-0.091 J-1.497
G02 X67.404 Y95.697 I0.002 J0.087
X67.38 Y95.759 I0.062 J0.06
G03 X67.38 Y95.792 I-1.499 J0.034
X67.382 Y98.326 I-2066.132 J2.263
G01 Z-3
G03 X67.38 Y100.861 I-2066.133 J-0.27
G02 X67.386 Y105.837 I982.297 J1.333
X67.425 Y105.884 I0.171 J-0.102
X67.483 Y105.92 I0.133 J-0.151
G03 X67.545 Y105.917 I0.096 J1.496
G02 X67.607 Y105.89 I-0.002 J-0.087
X67.631 Y105.828 I-0.062 J-0.059
G03 X67.631 Y105.795 I1.499 J-0.034
X67.631 Y100.726 I2104.202 J-2.243
G02 X67.625 Y95.741 I-985.132 J-1.322
X67.595 Y95.692 I-0.094 J0.023
X67.523 Y95.667 I-0.066 J0.075
G03 X67.466 Y95.67 I-0.091 J-1.497
G02 X67.404 Y95.697 I0.002 J0.087
X67.38 Y95.759 I0.062 J0.06
G03 X67.38 Y95.792 I-1.499 J0.034
X67.382 Y98.326 I-2066.132 J2.263
G01 Z-3.5
G03 X67.38 Y100.861 I-2066.133 J-0.27
G02 X67.386 Y105.837 I982.297 J1.333
X67.425 Y105.884 I0.171 J-0.102
X67.483 Y105.92 I0.133 J-0.151
G03 X67.545 Y105.917 I0.096 J1.496
G02 X67.607 Y105.89 I-0.002 J-0.087
X67.631 Y105.828 I-0.062 J-0.059
G03 X67.631 Y105.795 I1.499 J-0.034
X67.631 Y100.726 I2104.202 J-2.243
G02 X67.625 Y95.741 I-985.132 J-1.322
X67.595 Y95.692 I-0.094 J0.023
X67.523 Y95.667 I-0.066 J0.075
G03 X67.466 Y95.67 I-0.091 J-1.497
G02 X67.404 Y95.697 I0.002 J0.087
X67.38 Y95.759 I0.062 J0.06
G03 X67.38 Y95.792 I-1.499 J0.034
X67.382 Y98.326 I-2066.132 J2.263
G00 Z1
G90
(Sketch 11)
X92.992 Y87.037 S7000 M03
G01 Z-0.5
G03 X93.004 Y84.495 Z-0.5 I317.074 J0.286
G02 X92.963 Y79.515 Z-0.5 I-145.053 J-1.294
X92.358 Y76.763 Z-0.5 I-9.179 J0.577
X90.943 Y74.241 Z-0.5 I-9.604 J3.728
X88.884 Y72.21 Z-0.5 I-8.216 J6.271
X86.365 Y70.885 Z-0.5 I-5.531 J7.457
G03 X86.349 Y70.879 Z-0.5 I0.486 J-1.418
G02 X84.472 Y70.41 Z-0.5 I-3.36 J9.449
X82.541 Y70.31 Z-0.5 I-1.483 J9.915
G03 X82.527 Y70.31 Z-0.5 I-0.066 J-1.498
G02 X79.782 Y70.827 Z-0.5 I0.333 J9.312
X77.258 Y72.124 Z-0.5 I3.414 J9.753
X75.183 Y74.057 Z-0.5 I5.927 J8.441
X73.768 Y76.463 Z-0.5 I7.189 J5.846
G03 X73.746 Y76.516 Z-0.5 I-1.392 J-0.557
G02 X73.322 Y77.763 Z-0.5 I6.6 J2.937
X73.081 Y79.145 Z-0.5 I10.778 J2.594
X72.991 Y80.594 Z-0.5 I15.133 J1.664
X72.999 Y82.131 Z-0.5 I39.695 J0.564
G03 X72.999 Y82.153 Z-0.5 I-1.499 J0.036
X72.994 Y86.759 Z-0.5 I-210.727 J2.04
G02 X73.046 Y91.227 Z-0.5 I93.792 J1.141
X73.68 Y93.935 Z-0.5 I9.218 J-0.729
X75.099 Y96.414 Z-0.5 I9.571 J-3.833
X77.144 Y98.409 Z-0.5 I8.166 J-6.322
X79.634 Y99.714 Z-0.5 I5.507 J-7.483
G03 X79.667 Y99.726 Z-0.5 I-0.486 J1.418
G02 X82.421 Y100.287 Z-0.5 I3.204 J-8.677
X85.266 Y100.03 Z-0.5 I0.502 J-10.299
X87.932 Y99.002 Z-0.5 I-2.346 J-10.054
X90.156 Y97.28 Z-0.5 I-4.507 J-8.117
G03 X90.177 Y97.258 Z-0.5 I1.087 J1.033
G02 X92.378 Y93.78 Z-0.5 I-6.826 J-6.755
X93.001 Y89.642 Z-0.5 I-9.956 J-3.615
G03 X93 Y89.579 Z-0.5 I1.498 J-0.073
X92.992 Y87.037 Z-0.5 I317.066 J-2.255
G01 Z-1
G03 X93.004 Y84.495 Z-1 I317.074 J0.286
G02 X92.963 Y79.515 Z-1 I-145.053 J-1.294
X92.358 Y76.763 Z-1 I-9.179 J0.577
X90.943 Y74.241 Z-1 I-9.604 J3.728
X88.884 Y72.21 Z-1 I-8.216 J6.271
X86.365 Y70.885 Z-1 I-5.531 J7.457
G03 X86.349 Y70.879 Z-1 I0.486 J-1.418
G02 X84.472 Y70.41 Z-1 I-3.36 J9.449
X82.541 Y70.31 Z-1 I-1.483 J9.915
G03 X82.527 Y70.31 Z-1 I-0.066 J-1.498
G02 X79.782 Y70.827 Z-1 I0.333 J9.312
X77.258 Y72.124 Z-1 I3.414 J9.753
X75.183 Y74.057 Z-1 I5.927 J8.441
X73.768 Y76.463 Z-1 I7.189 J5.846
G03 X73.746 Y76.516 Z-1 I-1.392 J-0.557
G02 X73.322 Y77.763 Z-1 I6.6 J2.937
X73.081 Y79.145 Z-1 I10.778 J2.594
X72.991 Y80.594 Z-1 I15.133 J1.664
X72.999 Y82.131 Z-1 I39.695 J0.564
G03 X72.999 Y82.153 Z-1 I-1.499 J0.036
X72.994 Y86.759 Z-1 I-210.727 J2.04
G02 X73.046 Y91.227 Z-1 I93.792 J1.141
X73.68 Y93.935 Z-1 I9.218 J-0.729
X75.099 Y96.414 Z-1 I9.571 J-3.833
X77.144 Y98.409 Z-1 I8.166 J-6.322
X79.634 Y99.714 Z-1 I5.507 J-7.483
G03 X79.667 Y99.726 Z-1 I-0.486 J1.418
G02 X82.421 Y100.287 Z-1 I3.204 J-8.677
X85.266 Y100.03 Z-1 I0.502 J-10.299
X87.932 Y99.002 Z-1 I-2.346 J-10.054
X90.156 Y97.28 Z-1 I-4.507 J-8.117
G03 X90.177 Y97.258 Z-1 I1.087 J1.033
G02 X92.378 Y93.78 Z-1 I-6.826 J-6.755
X93.001 Y89.642 Z-1 I-9.956 J-3.615
G03 X93 Y89.579 Z-1 I1.498 J-0.073
X92.992 Y87.037 Z-1 I317.066 J-2.255
G01 Z-1.5
G03 X93.004 Y84.495 Z-1.5 I317.074 J0.286
G02 X92.963 Y79.515 Z-1.5 I-145.053 J-1.294
X92.358 Y76.763 Z-1.5 I-9.179 J0.577
X90.943 Y74.241 Z-1.5 I-9.604 J3.728
X88.884 Y72.21 Z-1.5 I-8.216 J6.271
X86.365 Y70.885 Z-1.5 I-5.531 J7.457
G03 X86.349 Y70.879 Z-1.5 I0.486 J-1.418
G02 X84.472 Y70.41 Z-1.5 I-3.36 J9.449
X82.541 Y70.31 Z-1.5 I-1.483 J9.915
G03 X82.527 Y70.31 Z-1.5 I-0.066 J-1.498
G02 X79.782 Y70.827 Z-1.5 I0.333 J9.312
X77.258 Y72.124 Z-1.5 I3.414 J9.753
X75.183 Y74.057 Z-1.5 I5.927 J8.441
X73.768 Y76.463 Z-1.5 I7.189 J5.846
G03 X73.746 Y76.516 Z-1.5 I-1.392 J-0.557
G02 X73.322 Y77.763 Z-1.5 I6.6 J2.937
X73.081 Y79.145 Z-1.5 I10.778 J2.594
X72.991 Y80.594 Z-1.5 I15.133 J1.664
X72.999 Y82.131 Z-1.5 I39.695 J0.564
G03 X72.999 Y82.153 Z-1.5 I-1.499 J0.036
X72.994 Y86.759 Z-1.5 I-210.727 J2.04
G02 X73.046 Y91.227 Z-1.5 I93.792 J1.141
X73.68 Y93.935 Z-1.5 I9.218 J-0.729
X75.099 Y96.414 Z-1.5 I9.571 J-3.833
X77.144 Y98.409 Z-1.5 I8.166 J-6.322
X79.634 Y99.714 Z-1.5 I5.507 J-7.483
G03 X79.667 Y99.726 Z-1.5 I-0.486 J1.418
G02 X82.421 Y100.287 Z-1.5 I3.204 J-8.677
X85.266 Y100.03 Z-1.5 I0.502 J-10.299
X87.932 Y99.002 Z-1.5 I-2.346 J-10.054
X90.156 Y97.28 Z-1.5 I-4.507 J-8.117
G03 X90.177 Y97.258 Z-1.5 I1.087 J1.033
G02 X92.378 Y93.78 Z-1.5 I-6.826 J-6.755
X93.001 Y89.642 Z-1.5 I-9.956 J-3.615
G03 X93 Y89.579 Z-1.5 I1.498 J-0.073
X92.992 Y87.037 Z-1.5 I317.066 J-2.255
X93.004 Y84.495 Z-1.5 I317.074 J0.286
G02 X93.008 Y82.497 Z-1.5 I-145.053 J-1.294
X93.005 Y81.997 Z-2 I-145.057 J0.703
X92.963 Y79.515 Z-2 I-145.054 J1.203
X92.358 Y76.763 Z-2 I-9.179 J0.577
X90.943 Y74.241 Z-2 I-9.604 J3.728
X88.884 Y72.21 Z-2 I-8.216 J6.271
X86.365 Y70.885 Z-2 I-5.531 J7.457
G03 X86.349 Y70.879 Z-2 I0.486 J-1.418
G02 X84.472 Y70.41 Z-2 I-3.36 J9.449
X82.541 Y70.31 Z-2 I-1.483 J9.915
G03 X82.527 Y70.31 Z-2 I-0.066 J-1.498
G02 X79.782 Y70.827 Z-2 I0.333 J9.312
X77.258 Y72.124 Z-2 I3.414 J9.753
X75.183 Y74.057 Z-2 I5.927 J8.441
X73.768 Y76.463 Z-2 I7.189 J5.846
G03 X73.746 Y76.516 Z-2 I-1.392 J-0.557
G02 X73.322 Y77.763 Z-2 I6.6 J2.937
X73.081 Y79.145 Z-2 I10.778 J2.594
X72.991 Y80.594 Z-2 I15.133 J1.664
X72.996 Y82.004 Z-1.999 I39.695 J0.564
X72.999 Y82.131 Z-1.872 I39.69 J-0.846
G03 X72.999 Y82.153 Z-1.85 I-1.499 J0.036
X73.003 Y82.504 Z-1.5 I-210.727 J2.04
X72.994 Y86.759 Z-1.5 I-210.73 J1.69
G02 X73 Y89.504 Z-1.5 I93.792 J1.141
X73.01 Y90.004 Z-2 I93.785 J-1.603
X73.046 Y91.227 Z-2 I93.775 J-2.103
X73.68 Y93.935 Z-2 I9.218 J-0.729
X75.099 Y96.414 Z-2 I9.571 J-3.833
X77.144 Y98.409 Z-2 I8.166 J-6.322
X79.634 Y99.714 Z-2 I5.507 J-7.483
G03 X79.667 Y99.726 Z-2 I-0.486 J1.418
G02 X82.421 Y100.287 Z-2 I3.204 J-8.677
X85.266 Y100.03 Z-2 I0.502 J-10.299
X87.932 Y99.002 Z-2 I-2.346 J-10.054
X90.156 Y97.28 Z-2 I-4.507 J-8.117
G03 X90.177 Y97.258 Z-2 I1.087 J1.033
G02 X92.378 Y93.78 Z-2 I-6.826 J-6.755
X93.013 Y89.997 Z-1.999 I-9.956 J-3.615
X93.001 Y89.642 Z-1.645 I-10.591 J0.167
G03 X93 Y89.579 Z-1.581 I1.498 J-0.073
X92.999 Y89.497 Z-1.5 I317.066 J-2.255
X92.992 Y87.037 Z-1.5 I317.066 J-2.173
X93.004 Y84.495 Z-1.5 I317.074 J0.286
G02 X93.008 Y82.497 Z-1.5 I-145.053 J-1.294
X93 Y81.497 Z-2.5 I-145.057 J0.703
X92.963 Y79.515 Z-2.5 I-145.049 J1.703
X92.358 Y76.763 Z-2.5 I-9.179 J0.577
X90.943 Y74.241 Z-2.5 I-9.604 J3.728
X88.884 Y72.21 Z-2.5 I-8.216 J6.271
X86.365 Y70.885 Z-2.5 I-5.531 J7.457
G03 X86.349 Y70.879 Z-2.5 I0.486 J-1.418
G02 X84.472 Y70.41 Z-2.5 I-3.36 J9.449
X82.541 Y70.31 Z-2.5 I-1.483 J9.915
G03 X82.527 Y70.31 Z-2.5 I-0.066 J-1.498
G02 X79.782 Y70.827 Z-2.5 I0.333 J9.312
X77.258 Y72.124 Z-2.5 I3.414 J9.753
X75.183 Y74.057 Z-2.5 I5.927 J8.441
X73.768 Y76.463 Z-2.5 I7.189 J5.846
G03 X73.746 Y76.516 Z-2.5 I-1.392 J-0.557
G02 X73.322 Y77.763 Z-2.5 I6.6 J2.937
X73.081 Y79.145 Z-2.5 I10.778 J2.594
X72.991 Y80.594 Z-2.5 I15.133 J1.664
X72.989 Y81.504 Z-2.499 I39.695 J0.564
X72.999 Y82.131 Z-1.872 I39.697 J-0.346
G03 X72.999 Y82.153 Z-1.85 I-1.499 J0.036
X73.003 Y82.504 Z-1.5 I-210.727 J2.04
X72.994 Y86.759 Z-1.5 I-210.73 J1.69
G02 X73 Y89.504 Z-1.5 I93.792 J1.141
X73.023 Y90.503 Z-2.5 I93.785 J-1.603
X73.046 Y91.227 Z-2.5 I93.763 J-2.603
X73.68 Y93.935 Z-2.5 I9.218 J-0.729
X75.099 Y96.414 Z-2.5 I9.571 J-3.833
X77.144 Y98.409 Z-2.5 I8.166 J-6.322
X79.634 Y99.714 Z-2.5 I5.507 J-7.483
G03 X79.667 Y99.726 Z-2.5 I-0.486 J1.418
G02 X82.421 Y100.287 Z-2.5 I3.204 J-8.677
X85.266 Y100.03 Z-2.5 I0.502 J-10.299
X87.932 Y99.002 Z-2.5 I-2.346 J-10.054
X90.156 Y97.28 Z-2.5 I-4.507 J-8.117
G03 X90.177 Y97.258 Z-2.5 I1.087 J1.033
G02 X92.378 Y93.78 Z-2.5 I-6.826 J-6.755
X93.009 Y90.497 Z-2.499 I-9.956 J-3.615
X93.001 Y89.642 Z-1.645 I-10.587 J-0.332
G03 X93 Y89.579 Z-1.581 I1.498 J-0.073
X92.999 Y89.497 Z-1.5 I317.066 J-2.255
X92.992 Y87.037 Z-1.5 I317.066 J-2.173
X93.004 Y84.495 Z-1.5 I317.074 J0.286
G02 X93.008 Y82.497 Z-1.5 I-145.053 J-1.294
X92.993 Y80.998 Z-3 I-145.057 J0.703
X92.963 Y79.515 Z-3 I-145.042 J2.203
X92.358 Y76.763 Z-3 I-9.179 J0.577
X90.943 Y74.241 Z-3 I-9.604 J3.728
X88.884 Y72.21 Z-3 I-8.216 J6.271
X86.365 Y70.885 Z-3 I-5.531 J7.457
G03 X86.349 Y70.879 Z-3 I0.486 J-1.418
G02 X84.472 Y70.41 Z-3 I-3.36 J9.449
X82.541 Y70.31 Z-3 I-1.483 J9.915
G03 X82.527 Y70.31 Z-3 I-0.066 J-1.498
G02 X79.782 Y70.827 Z-3 I0.333 J9.312
X77.258 Y72.124 Z-3 I3.414 J9.753
X75.183 Y74.057 Z-3 I5.927 J8.441
X73.768 Y76.463 Z-3 I7.189 J5.846
G03 X73.746 Y76.516 Z-3 I-1.392 J-0.557
G02 X73.322 Y77.763 Z-3 I6.6 J2.937
X73.081 Y79.145 Z-3 I10.778 J2.594
X72.991 Y80.594 Z-3 I15.133 J1.664
X72.987 Y81.004 Z-2.999 I39.695 J0.564
X72.999 Y82.131 Z-1.872 I39.699 J0.153
G03 X72.999 Y82.153 Z-1.85 I-1.499 J0.036
X73.003 Y82.504 Z-1.5 I-210.727 J2.04
X72.994 Y86.759 Z-1.5 I-210.73 J1.69
G02 X73 Y89.504 Z-1.5 I93.792 J1.141
X73.038 Y91.003 Z-3 I93.785 J-1.603
X73.046 Y91.227 Z-3 I93.748 J-3.102
X73.68 Y93.935 Z-3 I9.218 J-0.729
X75.099 Y96.414 Z-3 I9.571 J-3.833
X77.144 Y98.409 Z-3 I8.166 J-6.322
X79.634 Y99.714 Z-3 I5.507 J-7.483
G03 X79.667 Y99.726 Z-3 I-0.486 J1.418
G02 X82.421 Y100.287 Z-3 I3.204 J-8.677
X85.266 Y100.03 Z-3 I0.502 J-10.299
X87.932 Y99.002 Z-3 I-2.346 J-10.054
X90.156 Y97.28 Z-3 I-4.507 J-8.117
G03 X90.177 Y97.258 Z-3 I1.087 J1.033
G02 X92.378 Y93.78 Z-3 I-6.826 J-6.755
X92.982 Y90.996 Z-2.999 I-9.956 J-3.615
X93.001 Y89.642 Z-1.645 I-10.56 J-0.831
G03 X93 Y89.579 Z-1.581 I1.498 J-0.073
X92.999 Y89.497 Z-1.5 I317.066 J-2.255
X92.992 Y87.037 Z-1.5 I317.066 J-2.173
X93.004 Y84.495 Z-1.5 I317.074 J0.286
G02 X93.008 Y82.497 Z-1.5 I-145.053 J-1.294
X92.985 Y80.498 Z-3.5 I-145.057 J0.703
X92.963 Y79.515 Z-3.5 I-145.034 J2.703
X92.358 Y76.763 Z-3.5 I-9.179 J0.577
X90.943 Y74.241 Z-3.5 I-9.604 J3.728
X88.884 Y72.21 Z-3.5 I-8.216 J6.271
X86.365 Y70.885 Z-3.5 I-5.531 J7.457
G03 X86.349 Y70.879 Z-3.5 I0.486 J-1.418
G02 X84.472 Y70.41 Z-3.5 I-3.36 J9.449
X82.541 Y70.31 Z-3.5 I-1.483 J9.915
G03 X82.527 Y70.31 Z-3.5 I-0.066 J-1.498
G02 X79.782 Y70.827 Z-3.5 I0.333 J9.312
X77.258 Y72.124 Z-3.5 I3.414 J9.753
X75.183 Y74.057 Z-3.5 I5.927 J8.441
X73.768 Y76.463 Z-3.5 I7.189 J5.846
G03 X73.746 Y76.516 Z-3.5 I-1.392 J-0.557
G02 X73.322 Y77.763 Z-3.5 I6.6 J2.937
X73.081 Y79.145 Z-3.5 I10.778 J2.594
X72.993 Y80.504 Z-3.499 I15.133 J1.664
X72.991 Y80.594 Z-3.41 I15.221 J0.306
X72.999 Y82.131 Z-1.872 I39.695 J0.564
G03 X72.999 Y82.153 Z-1.85 I-1.499 J0.036
X73.003 Y82.504 Z-1.5 I-210.727 J2.04
X72.994 Y86.759 Z-1.5 I-210.73 J1.69
G02 X73 Y89.504 Z-1.5 I93.792 J1.141
X73.046 Y91.227 Z-3.223 I93.785 J-1.603
X73.072 Y91.502 Z-3.5 I9.218 J-0.729
X73.68 Y93.935 Z-3.5 I9.192 J-1.004
X75.099 Y96.414 Z-3.5 I9.571 J-3.833
X77.144 Y98.409 Z-3.5 I8.166 J-6.322
X79.634 Y99.714 Z-3.5 I5.507 J-7.483
G03 X79.667 Y99.726 Z-3.5 I-0.486 J1.418
G02 X82.421 Y100.287 Z-3.5 I3.204 J-8.677
X85.266 Y100.03 Z-3.5 I0.502 J-10.299
X87.932 Y99.002 Z-3.5 I-2.346 J-10.054
X90.156 Y97.28 Z-3.5 I-4.507 J-8.117
G03 X90.177 Y97.258 Z-3.5 I1.087 J1.033
G02 X92.378 Y93.78 Z-3.5 I-6.826 J-6.755
X92.931 Y91.494 Z-3.499 I-9.956 J-3.615
X93.001 Y89.642 Z-1.645 I-10.509 J-1.328
G03 X93 Y89.579 Z-1.581 I1.498 J-0.073
X92.999 Y89.497 Z-1.5 I317.066 J-2.255
X92.992 Y87.037 Z-1.5 I317.066 J-2.173
G00 Z1
G90
(Sketch 10)
X98.617 Y103.261 S7000 M03
G01 Z-0.5
G03 X98.619 Y100.726 I2066.133 J0.27
G02 X98.613 Y95.741 I-982.297 J-1.333
X98.583 Y95.692 I-0.094 J0.023
X98.511 Y95.667 I-0.066 J0.075
G03 X98.453 Y95.67 I-0.091 J-1.497
G02 X98.392 Y95.697 I0.002 J0.087
X98.368 Y95.759 I0.062 J0.059
G03 X98.368 Y95.792 I-1.499 J0.034
X98.368 Y100.861 I-2104.202 J2.243
G02 X98.374 Y105.837 I985.132 J1.322
X98.413 Y105.884 I0.171 J-0.102
X98.471 Y105.92 I0.133 J-0.151
G03 X98.534 Y105.917 I0.096 J1.496
G02 X98.595 Y105.89 I-0.001 J-0.087
X98.619 Y105.828 I-0.062 J-0.06
G03 X98.619 Y105.795 I1.499 J-0.034
X98.617 Y103.261 I2066.132 J-2.263
G01 Z-1
G03 X98.619 Y100.726 I2066.133 J0.27
G02 X98.613 Y95.741 I-982.297 J-1.333
X98.583 Y95.692 I-0.094 J0.023
X98.511 Y95.667 I-0.066 J0.075
G03 X98.453 Y95.67 I-0.091 J-1.497
G02 X98.392 Y95.697 I0.002 J0.087
X98.368 Y95.759 I0.062 J0.059
G03 X98.368 Y95.792 I-1.499 J0.034
X98.368 Y100.861 I-2104.202 J2.243
G02 X98.374 Y105.837 I985.132 J1.322
X98.413 Y105.884 I0.171 J-0.102
X98.471 Y105.92 I0.133 J-0.151
G03 X98.534 Y105.917 I0.096 J1.496
G02 X98.595 Y105.89 I-0.001 J-0.087
X98.619 Y105.828 I-0.062 J-0.06
G03 X98.619 Y105.795 I1.499 J-0.034
X98.617 Y103.261 I2066.132 J-2.263
G01 Z-1.5
G03 X98.619 Y100.726 I2066.133 J0.27
G02 X98.613 Y95.741 I-982.297 J-1.333
X98.583 Y95.692 I-0.094 J0.023
X98.511 Y95.667 I-0.066 J0.075
G03 X98.453 Y95.67 I-0.091 J-1.497
G02 X98.392 Y95.697 I0.002 J0.087
X98.368 Y95.759 I0.062 J0.059
G03 X98.368 Y95.792 I-1.499 J0.034
X98.368 Y100.861 I-2104.202 J2.243
G02 X98.374 Y105.837 I985.132 J1.322
X98.413 Y105.884 I0.171 J-0.102
X98.471 Y105.92 I0.133 J-0.151
G03 X98.534 Y105.917 I0.096 J1.496
G02 X98.595 Y105.89 I-0.001 J-0.087
X98.619 Y105.828 I-0.062 J-0.06
G03 X98.619 Y105.795 I1.499 J-0.034
X98.617 Y103.261 I2066.132 J-2.263
G01 Z-2
G03 X98.619 Y100.726 I2066.133 J0.27
G02 X98.613 Y95.741 I-982.297 J-1.333
X98.583 Y95.692 I-0.094 J0.023
X98.511 Y95.667 I-0.066 J0.075
G03 X98.453 Y95.67 I-0.091 J-1.497
G02 X98.392 Y95.697 I0.002 J0.087
X98.368 Y95.759 I0.062 J0.059
G03 X98.368 Y95.792 I-1.499 J0.034
X98.368 Y100.861 I-2104.202 J2.243
G02 X98.374 Y105.837 I985.132 J1.322
X98.413 Y105.884 I0.171 J-0.102
X98.471 Y105.92 I0.133 J-0.151
G03 X98.534 Y105.917 I0.096 J1.496
G02 X98.595 Y105.89 I-0.001 J-0.087
X98.619 Y105.828 I-0.062 J-0.06
G03 X98.619 Y105.795 I1.499 J-0.034
X98.617 Y103.261 I2066.132 J-2.263
G01 Z-2.5
G03 X98.619 Y100.726 I2066.133 J0.27
G02 X98.613 Y95.741 I-982.297 J-1.333
X98.583 Y95.692 I-0.094 J0.023
X98.511 Y95.667 I-0.066 J0.075
G03 X98.453 Y95.67 I-0.091 J-1.497
G02 X98.392 Y95.697 I0.002 J0.087
X98.368 Y95.759 I0.062 J0.059
G03 X98.368 Y95.792 I-1.499 J0.034
X98.368 Y100.861 I-2104.202 J2.243
G02 X98.374 Y105.837 I985.132 J1.322
X98.413 Y105.884 I0.171 J-0.102
X98.471 Y105.92 I0.133 J-0.151
G03 X98.534 Y105.917 I0.096 J1.496
G02 X98.595 Y105.89 I-0.001 J-0.087
X98.619 Y105.828 I-0.062 J-0.06
G03 X98.619 Y105.795 I1.499 J-0.034
X98.617 Y103.261 I2066.132 J-2.263
G01 Z-3
G03 X98.619 Y100.726 I2066.133 J0.27
G02 X98.613 Y95.741 I-982.297 J-1.333
X98.583 Y95.692 I-0.094 J0.023
X98.511 Y95.667 I-0.066 J0.075
G03 X98.453 Y95.67 I-0.091 J-1.497
G02 X98.392 Y95.697 I0.002 J0.087
X98.368 Y95.759 I0.062 J0.059
G03 X98.368 Y95.792 I-1.499 J0.034
X98.368 Y100.861 I-2104.202 J2.243
G02 X98.374 Y105.837 I985.132 J1.322
X98.413 Y105.884 I0.171 J-0.102
X98.471 Y105.92 I0.133 J-0.151
G03 X98.534 Y105.917 I0.096 J1.496
G02 X98.595 Y105.89 I-0.001 J-0.087
X98.619 Y105.828 I-0.062 J-0.06
G03 X98.619 Y105.795 I1.499 J-0.034
X98.617 Y103.261 I2066.132 J-2.263
G01 Z-3.5
G03 X98.619 Y100.726 I2066.133 J0.27
G02 X98.613 Y95.741 I-982.297 J-1.333
X98.583 Y95.692 I-0.094 J0.023
X98.511 Y95.667 I-0.066 J0.075
G03 X98.453 Y95.67 I-0.091 J-1.497
G02 X98.392 Y95.697 I0.002 J0.087
X98.368 Y95.759 I0.062 J0.059
G03 X98.368 Y95.792 I-1.499 J0.034
X98.368 Y100.861 I-2104.202 J2.243
G02 X98.374 Y105.837 I985.132 J1.322
X98.413 Y105.884 I0.171 J-0.102
X98.471 Y105.92 I0.133 J-0.151
G03 X98.534 Y105.917 I0.096 J1.496
G02 X98.595 Y105.89 I-0.001 J-0.087
X98.619 Y105.828 I-0.062 J-0.06
G03 X98.619 Y105.795 I1.499 J-0.034
X98.617 Y103.261 I2066.132 J-2.263
G00 Z1
G90
X106.529 Y114.838 S7000 M03
G01 Z-0.5
G02 X107.537 Y113.856 I0.025 J-0.981
X107.488 Y108.806 I-968.19 J6.869
X105.995 Y108.136 I-0.925 J0.063
X105.641 Y109.044 I0.656 J0.778
G03 X105.645 Y109.985 I-12.369 J0.523
G01 X105.645 Y111.752
X105.644 Y111.759
X105.636 Y113.54
G03 X105.608 Y113.956 I-5.279 J-0.146
G02 X106.529 Y114.838 I0.948 J-0.068
G00 Z1
Z0.5
G01 Z-1
G02 X107.537 Y113.856 I0.025 J-0.981
X107.488 Y108.806 I-968.19 J6.869
X105.995 Y108.136 I-0.925 J0.063
X105.641 Y109.044 I0.656 J0.778
G03 X105.645 Y109.985 I-12.369 J0.523
G01 X105.645 Y111.752
X105.644 Y111.759
X105.636 Y113.54
G03 X105.608 Y113.956 I-5.279 J-0.146
G02 X106.529 Y114.838 I0.948 J-0.068
G00 Z1
Z0
G01 Z-1.5
G02 X107.537 Y113.856 I0.025 J-0.981
X107.488 Y108.806 I-968.19 J6.869
X105.995 Y108.136 I-0.925 J0.063
X105.641 Y109.044 I0.656 J0.778
G03 X105.645 Y109.985 I-12.369 J0.523
G01 X105.645 Y111.752
X105.644 Y111.759
X105.636 Y113.54
G03 X105.608 Y113.956 I-5.279 J-0.146
G02 X106.529 Y114.838 I0.948 J-0.068
G00 Z1
Z-0.5
G01 Z-2
G02 X107.537 Y113.856 I0.025 J-0.981
X107.488 Y108.806 I-968.19 J6.869
X105.995 Y108.136 I-0.925 J0.063
X105.641 Y109.044 I0.656 J0.778
G03 X105.645 Y109.985 I-12.369 J0.523
G01 X105.645 Y111.752
X105.644 Y111.759
X105.636 Y113.54
G03 X105.608 Y113.956 I-5.279 J-0.146
G02 X106.529 Y114.838 I0.948 J-0.068
G00 Z1
Z-1
G01 Z-2.5
G02 X107.537 Y113.856 I0.025 J-0.981
X107.488 Y108.806 I-968.19 J6.869
X105.995 Y108.136 I-0.925 J0.063
X105.641 Y109.044 I0.656 J0.778
G03 X105.645 Y109.985 I-12.369 J0.523
G01 X105.645 Y111.752
X105.644 Y111.759
X105.636 Y113.54
G03 X105.608 Y113.956 I-5.279 J-0.146
G02 X106.529 Y114.838 I0.948 J-0.068
G00 Z1
Z-1.5
G01 Z-3
G02 X107.537 Y113.856 I0.025 J-0.981
X107.488 Y108.806 I-968.19 J6.869
X105.995 Y108.136 I-0.925 J0.063
X105.641 Y109.044 I0.656 J0.778
G03 X105.645 Y109.985 I-12.369 J0.523
G01 X105.645 Y111.752
X105.644 Y111.759
X105.636 Y113.54
G03 X105.608 Y113.956 I-5.279 J-0.146
G02 X106.529 Y114.838 I0.948 J-0.068
G00 Z1
Z-2
G01 Z-3.5
G02 X107.537 Y113.856 I0.025 J-0.981
X107.488 Y108.806 I-968.19 J6.869
X105.995 Y108.136 I-0.925 J0.063
X105.641 Y109.044 I0.656 J0.778
G03 X105.645 Y109.985 I-12.369 J0.523
G01 X105.645 Y111.752
X105.644 Y111.759
X105.636 Y113.54
G03 X105.608 Y113.956 I-5.279 J-0.146
G02 X106.529 Y114.838 I0.948 J-0.068
G00 Z1
X152.98 Y81.223 S7000 M03
G01 Z-0.5
G02 X153.107 Y79.384 I0.022 J-0.922
X152.858 Y81.214 I-0.112 J0.916
G01 X152.98 Y81.223
G00 Z1
Z0.5
G01 Z-1
G02 X153.107 Y79.384 I0.022 J-0.922
X152.858 Y81.214 I-0.112 J0.916
G01 X152.98 Y81.223
G00 Z1
Z0
G01 Z-1.5
G02 X153.107 Y79.384 I0.022 J-0.922
X152.858 Y81.214 I-0.112 J0.916
G01 X152.98 Y81.223
G00 Z1
Z-0.5
G01 Z-2
G02 X153.107 Y79.384 I0.022 J-0.922
X152.858 Y81.214 I-0.112 J0.916
G01 X152.98 Y81.223
G00 Z1
Z-1
G01 Z-2.5
G02 X153.107 Y79.384 I0.022 J-0.922
X152.858 Y81.214 I-0.112 J0.916
G01 X152.98 Y81.223
G00 Z1
Z-1.5
G01 Z-3
G02 X153.107 Y79.384 I0.022 J-0.922
X152.858 Y81.214 I-0.112 J0.916
G01 X152.98 Y81.223
G00 Z1
Z-2
G01 Z-3.5
G02 X153.107 Y79.384 I0.022 J-0.922
X152.858 Y81.214 I-0.112 J0.916
G01 X152.98 Y81.223
G00 Z1
X133.047 Y78.124 S7000 M03
G01 Z-0.5
G02 X132.998 Y76.275 I-0.047 J-0.923
X132.926 Y78.12 I0.002 J0.924
G01 X133.047 Y78.124
G00 Z1
Z0.5
G01 Z-1
G02 X132.998 Y76.275 I-0.047 J-0.923
X132.926 Y78.12 I0.002 J0.924
G01 X133.047 Y78.124
G00 Z1
Z0
G01 Z-1.5
G02 X132.998 Y76.275 I-0.047 J-0.923
X132.926 Y78.12 I0.002 J0.924
G01 X133.047 Y78.124
G00 Z1
Z-0.5
G01 Z-2
G02 X132.998 Y76.275 I-0.047 J-0.923
X132.926 Y78.12 I0.002 J0.924
G01 X133.047 Y78.124
G00 Z1
Z-1
G01 Z-2.5
G02 X132.998 Y76.275 I-0.047 J-0.923
X132.926 Y78.12 I0.002 J0.924
G01 X133.047 Y78.124
G00 Z1
Z-1.5
G01 Z-3
G02 X132.998 Y76.275 I-0.047 J-0.923
X132.926 Y78.12 I0.002 J0.924
G01 X133.047 Y78.124
G00 Z1
Z-2
G01 Z-3.5
G02 X132.998 Y76.275 I-0.047 J-0.923
X132.926 Y78.12 I0.002 J0.924
G01 X133.047 Y78.124
G00 Z1
X112.98 Y79.723 S7000 M03
G01 Z-0.5
G02 X113.107 Y77.884 I0.022 J-0.922
X112.858 Y79.714 I-0.112 J0.916
G01 X112.98 Y79.723
G00 Z1
Z0.5
G01 Z-1
G02 X113.107 Y77.884 I0.022 J-0.922
X112.858 Y79.714 I-0.112 J0.916
G01 X112.98 Y79.723
G00 Z1
Z0
G01 Z-1.5
G02 X113.107 Y77.884 I0.022 J-0.922
X112.858 Y79.714 I-0.112 J0.916
G01 X112.98 Y79.723
G00 Z1
Z-0.5
G01 Z-2
G02 X113.107 Y77.884 I0.022 J-0.922
X112.858 Y79.714 I-0.112 J0.916
G01 X112.98 Y79.723
G00 Z1
Z-1
G01 Z-2.5
G02 X113.107 Y77.884 I0.022 J-0.922
X112.858 Y79.714 I-0.112 J0.916
G01 X112.98 Y79.723
G00 Z1
Z-1.5
G01 Z-3
G02 X113.107 Y77.884 I0.022 J-0.922
X112.858 Y79.714 I-0.112 J0.916
G01 X112.98 Y79.723
G00 Z1
Z-2
G01 Z-3.5
G02 X113.107 Y77.884 I0.022 J-0.922
X112.858 Y79.714 I-0.112 J0.916
G01 X112.98 Y79.723
G00 Z1
X52.98 Y79.723 S7000 M03
G01 Z-0.5
G02 X53.107 Y77.884 I0.022 J-0.922
X52.858 Y79.714 I-0.112 J0.916
G01 X52.98 Y79.723
G00 Z1
Z0.5
G01 Z-1
G02 X53.107 Y77.884 I0.022 J-0.922
X52.858 Y79.714 I-0.112 J0.916
G01 X52.98 Y79.723
G00 Z1
Z0
G01 Z-1.5
G02 X53.107 Y77.884 I0.022 J-0.922
X52.858 Y79.714 I-0.112 J0.916
G01 X52.98 Y79.723
G00 Z1
Z-0.5
G01 Z-2
G02 X53.107 Y77.884 I0.022 J-0.922
X52.858 Y79.714 I-0.112 J0.916
G01 X52.98 Y79.723
G00 Z1
Z-1
G01 Z-2.5
G02 X53.107 Y77.884 I0.022 J-0.922
X52.858 Y79.714 I-0.112 J0.916
G01 X52.98 Y79.723
G00 Z1
Z-1.5
G01 Z-3
G02 X53.107 Y77.884 I0.022 J-0.922
X52.858 Y79.714 I-0.112 J0.916
G01 X52.98 Y79.723
G00 Z1
Z-2
G01 Z-3.5
G02 X53.107 Y77.884 I0.022 J-0.922
X52.858 Y79.714 I-0.112 J0.916
G01 X52.98 Y79.723
G00 Z1
X33.049 Y78.125 S7000 M03
G01 Z-0.5
G02 X32.966 Y76.272 I-0.054 J-0.925
X32.93 Y78.124 I0.036 J0.927
G01 X33.049 Y78.125
G00 Z1
Z0.5
G01 Z-1
G02 X32.966 Y76.272 I-0.054 J-0.925
X32.93 Y78.124 I0.036 J0.927
G01 X33.049 Y78.125
G00 Z1
Z0
G01 Z-1.5
G02 X32.966 Y76.272 I-0.054 J-0.925
X32.93 Y78.124 I0.036 J0.927
G01 X33.049 Y78.125
G00 Z1
Z-0.5
G01 Z-2
G02 X32.966 Y76.272 I-0.054 J-0.925
X32.93 Y78.124 I0.036 J0.927
G01 X33.049 Y78.125
G00 Z1
Z-1
G01 Z-2.5
G02 X32.966 Y76.272 I-0.054 J-0.925
X32.93 Y78.124 I0.036 J0.927
G01 X33.049 Y78.125
G00 Z1
Z-1.5
G01 Z-3
G02 X32.966 Y76.272 I-0.054 J-0.925
X32.93 Y78.124 I0.036 J0.927
G01 X33.049 Y78.125
G00 Z1
Z-2
G01 Z-3.5
G02 X32.966 Y76.272 I-0.054 J-0.925
X32.93 Y78.124 I0.036 J0.927
G01 X33.049 Y78.125
G00 Z1
X12.98 Y81.223 S7000 M03
G01 Z-0.5
G02 X13.107 Y79.384 I0.022 J-0.922
X12.858 Y81.214 I-0.112 J0.916
G01 X12.98 Y81.223
G00 Z1
Z0.5
G01 Z-1
G02 X13.107 Y79.384 I0.022 J-0.922
X12.858 Y81.214 I-0.112 J0.916
G01 X12.98 Y81.223
G00 Z1
Z0
G01 Z-1.5
G02 X13.107 Y79.384 I0.022 J-0.922
X12.858 Y81.214 I-0.112 J0.916
G01 X12.98 Y81.223
G00 Z1
Z-0.5
G01 Z-2
G02 X13.107 Y79.384 I0.022 J-0.922
X12.858 Y81.214 I-0.112 J0.916
G01 X12.98 Y81.223
G00 Z1
Z-1
G01 Z-2.5
G02 X13.107 Y79.384 I0.022 J-0.922
X12.858 Y81.214 I-0.112 J0.916
G01 X12.98 Y81.223
G00 Z1
Z-1.5
G01 Z-3
G02 X13.107 Y79.384 I0.022 J-0.922
X12.858 Y81.214 I-0.112 J0.916
G01 X12.98 Y81.223
G00 Z1
Z-2
G01 Z-3.5
G02 X13.107 Y79.384 I0.022 J-0.922
X12.858 Y81.214 I-0.112 J0.916
G01 X12.98 Y81.223
G00 Z1
(Sketch 21)
X7.938 Y48.583 S7000 M03
G01 Z-0.5
G03 X7.936 Y51.604 I-2525.866 J-0.324
G02 X7.943 Y57.525 I1200.354 J1.59
X7.963 Y57.545 I0.108 J-0.089
X7.992 Y57.563 I0.087 J-0.107
G03 X8.042 Y57.558 I0.181 J1.488
G02 X8.056 Y57.551 I-0.001 J-0.019
X8.066 Y57.517 I-0.035 J-0.029
G03 X8.062 Y57.406 I1.495 J-0.112
X8.063 Y51.379 I2512.686 J-2.69
G02 X8.056 Y45.455 I-1194.079 J-1.585
X8.047 Y45.444 I-0.032 J0.016
X8.022 Y45.436 I-0.023 J0.026
G03 X7.983 Y45.438 I-0.093 J-1.497
G02 X7.957 Y45.46 I0.074 J0.114
X7.935 Y45.49 I0.104 J0.096
G03 X7.937 Y45.561 I-1.498 J0.072
X7.938 Y48.583 I-2525.865 J2.697
G01 Z-1
G03 X7.936 Y51.604 I-2525.866 J-0.324
G02 X7.943 Y57.525 I1200.354 J1.59
X7.963 Y57.545 I0.108 J-0.089
X7.992 Y57.563 I0.087 J-0.107
G03 X8.042 Y57.558 I0.181 J1.488
G02 X8.056 Y57.551 I-0.001 J-0.019
X8.066 Y57.517 I-0.035 J-0.029
G03 X8.062 Y57.406 I1.495 J-0.112
X8.063 Y51.379 I2512.686 J-2.69
G02 X8.056 Y45.455 I-1194.079 J-1.585
X8.047 Y45.444 I-0.032 J0.016
X8.022 Y45.436 I-0.023 J0.026
G03 X7.983 Y45.438 I-0.093 J-1.497
G02 X7.957 Y45.46 I0.074 J0.114
X7.935 Y45.49 I0.104 J0.096
G03 X7.937 Y45.561 I-1.498 J0.072
X7.938 Y48.583 I-2525.865 J2.697
G01 Z-1.5
G03 X7.936 Y51.604 I-2525.866 J-0.324
G02 X7.943 Y57.525 I1200.354 J1.59
X7.963 Y57.545 I0.108 J-0.089
X7.992 Y57.563 I0.087 J-0.107
G03 X8.042 Y57.558 I0.181 J1.488
G02 X8.056 Y57.551 I-0.001 J-0.019
X8.066 Y57.517 I-0.035 J-0.029
G03 X8.062 Y57.406 I1.495 J-0.112
X8.063 Y51.379 I2512.686 J-2.69
G02 X8.056 Y45.455 I-1194.079 J-1.585
X8.047 Y45.444 I-0.032 J0.016
X8.022 Y45.436 I-0.023 J0.026
G03 X7.983 Y45.438 I-0.093 J-1.497
G02 X7.957 Y45.46 I0.074 J0.114
X7.935 Y45.49 I0.104 J0.096
G03 X7.937 Y45.561 I-1.498 J0.072
X7.938 Y48.583 I-2525.865 J2.697
G01 Z-2
G03 X7.936 Y51.604 I-2525.866 J-0.324
G02 X7.943 Y57.525 I1200.354 J1.59
X7.963 Y57.545 I0.108 J-0.089
X7.992 Y57.563 I0.087 J-0.107
G03 X8.042 Y57.558 I0.181 J1.488
G02 X8.056 Y57.551 I-0.001 J-0.019
X8.066 Y57.517 I-0.035 J-0.029
G03 X8.062 Y57.406 I1.495 J-0.112
X8.063 Y51.379 I2512.686 J-2.69
G02 X8.056 Y45.455 I-1194.079 J-1.585
X8.047 Y45.444 I-0.032 J0.016
X8.022 Y45.436 I-0.023 J0.026
G03 X7.983 Y45.438 I-0.093 J-1.497
G02 X7.957 Y45.46 I0.074 J0.114
X7.935 Y45.49 I0.104 J0.096
G03 X7.937 Y45.561 I-1.498 J0.072
X7.938 Y48.583 I-2525.865 J2.697
G01 Z-2.5
G03 X7.936 Y51.604 I-2525.866 J-0.324
G02 X7.943 Y57.525 I1200.354 J1.59
X7.963 Y57.545 I0.108 J-0.089
X7.992 Y57.563 I0.087 J-0.107
G03 X8.042 Y57.558 I0.181 J1.488
G02 X8.056 Y57.551 I-0.001 J-0.019
X8.066 Y57.517 I-0.035 J-0.029
G03 X8.062 Y57.406 I1.495 J-0.112
X8.063 Y51.379 I2512.686 J-2.69
G02 X8.056 Y45.455 I-1194.079 J-1.585
X8.047 Y45.444 I-0.032 J0.016
X8.022 Y45.436 I-0.023 J0.026
G03 X7.983 Y45.438 I-0.093 J-1.497
G02 X7.957 Y45.46 I0.074 J0.114
X7.935 Y45.49 I0.104 J0.096
G03 X7.937 Y45.561 I-1.498 J0.072
X7.938 Y48.583 I-2525.865 J2.697
G01 Z-3
G03 X7.936 Y51.604 I-2525.866 J-0.324
G02 X7.943 Y57.525 I1200.354 J1.59
X7.963 Y57.545 I0.108 J-0.089
X7.992 Y57.563 I0.087 J-0.107
G03 X8.042 Y57.558 I0.181 J1.488
G02 X8.056 Y57.551 I-0.001 J-0.019
X8.066 Y57.517 I-0.035 J-0.029
G03 X8.062 Y57.406 I1.495 J-0.112
X8.063 Y51.379 I2512.686 J-2.69
G02 X8.056 Y45.455 I-1194.079 J-1.585
X8.047 Y45.444 I-0.032 J0.016
X8.022 Y45.436 I-0.023 J0.026
G03 X7.983 Y45.438 I-0.093 J-1.497
G02 X7.957 Y45.46 I0.074 J0.114
X7.935 Y45.49 I0.104 J0.096
G03 X7.937 Y45.561 I-1.498 J0.072
X7.938 Y48.583 I-2525.865 J2.697
G01 Z-3.5
G03 X7.936 Y51.604 I-2525.866 J-0.324
G02 X7.943 Y57.525 I1200.354 J1.59
X7.963 Y57.545 I0.108 J-0.089
X7.992 Y57.563 I0.087 J-0.107
G03 X8.042 Y57.558 I0.181 J1.488
G02 X8.056 Y57.551 I-0.001 J-0.019
X8.066 Y57.517 I-0.035 J-0.029
G03 X8.062 Y57.406 I1.495 J-0.112
X8.063 Y51.379 I2512.686 J-2.69
G02 X8.056 Y45.455 I-1194.079 J-1.585
X8.047 Y45.444 I-0.032 J0.016
X8.022 Y45.436 I-0.023 J0.026
G03 X7.983 Y45.438 I-0.093 J-1.497
G02 X7.957 Y45.46 I0.074 J0.114
X7.935 Y45.49 I0.104 J0.096
G03 X7.937 Y45.561 I-1.498 J0.072
X7.938 Y48.583 I-2525.865 J2.697
G00 Z1
G90
X12.963 Y16.566 S7000 M03
G01 Z-0.5
G02 X13.063 Y14.837 I0.038 J-0.865
X12.883 Y16.56 I-0.067 J0.863
G01 X12.963 Y16.566
X12.972 Y17.569
G02 X13.14 Y13.835 I0.031 J-1.869
X12.725 Y17.552 I-0.144 J1.865
G01 X12.972 Y17.569
G00 Z1
X12.963 Y16.566
Z0.5
G01 Z-1
G02 X13.063 Y14.837 I0.038 J-0.865
X12.883 Y16.56 I-0.067 J0.863
G01 X12.963 Y16.566
X12.972 Y17.569
G02 X13.14 Y13.835 I0.031 J-1.869
X12.725 Y17.552 I-0.144 J1.865
G01 X12.972 Y17.569
G00 Z1
X12.963 Y16.566
Z0
G01 Z-1.5
G02 X13.063 Y14.837 I0.038 J-0.865
X12.883 Y16.56 I-0.067 J0.863
G01 X12.963 Y16.566
X12.972 Y17.569
G02 X13.14 Y13.835 I0.031 J-1.869
X12.725 Y17.552 I-0.144 J1.865
G01 X12.972 Y17.569
G00 Z1
X12.963 Y16.566
Z-0.5
G01 Z-2
G02 X13.063 Y14.837 I0.038 J-0.865
X12.883 Y16.56 I-0.067 J0.863
G01 X12.963 Y16.566
X12.972 Y17.569
G02 X13.14 Y13.835 I0.031 J-1.869
X12.725 Y17.552 I-0.144 J1.865
G01 X12.972 Y17.569
G00 Z1
X12.963 Y16.566
Z-1
G01 Z-2.5
G02 X13.063 Y14.837 I0.038 J-0.865
X12.883 Y16.56 I-0.067 J0.863
G01 X12.963 Y16.566
X12.972 Y17.569
G02 X13.14 Y13.835 I0.031 J-1.869
X12.725 Y17.552 I-0.144 J1.865
G01 X12.972 Y17.569
G00 Z1
X12.963 Y16.566
Z-1.5
G01 Z-3
G02 X13.063 Y14.837 I0.038 J-0.865
X12.883 Y16.56 I-0.067 J0.863
G01 X12.963 Y16.566
X12.972 Y17.569
G02 X13.14 Y13.835 I0.031 J-1.869
X12.725 Y17.552 I-0.144 J1.865
G01 X12.972 Y17.569
G00 Z1
X12.963 Y16.566
Z-2
G01 Z-3.5
G02 X13.063 Y14.837 I0.038 J-0.865
X12.883 Y16.56 I-0.067 J0.863
G01 X12.963 Y16.566
X12.972 Y17.569
G02 X13.14 Y13.835 I0.031 J-1.869
X12.725 Y17.552 I-0.144 J1.865
G01 X12.972 Y17.569
G00 Z1
X32.98 Y16.623 S7000 M03
G01 Z-0.5
G02 X33.107 Y14.784 I0.022 J-0.922
X32.858 Y16.614 I-0.111 J0.916
G01 X32.98 Y16.623
G00 Z1
Z0.5
G01 Z-1
G02 X33.107 Y14.784 I0.022 J-0.922
X32.858 Y16.614 I-0.111 J0.916
G01 X32.98 Y16.623
G00 Z1
Z0
G01 Z-1.5
G02 X33.107 Y14.784 I0.022 J-0.922
X32.858 Y16.614 I-0.111 J0.916
G01 X32.98 Y16.623
G00 Z1
Z-0.5
G01 Z-2
G02 X33.107 Y14.784 I0.022 J-0.922
X32.858 Y16.614 I-0.111 J0.916
G01 X32.98 Y16.623
G00 Z1
Z-1
G01 Z-2.5
G02 X33.107 Y14.784 I0.022 J-0.922
X32.858 Y16.614 I-0.111 J0.916
G01 X32.98 Y16.623
G00 Z1
Z-1.5
G01 Z-3
G02 X33.107 Y14.784 I0.022 J-0.922
X32.858 Y16.614 I-0.111 J0.916
G01 X32.98 Y16.623
G00 Z1
Z-2
G01 Z-3.5
G02 X33.107 Y14.784 I0.022 J-0.922
X32.858 Y16.614 I-0.111 J0.916
G01 X32.98 Y16.623
G00 Z1
X58.297 Y13.954 S7000 M03
G01 Z-0.5
G03 X58.781 Y13.925 I0.563 J5.348
G01 X108.122 Y13.914
G02 X108.817 Y12.572 I-0.022 J-0.862
X108.4 Y12.178 I-0.64 J0.26
X107.107 Y12.075 I-0.867 J2.725
G01 X58.036 Y12.075
G02 X57.063 Y12.734 I-0.12 J0.87
X57.457 Y13.752 I1.069 J0.171
X58.297 Y13.954 I0.823 J-1.576
G00 Z1
Z0.5
G01 Z-1
G03 X58.781 Y13.925 I0.563 J5.348
G01 X108.122 Y13.914
G02 X108.817 Y12.572 I-0.022 J-0.862
X108.4 Y12.178 I-0.64 J0.26
X107.107 Y12.075 I-0.867 J2.725
G01 X58.036 Y12.075
G02 X57.063 Y12.734 I-0.12 J0.87
X57.457 Y13.752 I1.069 J0.171
X58.297 Y13.954 I0.823 J-1.576
G00 Z1
Z0
G01 Z-1.5
G03 X58.781 Y13.925 I0.563 J5.348
G01 X108.122 Y13.914
G02 X108.817 Y12.572 I-0.022 J-0.862
X108.4 Y12.178 I-0.64 J0.26
X107.107 Y12.075 I-0.867 J2.725
G01 X58.036 Y12.075
G02 X57.063 Y12.734 I-0.12 J0.87
X57.457 Y13.752 I1.069 J0.171
X58.297 Y13.954 I0.823 J-1.576
G00 Z1
Z-0.5
G01 Z-2
G03 X58.781 Y13.925 I0.563 J5.348
G01 X108.122 Y13.914
G02 X108.817 Y12.572 I-0.022 J-0.862
X108.4 Y12.178 I-0.64 J0.26
X107.107 Y12.075 I-0.867 J2.725
G01 X58.036 Y12.075
G02 X57.063 Y12.734 I-0.12 J0.87
X57.457 Y13.752 I1.069 J0.171
X58.297 Y13.954 I0.823 J-1.576
G00 Z1
Z-1
G01 Z-2.5
G03 X58.781 Y13.925 I0.563 J5.348
G01 X108.122 Y13.914
G02 X108.817 Y12.572 I-0.022 J-0.862
X108.4 Y12.178 I-0.64 J0.26
X107.107 Y12.075 I-0.867 J2.725
G01 X58.036 Y12.075
G02 X57.063 Y12.734 I-0.12 J0.87
X57.457 Y13.752 I1.069 J0.171
X58.297 Y13.954 I0.823 J-1.576
G00 Z1
Z-1.5
G01 Z-3
G03 X58.781 Y13.925 I0.563 J5.348
G01 X108.122 Y13.914
G02 X108.817 Y12.572 I-0.022 J-0.862
X108.4 Y12.178 I-0.64 J0.26
X107.107 Y12.075 I-0.867 J2.725
G01 X58.036 Y12.075
G02 X57.063 Y12.734 I-0.12 J0.87
X57.457 Y13.752 I1.069 J0.171
X58.297 Y13.954 I0.823 J-1.576
G00 Z1
Z-2
G01 Z-3.5
G03 X58.781 Y13.925 I0.563 J5.348
G01 X108.122 Y13.914
G02 X108.817 Y12.572 I-0.022 J-0.862
X108.4 Y12.178 I-0.64 J0.26
X107.107 Y12.075 I-0.867 J2.725
G01 X58.036 Y12.075
G02 X57.063 Y12.734 I-0.12 J0.87
X57.457 Y13.752 I1.069 J0.171
X58.297 Y13.954 I0.823 J-1.576
G00 Z1
X132.98 Y16.623 S7000 M03
G01 Z-0.5
G02 X133.107 Y14.784 I0.022 J-0.922
X132.858 Y16.614 I-0.112 J0.916
G01 X132.98 Y16.623
G00 Z1
Z0.5
G01 Z-1
G02 X133.107 Y14.784 I0.022 J-0.922
X132.858 Y16.614 I-0.112 J0.916
G01 X132.98 Y16.623
G00 Z1
Z0
G01 Z-1.5
G02 X133.107 Y14.784 I0.022 J-0.922
X132.858 Y16.614 I-0.112 J0.916
G01 X132.98 Y16.623
G00 Z1
Z-0.5
G01 Z-2
G02 X133.107 Y14.784 I0.022 J-0.922
X132.858 Y16.614 I-0.112 J0.916
G01 X132.98 Y16.623
G00 Z1
Z-1
G01 Z-2.5
G02 X133.107 Y14.784 I0.022 J-0.922
X132.858 Y16.614 I-0.112 J0.916
G01 X132.98 Y16.623
G00 Z1
Z-1.5
G01 Z-3
G02 X133.107 Y14.784 I0.022 J-0.922
X132.858 Y16.614 I-0.112 J0.916
G01 X132.98 Y16.623
G00 Z1
Z-2
G01 Z-3.5
G02 X133.107 Y14.784 I0.022 J-0.922
X132.858 Y16.614 I-0.112 J0.916
G01 X132.98 Y16.623
G00 Z1
X152.956 Y16.564 S7000 M03
G01 Z-0.5
G02 X153.063 Y14.837 I0.046 J-0.863
X152.877 Y16.558 I-0.068 J0.863
G01 X152.956 Y16.564
X152.959 Y17.568
G02 X153.14 Y13.835 I0.044 J-1.868
X152.712 Y17.549 I-0.145 J1.864
G01 X152.959 Y17.568
G00 Z1
X152.956 Y16.564
Z0.5
G01 Z-1
G02 X153.063 Y14.837 I0.046 J-0.863
X152.877 Y16.558 I-0.068 J0.863
G01 X152.956 Y16.564
X152.959 Y17.568
G02 X153.14 Y13.835 I0.044 J-1.868
X152.712 Y17.549 I-0.145 J1.864
G01 X152.959 Y17.568
G00 Z1
X152.956 Y16.564
Z0
G01 Z-1.5
G02 X153.063 Y14.837 I0.046 J-0.863
X152.877 Y16.558 I-0.068 J0.863
G01 X152.956 Y16.564
X152.959 Y17.568
G02 X153.14 Y13.835 I0.044 J-1.868
X152.712 Y17.549 I-0.145 J1.864
G01 X152.959 Y17.568
G00 Z1
X152.956 Y16.564
Z-0.5
G01 Z-2
G02 X153.063 Y14.837 I0.046 J-0.863
X152.877 Y16.558 I-0.068 J0.863
G01 X152.956 Y16.564
X152.959 Y17.568
G02 X153.14 Y13.835 I0.044 J-1.868
X152.712 Y17.549 I-0.145 J1.864
G01 X152.959 Y17.568
G00 Z1
X152.956 Y16.564
Z-1
G01 Z-2.5
G02 X153.063 Y14.837 I0.046 J-0.863
X152.877 Y16.558 I-0.068 J0.863
G01 X152.956 Y16.564
X152.959 Y17.568
G02 X153.14 Y13.835 I0.044 J-1.868
X152.712 Y17.549 I-0.145 J1.864
G01 X152.959 Y17.568
G00 Z1
X152.956 Y16.564
Z-1.5
G01 Z-3
G02 X153.063 Y14.837 I0.046 J-0.863
X152.877 Y16.558 I-0.068 J0.863
G01 X152.956 Y16.564
X152.959 Y17.568
G02 X153.14 Y13.835 I0.044 J-1.868
X152.712 Y17.549 I-0.145 J1.864
G01 X152.959 Y17.568
G00 Z1
X152.956 Y16.564
Z-2
G01 Z-3.5
G02 X153.063 Y14.837 I0.046 J-0.863
X152.877 Y16.558 I-0.068 J0.863
G01 X152.956 Y16.564
X152.959 Y17.568
G02 X153.14 Y13.835 I0.044 J-1.868
X152.712 Y17.549 I-0.145 J1.864
G01 X152.959 Y17.568
G00 Z1
(Sketch 17)
X98.617 Y72.273 S7000 M03
G01 Z-0.5
G03 X98.619 Y69.738 I2066.142 J0.27
G02 X98.613 Y64.753 I-982.301 J-1.333
X98.583 Y64.704 I-0.094 J0.023
X98.511 Y64.679 I-0.066 J0.075
G03 X98.453 Y64.682 I-0.091 J-1.497
G02 X98.392 Y64.709 I0.002 J0.087
X98.368 Y64.771 I0.062 J0.059
G03 X98.368 Y64.804 I-1.499 J0.034
X98.368 Y69.873 I-2104.198 J2.243
G02 X98.374 Y74.849 I985.13 J1.322
X98.413 Y74.896 I0.172 J-0.102
X98.471 Y74.932 I0.133 J-0.151
G03 X98.534 Y74.929 I0.096 J1.496
G02 X98.595 Y74.902 I-0.002 J-0.087
X98.619 Y74.84 I-0.062 J-0.06
G03 X98.619 Y74.807 I1.499 J-0.034
X98.617 Y72.273 I2066.14 J-2.263
G01 Z-1
G03 X98.619 Y69.738 I2066.142 J0.27
G02 X98.613 Y64.753 I-982.301 J-1.333
X98.583 Y64.704 I-0.094 J0.023
X98.511 Y64.679 I-0.066 J0.075
G03 X98.453 Y64.682 I-0.091 J-1.497
G02 X98.392 Y64.709 I0.002 J0.087
X98.368 Y64.771 I0.062 J0.059
G03 X98.368 Y64.804 I-1.499 J0.034
X98.368 Y69.873 I-2104.198 J2.243
G02 X98.374 Y74.849 I985.13 J1.322
X98.413 Y74.896 I0.172 J-0.102
X98.471 Y74.932 I0.133 J-0.151
G03 X98.534 Y74.929 I0.096 J1.496
G02 X98.595 Y74.902 I-0.002 J-0.087
X98.619 Y74.84 I-0.062 J-0.06
G03 X98.619 Y74.807 I1.499 J-0.034
X98.617 Y72.273 I2066.14 J-2.263
G01 Z-1.5
G03 X98.619 Y69.738 I2066.142 J0.27
G02 X98.613 Y64.753 I-982.301 J-1.333
X98.583 Y64.704 I-0.094 J0.023
X98.511 Y64.679 I-0.066 J0.075
G03 X98.453 Y64.682 I-0.091 J-1.497
G02 X98.392 Y64.709 I0.002 J0.087
X98.368 Y64.771 I0.062 J0.059
G03 X98.368 Y64.804 I-1.499 J0.034
X98.368 Y69.873 I-2104.198 J2.243
G02 X98.374 Y74.849 I985.13 J1.322
X98.413 Y74.896 I0.172 J-0.102
X98.471 Y74.932 I0.133 J-0.151
G03 X98.534 Y74.929 I0.096 J1.496
G02 X98.595 Y74.902 I-0.002 J-0.087
X98.619 Y74.84 I-0.062 J-0.06
G03 X98.619 Y74.807 I1.499 J-0.034
X98.617 Y72.273 I2066.14 J-2.263
G01 Z-2
G03 X98.619 Y69.738 I2066.142 J0.27
G02 X98.613 Y64.753 I-982.301 J-1.333
X98.583 Y64.704 I-0.094 J0.023
X98.511 Y64.679 I-0.066 J0.075
G03 X98.453 Y64.682 I-0.091 J-1.497
G02 X98.392 Y64.709 I0.002 J0.087
X98.368 Y64.771 I0.062 J0.059
G03 X98.368 Y64.804 I-1.499 J0.034
X98.368 Y69.873 I-2104.198 J2.243
G02 X98.374 Y74.849 I985.13 J1.322
X98.413 Y74.896 I0.172 J-0.102
X98.471 Y74.932 I0.133 J-0.151
G03 X98.534 Y74.929 I0.096 J1.496
G02 X98.595 Y74.902 I-0.002 J-0.087
X98.619 Y74.84 I-0.062 J-0.06
G03 X98.619 Y74.807 I1.499 J-0.034
X98.617 Y72.273 I2066.14 J-2.263
G01 Z-2.5
G03 X98.619 Y69.738 I2066.142 J0.27
G02 X98.613 Y64.753 I-982.301 J-1.333
X98.583 Y64.704 I-0.094 J0.023
X98.511 Y64.679 I-0.066 J0.075
G03 X98.453 Y64.682 I-0.091 J-1.497
G02 X98.392 Y64.709 I0.002 J0.087
X98.368 Y64.771 I0.062 J0.059
G03 X98.368 Y64.804 I-1.499 J0.034
X98.368 Y69.873 I-2104.198 J2.243
G02 X98.374 Y74.849 I985.13 J1.322
X98.413 Y74.896 I0.172 J-0.102
X98.471 Y74.932 I0.133 J-0.151
G03 X98.534 Y74.929 I0.096 J1.496
G02 X98.595 Y74.902 I-0.002 J-0.087
X98.619 Y74.84 I-0.062 J-0.06
G03 X98.619 Y74.807 I1.499 J-0.034
X98.617 Y72.273 I2066.14 J-2.263
G01 Z-3
G03 X98.619 Y69.738 I2066.142 J0.27
G02 X98.613 Y64.753 I-982.301 J-1.333
X98.583 Y64.704 I-0.094 J0.023
X98.511 Y64.679 I-0.066 J0.075
G03 X98.453 Y64.682 I-0.091 J-1.497
G02 X98.392 Y64.709 I0.002 J0.087
X98.368 Y64.771 I0.062 J0.059
G03 X98.368 Y64.804 I-1.499 J0.034
X98.368 Y69.873 I-2104.198 J2.243
G02 X98.374 Y74.849 I985.13 J1.322
X98.413 Y74.896 I0.172 J-0.102
X98.471 Y74.932 I0.133 J-0.151
G03 X98.534 Y74.929 I0.096 J1.496
G02 X98.595 Y74.902 I-0.002 J-0.087
X98.619 Y74.84 I-0.062 J-0.06
G03 X98.619 Y74.807 I1.499 J-0.034
X98.617 Y72.273 I2066.14 J-2.263
G01 Z-3.5
G03 X98.619 Y69.738 I2066.142 J0.27
G02 X98.613 Y64.753 I-982.301 J-1.333
X98.583 Y64.704 I-0.094 J0.023
X98.511 Y64.679 I-0.066 J0.075
G03 X98.453 Y64.682 I-0.091 J-1.497
G02 X98.392 Y64.709 I0.002 J0.087
X98.368 Y64.771 I0.062 J0.059
G03 X98.368 Y64.804 I-1.499 J0.034
X98.368 Y69.873 I-2104.198 J2.243
G02 X98.374 Y74.849 I985.13 J1.322
X98.413 Y74.896 I0.172 J-0.102
X98.471 Y74.932 I0.133 J-0.151
G03 X98.534 Y74.929 I0.096 J1.496
G02 X98.595 Y74.902 I-0.002 J-0.087
X98.619 Y74.84 I-0.062 J-0.06
G03 X98.619 Y74.807 I1.499 J-0.034
X98.617 Y72.273 I2066.14 J-2.263
G00 Z1
G90
X59.389 Y67.698 S7000 M03
G01 Z-0.5
G02 X60.397 Y66.716 I0.025 J-0.981
X60.348 Y61.666 I-968.19 J6.869
X58.821 Y61.025 I-0.924 J0.062
X58.507 Y61.685 I0.628 J0.703
G03 X58.491 Y66.526 I-420.001 J1.032
G02 X58.586 Y67.227 I0.914 J0.233
X59.389 Y67.698 I0.868 J-0.56
G00 Z1
Z0.5
G01 Z-1
G02 X60.397 Y66.716 I0.025 J-0.981
X60.348 Y61.666 I-968.19 J6.869
X58.821 Y61.025 I-0.924 J0.062
X58.507 Y61.685 I0.628 J0.703
G03 X58.491 Y66.526 I-420.001 J1.032
G02 X58.586 Y67.227 I0.914 J0.233
X59.389 Y67.698 I0.868 J-0.56
G00 Z1
Z0
G01 Z-1.5
G02 X60.397 Y66.716 I0.025 J-0.981
X60.348 Y61.666 I-968.19 J6.869
X58.821 Y61.025 I-0.924 J0.062
X58.507 Y61.685 I0.628 J0.703
G03 X58.491 Y66.526 I-420.001 J1.032
G02 X58.586 Y67.227 I0.914 J0.233
X59.389 Y67.698 I0.868 J-0.56
G00 Z1
Z-0.5
G01 Z-2
G02 X60.397 Y66.716 I0.025 J-0.981
X60.348 Y61.666 I-968.19 J6.869
X58.821 Y61.025 I-0.924 J0.062
X58.507 Y61.685 I0.628 J0.703
G03 X58.491 Y66.526 I-420.001 J1.032
G02 X58.586 Y67.227 I0.914 J0.233
X59.389 Y67.698 I0.868 J-0.56
G00 Z1
Z-1
G01 Z-2.5
G02 X60.397 Y66.716 I0.025 J-0.981
X60.348 Y61.666 I-968.19 J6.869
X58.821 Y61.025 I-0.924 J0.062
X58.507 Y61.685 I0.628 J0.703
G03 X58.491 Y66.526 I-420.001 J1.032
G02 X58.586 Y67.227 I0.914 J0.233
X59.389 Y67.698 I0.868 J-0.56
G00 Z1
Z-1.5
G01 Z-3
G02 X60.397 Y66.716 I0.025 J-0.981
X60.348 Y61.666 I-968.19 J6.869
X58.821 Y61.025 I-0.924 J0.062
X58.507 Y61.685 I0.628 J0.703
G03 X58.491 Y66.526 I-420.001 J1.032
G02 X58.586 Y67.227 I0.914 J0.233
X59.389 Y67.698 I0.868 J-0.56
G00 Z1
Z-2
G01 Z-3.5
G02 X60.397 Y66.716 I0.025 J-0.981
X60.348 Y61.666 I-968.19 J6.869
X58.821 Y61.025 I-0.924 J0.062
X58.507 Y61.685 I0.628 J0.703
G03 X58.491 Y66.526 I-420.001 J1.032
G02 X58.586 Y67.227 I0.914 J0.233
X59.389 Y67.698 I0.868 J-0.56
G00 Z1
X106.529 Y67.698 S7000 M03
G01 Z-0.5
G02 X107.537 Y66.716 I0.025 J-0.981
X107.488 Y61.666 I-968.19 J6.869
X105.961 Y61.025 I-0.924 J0.062
X105.647 Y61.685 I0.628 J0.703
G03 X105.631 Y66.526 I-420.001 J1.032
G02 X105.726 Y67.227 I0.914 J0.233
X106.529 Y67.698 I0.868 J-0.56
G00 Z1
Z0.5
G01 Z-1
G02 X107.537 Y66.716 I0.025 J-0.981
X107.488 Y61.666 I-968.19 J6.869
X105.961 Y61.025 I-0.924 J0.062
X105.647 Y61.685 I0.628 J0.703
G03 X105.631 Y66.526 I-420.001 J1.032
G02 X105.726 Y67.227 I0.914 J0.233
X106.529 Y67.698 I0.868 J-0.56
G00 Z1
Z0
G01 Z-1.5
G02 X107.537 Y66.716 I0.025 J-0.981
X107.488 Y61.666 I-968.19 J6.869
X105.961 Y61.025 I-0.924 J0.062
X105.647 Y61.685 I0.628 J0.703
G03 X105.631 Y66.526 I-420.001 J1.032
G02 X105.726 Y67.227 I0.914 J0.233
X106.529 Y67.698 I0.868 J-0.56
G00 Z1
Z-0.5
G01 Z-2
G02 X107.537 Y66.716 I0.025 J-0.981
X107.488 Y61.666 I-968.19 J6.869
X105.961 Y61.025 I-0.924 J0.062
X105.647 Y61.685 I0.628 J0.703
G03 X105.631 Y66.526 I-420.001 J1.032
G02 X105.726 Y67.227 I0.914 J0.233
X106.529 Y67.698 I0.868 J-0.56
G00 Z1
Z-1
G01 Z-2.5
G02 X107.537 Y66.716 I0.025 J-0.981
X107.488 Y61.666 I-968.19 J6.869
X105.961 Y61.025 I-0.924 J0.062
X105.647 Y61.685 I0.628 J0.703
G03 X105.631 Y66.526 I-420.001 J1.032
G02 X105.726 Y67.227 I0.914 J0.233
X106.529 Y67.698 I0.868 J-0.56
G00 Z1
Z-1.5
G01 Z-3
G02 X107.537 Y66.716 I0.025 J-0.981
X107.488 Y61.666 I-968.19 J6.869
X105.961 Y61.025 I-0.924 J0.062
X105.647 Y61.685 I0.628 J0.703
G03 X105.631 Y66.526 I-420.001 J1.032
G02 X105.726 Y67.227 I0.914 J0.233
X106.529 Y67.698 I0.868 J-0.56
G00 Z1
Z-2
G01 Z-3.5
G02 X107.537 Y66.716 I0.025 J-0.981
X107.488 Y61.666 I-968.19 J6.869
X105.961 Y61.025 I-0.924 J0.062
X105.647 Y61.685 I0.628 J0.703
G03 X105.631 Y66.526 I-420.001 J1.032
G02 X105.726 Y67.227 I0.914 J0.233
X106.529 Y67.698 I0.868 J-0.56
G00 Z1
(Sketch 18)
X67.629 Y72.273 S7000 M03
G01 Z-0.5
G03 X67.631 Y69.738 I2104.203 J0.29
G02 X67.625 Y64.753 I-985.132 J-1.322
X67.595 Y64.704 I-0.094 J0.023
X67.523 Y64.679 I-0.066 J0.075
G03 X67.466 Y64.682 I-0.091 J-1.497
G02 X67.404 Y64.709 I0.002 J0.087
X67.38 Y64.771 I0.062 J0.06
G03 X67.38 Y64.804 I-1.499 J0.034
X67.38 Y69.873 I-2066.128 J2.263
G02 X67.386 Y74.849 I982.295 J1.333
X67.425 Y74.896 I0.172 J-0.102
X67.483 Y74.932 I0.133 J-0.151
G03 X67.546 Y74.929 I0.096 J1.496
G02 X67.607 Y74.902 I-0.002 J-0.087
X67.631 Y74.84 I-0.062 J-0.06
G03 X67.631 Y74.807 I1.499 J-0.034
X67.629 Y72.273 I2104.202 J-2.243
G01 Z-1
G03 X67.631 Y69.738 I2104.203 J0.29
G02 X67.625 Y64.753 I-985.132 J-1.322
X67.595 Y64.704 I-0.094 J0.023
X67.523 Y64.679 I-0.066 J0.075
G03 X67.466 Y64.682 I-0.091 J-1.497
G02 X67.404 Y64.709 I0.002 J0.087
X67.38 Y64.771 I0.062 J0.06
G03 X67.38 Y64.804 I-1.499 J0.034
X67.38 Y69.873 I-2066.128 J2.263
G02 X67.386 Y74.849 I982.295 J1.333
X67.425 Y74.896 I0.172 J-0.102
X67.483 Y74.932 I0.133 J-0.151
G03 X67.546 Y74.929 I0.096 J1.496
G02 X67.607 Y74.902 I-0.002 J-0.087
X67.631 Y74.84 I-0.062 J-0.06
G03 X67.631 Y74.807 I1.499 J-0.034
X67.629 Y72.273 I2104.202 J-2.243
G01 Z-1.5
G03 X67.631 Y69.738 I2104.203 J0.29
G02 X67.625 Y64.753 I-985.132 J-1.322
X67.595 Y64.704 I-0.094 J0.023
X67.523 Y64.679 I-0.066 J0.075
G03 X67.466 Y64.682 I-0.091 J-1.497
G02 X67.404 Y64.709 I0.002 J0.087
X67.38 Y64.771 I0.062 J0.06
G03 X67.38 Y64.804 I-1.499 J0.034
X67.38 Y69.873 I-2066.128 J2.263
G02 X67.386 Y74.849 I982.295 J1.333
X67.425 Y74.896 I0.172 J-0.102
X67.483 Y74.932 I0.133 J-0.151
G03 X67.546 Y74.929 I0.096 J1.496
G02 X67.607 Y74.902 I-0.002 J-0.087
X67.631 Y74.84 I-0.062 J-0.06
G03 X67.631 Y74.807 I1.499 J-0.034
X67.629 Y72.273 I2104.202 J-2.243
G01 Z-2
G03 X67.631 Y69.738 I2104.203 J0.29
G02 X67.625 Y64.753 I-985.132 J-1.322
X67.595 Y64.704 I-0.094 J0.023
X67.523 Y64.679 I-0.066 J0.075
G03 X67.466 Y64.682 I-0.091 J-1.497
G02 X67.404 Y64.709 I0.002 J0.087
X67.38 Y64.771 I0.062 J0.06
G03 X67.38 Y64.804 I-1.499 J0.034
X67.38 Y69.873 I-2066.128 J2.263
G02 X67.386 Y74.849 I982.295 J1.333
X67.425 Y74.896 I0.172 J-0.102
X67.483 Y74.932 I0.133 J-0.151
G03 X67.546 Y74.929 I0.096 J1.496
G02 X67.607 Y74.902 I-0.002 J-0.087
X67.631 Y74.84 I-0.062 J-0.06
G03 X67.631 Y74.807 I1.499 J-0.034
X67.629 Y72.273 I2104.202 J-2.243
G01 Z-2.5
G03 X67.631 Y69.738 I2104.203 J0.29
G02 X67.625 Y64.753 I-985.132 J-1.322
X67.595 Y64.704 I-0.094 J0.023
X67.523 Y64.679 I-0.066 J0.075
G03 X67.466 Y64.682 I-0.091 J-1.497
G02 X67.404 Y64.709 I0.002 J0.087
X67.38 Y64.771 I0.062 J0.06
G03 X67.38 Y64.804 I-1.499 J0.034
X67.38 Y69.873 I-2066.128 J2.263
G02 X67.386 Y74.849 I982.295 J1.333
X67.425 Y74.896 I0.172 J-0.102
X67.483 Y74.932 I0.133 J-0.151
G03 X67.546 Y74.929 I0.096 J1.496
G02 X67.607 Y74.902 I-0.002 J-0.087
X67.631 Y74.84 I-0.062 J-0.06
G03 X67.631 Y74.807 I1.499 J-0.034
X67.629 Y72.273 I2104.202 J-2.243
G01 Z-3
G03 X67.631 Y69.738 I2104.203 J0.29
G02 X67.625 Y64.753 I-985.132 J-1.322
X67.595 Y64.704 I-0.094 J0.023
X67.523 Y64.679 I-0.066 J0.075
G03 X67.466 Y64.682 I-0.091 J-1.497
G02 X67.404 Y64.709 I0.002 J0.087
X67.38 Y64.771 I0.062 J0.06
G03 X67.38 Y64.804 I-1.499 J0.034
X67.38 Y69.873 I-2066.128 J2.263
G02 X67.386 Y74.849 I982.295 J1.333
X67.425 Y74.896 I0.172 J-0.102
X67.483 Y74.932 I0.133 J-0.151
G03 X67.546 Y74.929 I0.096 J1.496
G02 X67.607 Y74.902 I-0.002 J-0.087
X67.631 Y74.84 I-0.062 J-0.06
G03 X67.631 Y74.807 I1.499 J-0.034
X67.629 Y72.273 I2104.202 J-2.243
G01 Z-3.5
G03 X67.631 Y69.738 I2104.203 J0.29
G02 X67.625 Y64.753 I-985.132 J-1.322
X67.595 Y64.704 I-0.094 J0.023
X67.523 Y64.679 I-0.066 J0.075
G03 X67.466 Y64.682 I-0.091 J-1.497
G02 X67.404 Y64.709 I0.002 J0.087
X67.38 Y64.771 I0.062 J0.06
G03 X67.38 Y64.804 I-1.499 J0.034
X67.38 Y69.873 I-2066.128 J2.263
G02 X67.386 Y74.849 I982.295 J1.333
X67.425 Y74.896 I0.172 J-0.102
X67.483 Y74.932 I0.133 J-0.151
G03 X67.546 Y74.929 I0.096 J1.496
G02 X67.607 Y74.902 I-0.002 J-0.087
X67.631 Y74.84 I-0.062 J-0.06
G03 X67.631 Y74.807 I1.499 J-0.034
X67.629 Y72.273 I2104.202 J-2.243
G00 Z1
G90
(Sketch 20)
X157.938 Y48.581 S7000 M03
G01 Z-0.5
G03 X157.936 Y51.6 I-2766.314 J-0.338
G02 X157.942 Y57.525 I1312.321 J1.592
X157.962 Y57.545 I0.108 J-0.088
X157.992 Y57.563 I0.088 J-0.108
G03 X158.042 Y57.558 I0.181 J1.488
G02 X158.056 Y57.551 I-0.001 J-0.02
X158.066 Y57.518 I-0.035 J-0.029
G03 X158.062 Y57.406 I1.495 J-0.112
X158.063 Y51.379 I2512.686 J-2.69
G02 X158.056 Y45.455 I-1194.079 J-1.585
X158.047 Y45.444 I-0.032 J0.016
X158.022 Y45.436 I-0.023 J0.026
G03 X157.983 Y45.438 I-0.094 J-1.497
G02 X157.957 Y45.46 I0.074 J0.114
X157.935 Y45.49 I0.104 J0.096
G03 X157.937 Y45.561 I-1.498 J0.072
X157.938 Y48.581 I-2766.313 J2.681
G01 Z-1
G03 X157.936 Y51.6 I-2766.314 J-0.338
G02 X157.942 Y57.525 I1312.321 J1.592
X157.962 Y57.545 I0.108 J-0.088
X157.992 Y57.563 I0.088 J-0.108
G03 X158.042 Y57.558 I0.181 J1.488
G02 X158.056 Y57.551 I-0.001 J-0.02
X158.066 Y57.518 I-0.035 J-0.029
G03 X158.062 Y57.406 I1.495 J-0.112
X158.063 Y51.379 I2512.686 J-2.69
G02 X158.056 Y45.455 I-1194.079 J-1.585
X158.047 Y45.444 I-0.032 J0.016
X158.022 Y45.436 I-0.023 J0.026
G03 X157.983 Y45.438 I-0.094 J-1.497
G02 X157.957 Y45.46 I0.074 J0.114
X157.935 Y45.49 I0.104 J0.096
G03 X157.937 Y45.561 I-1.498 J0.072
X157.938 Y48.581 I-2766.313 J2.681
G01 Z-1.5
G03 X157.936 Y51.6 I-2766.314 J-0.338
G02 X157.942 Y57.525 I1312.321 J1.592
X157.962 Y57.545 I0.108 J-0.088
X157.992 Y57.563 I0.088 J-0.108
G03 X158.042 Y57.558 I0.181 J1.488
G02 X158.056 Y57.551 I-0.001 J-0.02
X158.066 Y57.518 I-0.035 J-0.029
G03 X158.062 Y57.406 I1.495 J-0.112
X158.063 Y51.379 I2512.686 J-2.69
G02 X158.056 Y45.455 I-1194.079 J-1.585
X158.047 Y45.444 I-0.032 J0.016
X158.022 Y45.436 I-0.023 J0.026
G03 X157.983 Y45.438 I-0.094 J-1.497
G02 X157.957 Y45.46 I0.074 J0.114
X157.935 Y45.49 I0.104 J0.096
G03 X157.937 Y45.561 I-1.498 J0.072
X157.938 Y48.581 I-2766.313 J2.681
G01 Z-2
G03 X157.936 Y51.6 I-2766.314 J-0.338
G02 X157.942 Y57.525 I1312.321 J1.592
X157.962 Y57.545 I0.108 J-0.088
X157.992 Y57.563 I0.088 J-0.108
G03 X158.042 Y57.558 I0.181 J1.488
G02 X158.056 Y57.551 I-0.001 J-0.02
X158.066 Y57.518 I-0.035 J-0.029
G03 X158.062 Y57.406 I1.495 J-0.112
X158.063 Y51.379 I2512.686 J-2.69
G02 X158.056 Y45.455 I-1194.079 J-1.585
X158.047 Y45.444 I-0.032 J0.016
X158.022 Y45.436 I-0.023 J0.026
G03 X157.983 Y45.438 I-0.094 J-1.497
G02 X157.957 Y45.46 I0.074 J0.114
X157.935 Y45.49 I0.104 J0.096
G03 X157.937 Y45.561 I-1.498 J0.072
X157.938 Y48.581 I-2766.313 J2.681
G01 Z-2.5
G03 X157.936 Y51.6 I-2766.314 J-0.338
G02 X157.942 Y57.525 I1312.321 J1.592
X157.962 Y57.545 I0.108 J-0.088
X157.992 Y57.563 I0.088 J-0.108
G03 X158.042 Y57.558 I0.181 J1.488
G02 X158.056 Y57.551 I-0.001 J-0.02
X158.066 Y57.518 I-0.035 J-0.029
G03 X158.062 Y57.406 I1.495 J-0.112
X158.063 Y51.379 I2512.686 J-2.69
G02 X158.056 Y45.455 I-1194.079 J-1.585
X158.047 Y45.444 I-0.032 J0.016
X158.022 Y45.436 I-0.023 J0.026
G03 X157.983 Y45.438 I-0.094 J-1.497
G02 X157.957 Y45.46 I0.074 J0.114
X157.935 Y45.49 I0.104 J0.096
G03 X157.937 Y45.561 I-1.498 J0.072
X157.938 Y48.581 I-2766.313 J2.681
G01 Z-3
G03 X157.936 Y51.6 I-2766.314 J-0.338
G02 X157.942 Y57.525 I1312.321 J1.592
X157.962 Y57.545 I0.108 J-0.088
X157.992 Y57.563 I0.088 J-0.108
G03 X158.042 Y57.558 I0.181 J1.488
G02 X158.056 Y57.551 I-0.001 J-0.02
X158.066 Y57.518 I-0.035 J-0.029
G03 X158.062 Y57.406 I1.495 J-0.112
X158.063 Y51.379 I2512.686 J-2.69
G02 X158.056 Y45.455 I-1194.079 J-1.585
X158.047 Y45.444 I-0.032 J0.016
X158.022 Y45.436 I-0.023 J0.026
G03 X157.983 Y45.438 I-0.094 J-1.497
G02 X157.957 Y45.46 I0.074 J0.114
X157.935 Y45.49 I0.104 J0.096
G03 X157.937 Y45.561 I-1.498 J0.072
X157.938 Y48.581 I-2766.313 J2.681
G01 Z-3.5
G03 X157.936 Y51.6 I-2766.314 J-0.338
G02 X157.942 Y57.525 I1312.321 J1.592
X157.962 Y57.545 I0.108 J-0.088
X157.992 Y57.563 I0.088 J-0.108
G03 X158.042 Y57.558 I0.181 J1.488
G02 X158.056 Y57.551 I-0.001 J-0.02
X158.066 Y57.518 I-0.035 J-0.029
G03 X158.062 Y57.406 I1.495 J-0.112
X158.063 Y51.379 I2512.686 J-2.69
G02 X158.056 Y45.455 I-1194.079 J-1.585
X158.047 Y45.444 I-0.032 J0.016
X158.022 Y45.436 I-0.023 J0.026
G03 X157.983 Y45.438 I-0.094 J-1.497
G02 X157.957 Y45.46 I0.074 J0.114
X157.935 Y45.49 I0.104 J0.096
G03 X157.937 Y45.561 I-1.498 J0.072
X157.938 Y48.581 I-2766.313 J2.681
G00 Z1
G90
(Sketch 2)
X83 Y1.5 S7000 M03
Z2
G01 Z-0.5
X159.825 Y1.5
G03 X159.858 Y1.5 I0 J1.5
G01 X160.003 Y1.503
G03 X160.071 Y1.506 I-0.033 J1.499
G01 X160.216 Y1.516
G03 X160.285 Y1.522 I-0.101 J1.496
G01 X160.429 Y1.539
G03 X160.502 Y1.549 I-0.17 J1.49
G01 X160.645 Y1.572
G03 X160.715 Y1.585 I-0.242 J1.48
G01 X160.865 Y1.618
G03 X160.93 Y1.633 I-0.312 J1.467
G01 X161.079 Y1.671
G03 X161.148 Y1.691 I-0.376 J1.451
G01 X161.295 Y1.737
G03 X161.369 Y1.762 I-0.446 J1.432
G01 X161.513 Y1.815
G03 X161.584 Y1.843 I-0.519 J1.407
G01 X161.731 Y1.907
G03 X161.796 Y1.936 I-0.59 J1.378
G01 X161.94 Y2.006
G03 X162.006 Y2.04 I-0.655 J1.349
G01 X162.146 Y2.117
G03 X162.215 Y2.157 I-0.72 J1.315
G01 X162.352 Y2.242
G03 X162.416 Y2.284 I-0.789 J1.275
G01 X162.551 Y2.377
G03 X162.611 Y2.422 I-0.854 J1.232
G01 X162.741 Y2.522
G03 X162.801 Y2.57 I-0.915 J1.188
G01 X162.926 Y2.677
G03 X162.983 Y2.728 I-0.975 J1.139
G01 X163.101 Y2.841
G03 X163.158 Y2.898 I-1.031 J1.088
G01 X163.271 Y3.016
G03 X163.322 Y3.074 I-1.088 J1.031
G01 X163.429 Y3.198
G03 X163.477 Y3.257 I-1.14 J0.974
G01 X163.577 Y3.387
G03 X163.621 Y3.448 I-1.188 J0.915
G01 X163.714 Y3.582
G03 X163.758 Y3.648 I-1.232 J0.854
G01 X163.842 Y3.784
G03 X163.881 Y3.852 I-1.275 J0.789
G01 X163.959 Y3.993
G03 X163.993 Y4.059 I-1.315 J0.721
G01 X164.063 Y4.204
G03 X164.092 Y4.268 I-1.349 J0.654
G01 X164.156 Y4.415
G03 X164.184 Y4.486 I-1.378 J0.59
G01 X164.237 Y4.63
G03 X164.262 Y4.704 I-1.407 J0.519
G01 X164.308 Y4.851
G03 X164.327 Y4.919 I-1.432 J0.445
G01 X164.366 Y5.069
G03 X164.382 Y5.134 I-1.451 J0.377
G01 X164.414 Y5.285
G03 X164.427 Y5.353 I-1.467 J0.311
G01 X164.45 Y5.496
G03 X164.461 Y5.571 I-1.48 J0.243
G01 X164.477 Y5.715
G03 X164.483 Y5.783 I-1.49 J0.169
G01 X164.493 Y5.928
G03 X164.496 Y5.996 I-1.496 J0.101
G01 X164.499 Y6.141
G03 X164.5 Y6.175 I-1.499 J0.033
G01 X164.5 Y91.85
G03 X164.499 Y91.886 I-1.5 J0
G01 X164.496 Y92.023
G03 X164.493 Y92.088 I-1.499 J-0.036
G01 X164.484 Y92.225
G03 X164.478 Y92.288 I-1.496 J-0.1
G01 X164.463 Y92.425
G03 X164.455 Y92.489 I-1.491 J-0.163
G01 X164.434 Y92.625
G03 X164.423 Y92.688 I-1.482 J-0.226
G01 X164.396 Y92.824
G03 X164.382 Y92.888 I-1.471 J-0.289
G01 X164.35 Y93.022
G03 X164.333 Y93.084 I-1.457 J-0.353
G01 X164.295 Y93.217
G03 X164.275 Y93.279 I-1.441 J-0.415
G01 X164.232 Y93.409
G03 X164.208 Y93.474 I-1.421 J-0.478
G01 X164.158 Y93.602
G03 X164.134 Y93.662 I-1.398 J-0.542
G01 X164.078 Y93.788
G03 X164.051 Y93.848 I-1.373 J-0.603
G01 X163.99 Y93.971
G03 X163.96 Y94.028 I-1.345 J-0.662
G01 X163.894 Y94.149
G03 X163.862 Y94.205 I-1.316 J-0.719
G01 X163.79 Y94.323
G03 X163.756 Y94.378 I-1.284 J-0.775
G01 X163.68 Y94.493
G03 X163.644 Y94.544 I-1.249 J-0.829
G01 X163.563 Y94.656
G03 X163.524 Y94.707 I-1.214 J-0.88
G01 X163.439 Y94.815
G03 X163.416 Y94.843 I-1.175 J-0.931
G01 X115.104 Y152.817
G03 X115.077 Y152.848 I-1.152 J-0.96
G01 X114.964 Y152.977
G03 X114.909 Y153.036 I-1.125 J-0.991
G01 X114.789 Y153.159
G03 X114.731 Y153.215 I-1.071 J-1.05
G01 X114.604 Y153.331
G03 X114.541 Y153.386 I-1.013 J-1.105
G01 X114.408 Y153.494
G03 X114.342 Y153.545 I-0.949 J-1.161
G01 X114.2 Y153.649
G03 X114.134 Y153.694 I-0.884 J-1.211
G01 X113.987 Y153.79
G03 X113.917 Y153.833 I-0.817 J-1.257
G01 X113.764 Y153.921
G03 X113.69 Y153.961 I-0.748 J-1.3
G01 X113.533 Y154.04
G03 X113.456 Y154.076 I-0.674 J-1.339
G01 X113.295 Y154.146
G03 X113.218 Y154.176 I-0.597 J-1.376
G01 X113.053 Y154.238
G03 X112.975 Y154.264 I-0.52 J-1.406
G01 X112.807 Y154.316
G03 X112.73 Y154.338 I-0.442 J-1.433
G01 X112.559 Y154.38
G03 X112.478 Y154.398 I-0.365 J-1.454
G01 X112.31 Y154.431
G03 X112.226 Y154.445 I-0.284 J-1.472
G01 X112.056 Y154.468
G03 X111.976 Y154.476 I-0.2 J-1.486
G01 X111.804 Y154.49
G03 X111.725 Y154.494 I-0.12 J-1.495
G01 X111.553 Y154.499
G03 X111.512 Y154.5 I-0.041 J-1.499
G01 X54.487 Y154.5
G03 X54.446 Y154.499 I0 J-1.5
G01 X54.274 Y154.494
G03 X54.195 Y154.49 I0.041 J-1.499
G01 X54.023 Y154.476
G03 X53.942 Y154.467 I0.12 J-1.495
G01 X53.772 Y154.444
G03 X53.69 Y154.431 I0.201 J-1.486
G01 X53.522 Y154.399
G03 X53.44 Y154.38 I0.283 J-1.473
G01 X53.269 Y154.338
G03 X53.192 Y154.316 I0.365 J-1.454
G01 X53.024 Y154.264
G03 X52.946 Y154.238 I0.442 J-1.433
G01 X52.781 Y154.177
G03 X52.704 Y154.146 I0.52 J-1.406
G01 X52.542 Y154.076
G03 X52.466 Y154.04 I0.597 J-1.375
G01 X52.309 Y153.961
G03 X52.235 Y153.921 I0.674 J-1.339
G01 X52.082 Y153.833
G03 X52.012 Y153.79 I0.748 J-1.3
G01 X51.865 Y153.694
G03 X51.799 Y153.649 I0.817 J-1.257
G01 X51.657 Y153.545
G03 X51.591 Y153.494 I0.884 J-1.211
G01 X51.458 Y153.386
G03 X51.395 Y153.331 I0.949 J-1.161
G01 X51.268 Y153.215
G03 X51.21 Y153.159 I1.013 J-1.105
G01 X51.09 Y153.036
G03 X51.035 Y152.977 I1.071 J-1.05
G01 X50.922 Y152.848
G03 X50.895 Y152.817 I1.125 J-0.991
G01 X2.583 Y94.843
G03 X2.56 Y94.815 I1.152 J-0.96
G01 X2.475 Y94.707
G03 X2.436 Y94.656 I1.175 J-0.931
G01 X2.355 Y94.544
G03 X2.319 Y94.493 I1.214 J-0.88
G01 X2.243 Y94.378
G03 X2.209 Y94.323 I1.249 J-0.829
G01 X2.137 Y94.205
G03 X2.105 Y94.149 I1.284 J-0.775
G01 X2.039 Y94.028
G03 X2.009 Y93.971 I1.316 J-0.719
G01 X1.948 Y93.848
G03 X1.921 Y93.788 I1.345 J-0.662
G01 X1.865 Y93.662
G03 X1.84 Y93.601 I1.373 J-0.603
G01 X1.791 Y93.473
G03 X1.767 Y93.409 I1.398 J-0.542
G01 X1.724 Y93.279
G03 X1.704 Y93.217 I1.421 J-0.478
G01 X1.666 Y93.084
G03 X1.649 Y93.021 I1.441 J-0.416
G01 X1.617 Y92.887
G03 X1.603 Y92.824 I1.457 J-0.353
G01 X1.576 Y92.689
G03 X1.565 Y92.625 I1.471 J-0.289
G01 X1.544 Y92.489
G03 X1.536 Y92.425 I1.482 J-0.226
G01 X1.521 Y92.288
G03 X1.515 Y92.225 I1.491 J-0.163
G01 X1.506 Y92.087
G03 X1.503 Y92.023 I1.496 J-0.1
G01 X1.5 Y91.886
G03 X1.5 Y91.85 I1.499 J-0.036
G01 X1.5 Y6.175
G03 X1.5 Y6.14 I1.5 J0
G01 X1.503 Y5.995
G03 X1.506 Y5.929 I1.499 J0.034
G01 X1.516 Y5.784
G03 X1.522 Y5.714 I1.496 J0.1
G01 X1.539 Y5.57
G03 X1.549 Y5.497 I1.49 J0.17
G01 X1.572 Y5.354
G03 X1.585 Y5.284 I1.48 J0.242
G01 X1.618 Y5.134
G03 X1.633 Y5.069 I1.467 J0.312
G01 X1.671 Y4.92
G03 X1.691 Y4.851 I1.451 J0.376
G01 X1.737 Y4.704
G03 X1.762 Y4.63 I1.432 J0.446
G01 X1.815 Y4.486
G03 X1.843 Y4.415 I1.407 J0.519
G01 X1.907 Y4.268
G03 X1.936 Y4.204 I1.378 J0.59
G01 X2.006 Y4.06
G03 X2.041 Y3.992 I1.349 J0.654
G01 X2.118 Y3.851
G03 X2.157 Y3.784 I1.314 J0.721
G01 X2.241 Y3.648
G03 X2.285 Y3.582 I1.275 J0.789
G01 X2.378 Y3.448
G03 X2.422 Y3.388 I1.232 J0.854
G01 X2.522 Y3.258
G03 X2.57 Y3.198 I1.188 J0.915
G01 X2.677 Y3.073
G03 X2.728 Y3.016 I1.139 J0.975
G01 X2.841 Y2.898
G03 X2.898 Y2.841 I1.088 J1.031
G01 X3.016 Y2.728
G03 X3.073 Y2.677 I1.031 J1.088
G01 X3.198 Y2.57
G03 X3.258 Y2.522 I0.975 J1.139
G01 X3.388 Y2.422
G03 X3.448 Y2.378 I0.915 J1.188
G01 X3.582 Y2.285
G03 X3.648 Y2.241 I0.854 J1.232
G01 X3.784 Y2.157
G03 X3.852 Y2.118 I0.789 J1.275
G01 X3.993 Y2.04
G03 X4.059 Y2.006 I0.721 J1.315
G01 X4.203 Y1.936
G03 X4.269 Y1.906 I0.655 J1.349
G01 X4.416 Y1.843
G03 X4.486 Y1.815 I0.589 J1.379
G01 X4.63 Y1.762
G03 X4.704 Y1.737 I0.519 J1.407
G01 X4.851 Y1.691
G03 X4.919 Y1.672 I0.446 J1.432
G01 X5.068 Y1.633
G03 X5.134 Y1.617 I0.377 J1.451
G01 X5.285 Y1.585
G03 X5.353 Y1.572 I0.311 J1.467
G01 X5.496 Y1.549
G03 X5.57 Y1.539 I0.243 J1.48
G01 X5.714 Y1.522
G03 X5.784 Y1.516 I0.17 J1.49
G01 X5.929 Y1.506
G03 X5.996 Y1.503 I0.1 J1.496
G01 X6.141 Y1.5
G03 X6.175 Y1.5 I0.033 J1.499
G01 X83 Y1.5
Z-1
X159.825 Y1.5
G03 X159.858 Y1.5 I0 J1.5
G01 X160.003 Y1.503
G03 X160.071 Y1.506 I-0.033 J1.499
G01 X160.216 Y1.516
G03 X160.285 Y1.522 I-0.101 J1.496
G01 X160.429 Y1.539
G03 X160.502 Y1.549 I-0.17 J1.49
G01 X160.645 Y1.572
G03 X160.715 Y1.585 I-0.242 J1.48
G01 X160.865 Y1.618
G03 X160.93 Y1.633 I-0.312 J1.467
G01 X161.079 Y1.671
G03 X161.148 Y1.691 I-0.376 J1.451
G01 X161.295 Y1.737
G03 X161.369 Y1.762 I-0.446 J1.432
G01 X161.513 Y1.815
G03 X161.584 Y1.843 I-0.519 J1.407
G01 X161.731 Y1.907
G03 X161.796 Y1.936 I-0.59 J1.378
G01 X161.94 Y2.006
G03 X162.006 Y2.04 I-0.655 J1.349
G01 X162.146 Y2.117
G03 X162.215 Y2.157 I-0.72 J1.315
G01 X162.352 Y2.242
G03 X162.416 Y2.284 I-0.789 J1.275
G01 X162.551 Y2.377
G03 X162.611 Y2.422 I-0.854 J1.232
G01 X162.741 Y2.522
G03 X162.801 Y2.57 I-0.915 J1.188
G01 X162.926 Y2.677
G03 X162.983 Y2.728 I-0.975 J1.139
G01 X163.101 Y2.841
G03 X163.158 Y2.898 I-1.031 J1.088
G01 X163.271 Y3.016
G03 X163.322 Y3.074 I-1.088 J1.031
G01 X163.429 Y3.198
G03 X163.477 Y3.257 I-1.14 J0.974
G01 X163.577 Y3.387
G03 X163.621 Y3.448 I-1.188 J0.915
G01 X163.714 Y3.582
G03 X163.758 Y3.648 I-1.232 J0.854
G01 X163.842 Y3.784
G03 X163.881 Y3.852 I-1.275 J0.789
G01 X163.959 Y3.993
G03 X163.993 Y4.059 I-1.315 J0.721
G01 X164.063 Y4.204
G03 X164.092 Y4.268 I-1.349 J0.654
G01 X164.156 Y4.415
G03 X164.184 Y4.486 I-1.378 J0.59
G01 X164.237 Y4.63
G03 X164.262 Y4.704 I-1.407 J0.519
G01 X164.308 Y4.851
G03 X164.327 Y4.919 I-1.432 J0.445
G01 X164.366 Y5.069
G03 X164.382 Y5.134 I-1.451 J0.377
G01 X164.414 Y5.285
G03 X164.427 Y5.353 I-1.467 J0.311
G01 X164.45 Y5.496
G03 X164.461 Y5.571 I-1.48 J0.243
G01 X164.477 Y5.715
G03 X164.483 Y5.783 I-1.49 J0.169
G01 X164.493 Y5.928
G03 X164.496 Y5.996 I-1.496 J0.101
G01 X164.499 Y6.141
G03 X164.5 Y6.175 I-1.499 J0.033
G01 X164.5 Y91.85
G03 X164.499 Y91.886 I-1.5 J0
G01 X164.496 Y92.023
G03 X164.493 Y92.088 I-1.499 J-0.036
G01 X164.484 Y92.225
G03 X164.478 Y92.288 I-1.496 J-0.1
G01 X164.463 Y92.425
G03 X164.455 Y92.489 I-1.491 J-0.163
G01 X164.434 Y92.625
G03 X164.423 Y92.688 I-1.482 J-0.226
G01 X164.396 Y92.824
G03 X164.382 Y92.888 I-1.471 J-0.289
G01 X164.35 Y93.022
G03 X164.333 Y93.084 I-1.457 J-0.353
G01 X164.295 Y93.217
G03 X164.275 Y93.279 I-1.441 J-0.415
G01 X164.232 Y93.409
G03 X164.208 Y93.474 I-1.421 J-0.478
G01 X164.158 Y93.602
G03 X164.134 Y93.662 I-1.398 J-0.542
G01 X164.078 Y93.788
G03 X164.051 Y93.848 I-1.373 J-0.603
G01 X163.99 Y93.971
G03 X163.96 Y94.028 I-1.345 J-0.662
G01 X163.894 Y94.149
G03 X163.862 Y94.205 I-1.316 J-0.719
G01 X163.79 Y94.323
G03 X163.756 Y94.378 I-1.284 J-0.775
G01 X163.68 Y94.493
G03 X163.644 Y94.544 I-1.249 J-0.829
G01 X163.563 Y94.656
G03 X163.524 Y94.707 I-1.214 J-0.88
G01 X163.439 Y94.815
G03 X163.416 Y94.843 I-1.175 J-0.931
G01 X115.104 Y152.817
G03 X115.077 Y152.848 I-1.152 J-0.96
G01 X114.964 Y152.977
G03 X114.909 Y153.036 I-1.125 J-0.991
G01 X114.789 Y153.159
G03 X114.731 Y153.215 I-1.071 J-1.05
G01 X114.604 Y153.331
G03 X114.541 Y153.386 I-1.013 J-1.105
G01 X114.408 Y153.494
G03 X114.342 Y153.545 I-0.949 J-1.161
G01 X114.2 Y153.649
G03 X114.134 Y153.694 I-0.884 J-1.211
G01 X113.987 Y153.79
G03 X113.917 Y153.833 I-0.817 J-1.257
G01 X113.764 Y153.921
G03 X113.69 Y153.961 I-0.748 J-1.3
G01 X113.533 Y154.04
G03 X113.456 Y154.076 I-0.674 J-1.339
G01 X113.295 Y154.146
G03 X113.218 Y154.176 I-0.597 J-1.376
G01 X113.053 Y154.238
G03 X112.975 Y154.264 I-0.52 J-1.406
G01 X112.807 Y154.316
G03 X112.73 Y154.338 I-0.442 J-1.433
G01 X112.559 Y154.38
G03 X112.478 Y154.398 I-0.365 J-1.454
G01 X112.31 Y154.431
G03 X112.226 Y154.445 I-0.284 J-1.472
G01 X112.056 Y154.468
G03 X111.976 Y154.476 I-0.2 J-1.486
G01 X111.804 Y154.49
G03 X111.725 Y154.494 I-0.12 J-1.495
G01 X111.553 Y154.499
G03 X111.512 Y154.5 I-0.041 J-1.499
G01 X54.487 Y154.5
G03 X54.446 Y154.499 I0 J-1.5
G01 X54.274 Y154.494
G03 X54.195 Y154.49 I0.041 J-1.499
G01 X54.023 Y154.476
G03 X53.942 Y154.467 I0.12 J-1.495
G01 X53.772 Y154.444
G03 X53.69 Y154.431 I0.201 J-1.486
G01 X53.522 Y154.399
G03 X53.44 Y154.38 I0.283 J-1.473
G01 X53.269 Y154.338
G03 X53.192 Y154.316 I0.365 J-1.454
G01 X53.024 Y154.264
G03 X52.946 Y154.238 I0.442 J-1.433
G01 X52.781 Y154.177
G03 X52.704 Y154.146 I0.52 J-1.406
G01 X52.542 Y154.076
G03 X52.466 Y154.04 I0.597 J-1.375
G01 X52.309 Y153.961
G03 X52.235 Y153.921 I0.674 J-1.339
G01 X52.082 Y153.833
G03 X52.012 Y153.79 I0.748 J-1.3
G01 X51.865 Y153.694
G03 X51.799 Y153.649 I0.817 J-1.257
G01 X51.657 Y153.545
G03 X51.591 Y153.494 I0.884 J-1.211
G01 X51.458 Y153.386
G03 X51.395 Y153.331 I0.949 J-1.161
G01 X51.268 Y153.215
G03 X51.21 Y153.159 I1.013 J-1.105
G01 X51.09 Y153.036
G03 X51.035 Y152.977 I1.071 J-1.05
G01 X50.922 Y152.848
G03 X50.895 Y152.817 I1.125 J-0.991
G01 X2.583 Y94.843
G03 X2.56 Y94.815 I1.152 J-0.96
G01 X2.475 Y94.707
G03 X2.436 Y94.656 I1.175 J-0.931
G01 X2.355 Y94.544
G03 X2.319 Y94.493 I1.214 J-0.88
G01 X2.243 Y94.378
G03 X2.209 Y94.323 I1.249 J-0.829
G01 X2.137 Y94.205
G03 X2.105 Y94.149 I1.284 J-0.775
G01 X2.039 Y94.028
G03 X2.009 Y93.971 I1.316 J-0.719
G01 X1.948 Y93.848
G03 X1.921 Y93.788 I1.345 J-0.662
G01 X1.865 Y93.662
G03 X1.84 Y93.601 I1.373 J-0.603
G01 X1.791 Y93.473
G03 X1.767 Y93.409 I1.398 J-0.542
G01 X1.724 Y93.279
G03 X1.704 Y93.217 I1.421 J-0.478
G01 X1.666 Y93.084
G03 X1.649 Y93.021 I1.441 J-0.416
G01 X1.617 Y92.887
G03 X1.603 Y92.824 I1.457 J-0.353
G01 X1.576 Y92.689
G03 X1.565 Y92.625 I1.471 J-0.289
G01 X1.544 Y92.489
G03 X1.536 Y92.425 I1.482 J-0.226
G01 X1.521 Y92.288
G03 X1.515 Y92.225 I1.491 J-0.163
G01 X1.506 Y92.087
G03 X1.503 Y92.023 I1.496 J-0.1
G01 X1.5 Y91.886
G03 X1.5 Y91.85 I1.499 J-0.036
G01 X1.5 Y6.175
G03 X1.5 Y6.14 I1.5 J0
G01 X1.503 Y5.995
G03 X1.506 Y5.929 I1.499 J0.034
G01 X1.516 Y5.784
G03 X1.522 Y5.714 I1.496 J0.1
G01 X1.539 Y5.57
G03 X1.549 Y5.497 I1.49 J0.17
G01 X1.572 Y5.354
G03 X1.585 Y5.284 I1.48 J0.242
G01 X1.618 Y5.134
G03 X1.633 Y5.069 I1.467 J0.312
G01 X1.671 Y4.92
G03 X1.691 Y4.851 I1.451 J0.376
G01 X1.737 Y4.704
G03 X1.762 Y4.63 I1.432 J0.446
G01 X1.815 Y4.486
G03 X1.843 Y4.415 I1.407 J0.519
G01 X1.907 Y4.268
G03 X1.936 Y4.204 I1.378 J0.59
G01 X2.006 Y4.06
G03 X2.041 Y3.992 I1.349 J0.654
G01 X2.118 Y3.851
G03 X2.157 Y3.784 I1.314 J0.721
G01 X2.241 Y3.648
G03 X2.285 Y3.582 I1.275 J0.789
G01 X2.378 Y3.448
G03 X2.422 Y3.388 I1.232 J0.854
G01 X2.522 Y3.258
G03 X2.57 Y3.198 I1.188 J0.915
G01 X2.677 Y3.073
G03 X2.728 Y3.016 I1.139 J0.975
G01 X2.841 Y2.898
G03 X2.898 Y2.841 I1.088 J1.031
G01 X3.016 Y2.728
G03 X3.073 Y2.677 I1.031 J1.088
G01 X3.198 Y2.57
G03 X3.258 Y2.522 I0.975 J1.139
G01 X3.388 Y2.422
G03 X3.448 Y2.378 I0.915 J1.188
G01 X3.582 Y2.285
G03 X3.648 Y2.241 I0.854 J1.232
G01 X3.784 Y2.157
G03 X3.852 Y2.118 I0.789 J1.275
G01 X3.993 Y2.04
G03 X4.059 Y2.006 I0.721 J1.315
G01 X4.203 Y1.936
G03 X4.269 Y1.906 I0.655 J1.349
G01 X4.416 Y1.843
G03 X4.486 Y1.815 I0.589 J1.379
G01 X4.63 Y1.762
G03 X4.704 Y1.737 I0.519 J1.407
G01 X4.851 Y1.691
G03 X4.919 Y1.672 I0.446 J1.432
G01 X5.068 Y1.633
G03 X5.134 Y1.617 I0.377 J1.451
G01 X5.285 Y1.585
G03 X5.353 Y1.572 I0.311 J1.467
G01 X5.496 Y1.549
G03 X5.57 Y1.539 I0.243 J1.48
G01 X5.714 Y1.522
G03 X5.784 Y1.516 I0.17 J1.49
G01 X5.929 Y1.506
G03 X5.996 Y1.503 I0.1 J1.496
G01 X6.141 Y1.5
G03 X6.175 Y1.5 I0.033 J1.499
G01 X83 Y1.5
Z-1.5
X159.825 Y1.5
G03 X159.858 Y1.5 I0 J1.5
G01 X160.003 Y1.503
G03 X160.071 Y1.506 I-0.033 J1.499
G01 X160.216 Y1.516
G03 X160.285 Y1.522 I-0.101 J1.496
G01 X160.429 Y1.539
G03 X160.502 Y1.549 I-0.17 J1.49
G01 X160.645 Y1.572
G03 X160.715 Y1.585 I-0.242 J1.48
G01 X160.865 Y1.618
G03 X160.93 Y1.633 I-0.312 J1.467
G01 X161.079 Y1.671
G03 X161.148 Y1.691 I-0.376 J1.451
G01 X161.295 Y1.737
G03 X161.369 Y1.762 I-0.446 J1.432
G01 X161.513 Y1.815
G03 X161.584 Y1.843 I-0.519 J1.407
G01 X161.731 Y1.907
G03 X161.796 Y1.936 I-0.59 J1.378
G01 X161.94 Y2.006
G03 X162.006 Y2.04 I-0.655 J1.349
G01 X162.146 Y2.117
G03 X162.215 Y2.157 I-0.72 J1.315
G01 X162.352 Y2.242
G03 X162.416 Y2.284 I-0.789 J1.275
G01 X162.551 Y2.377
G03 X162.611 Y2.422 I-0.854 J1.232
G01 X162.741 Y2.522
G03 X162.801 Y2.57 I-0.915 J1.188
G01 X162.926 Y2.677
G03 X162.983 Y2.728 I-0.975 J1.139
G01 X163.101 Y2.841
G03 X163.158 Y2.898 I-1.031 J1.088
G01 X163.271 Y3.016
G03 X163.322 Y3.074 I-1.088 J1.031
G01 X163.429 Y3.198
G03 X163.477 Y3.257 I-1.14 J0.974
G01 X163.577 Y3.387
G03 X163.621 Y3.448 I-1.188 J0.915
G01 X163.714 Y3.582
G03 X163.758 Y3.648 I-1.232 J0.854
G01 X163.842 Y3.784
G03 X163.881 Y3.852 I-1.275 J0.789
G01 X163.959 Y3.993
G03 X163.993 Y4.059 I-1.315 J0.721
G01 X164.063 Y4.204
G03 X164.092 Y4.268 I-1.349 J0.654
G01 X164.156 Y4.415
G03 X164.184 Y4.486 I-1.378 J0.59
G01 X164.237 Y4.63
G03 X164.262 Y4.704 I-1.407 J0.519
G01 X164.308 Y4.851
G03 X164.327 Y4.919 I-1.432 J0.445
G01 X164.366 Y5.069
G03 X164.382 Y5.134 I-1.451 J0.377
G01 X164.414 Y5.285
G03 X164.427 Y5.353 I-1.467 J0.311
G01 X164.45 Y5.496
G03 X164.461 Y5.571 I-1.48 J0.243
G01 X164.477 Y5.715
G03 X164.483 Y5.783 I-1.49 J0.169
G01 X164.493 Y5.928
G03 X164.496 Y5.996 I-1.496 J0.101
G01 X164.499 Y6.141
G03 X164.5 Y6.175 I-1.499 J0.033
G01 X164.5 Y91.85
G03 X164.499 Y91.886 I-1.5 J0
G01 X164.496 Y92.023
G03 X164.493 Y92.088 I-1.499 J-0.036
G01 X164.484 Y92.225
G03 X164.478 Y92.288 I-1.496 J-0.1
G01 X164.463 Y92.425
G03 X164.455 Y92.489 I-1.491 J-0.163
G01 X164.434 Y92.625
G03 X164.423 Y92.688 I-1.482 J-0.226
G01 X164.396 Y92.824
G03 X164.382 Y92.888 I-1.471 J-0.289
G01 X164.35 Y93.022
G03 X164.333 Y93.084 I-1.457 J-0.353
G01 X164.295 Y93.217
G03 X164.275 Y93.279 I-1.441 J-0.415
G01 X164.232 Y93.409
G03 X164.208 Y93.474 I-1.421 J-0.478
G01 X164.158 Y93.602
G03 X164.134 Y93.662 I-1.398 J-0.542
G01 X164.078 Y93.788
G03 X164.051 Y93.848 I-1.373 J-0.603
G01 X163.99 Y93.971
G03 X163.96 Y94.028 I-1.345 J-0.662
G01 X163.894 Y94.149
G03 X163.862 Y94.205 I-1.316 J-0.719
G01 X163.79 Y94.323
G03 X163.756 Y94.378 I-1.284 J-0.775
G01 X163.68 Y94.493
G03 X163.644 Y94.544 I-1.249 J-0.829
G01 X163.563 Y94.656
G03 X163.524 Y94.707 I-1.214 J-0.88
G01 X163.439 Y94.815
G03 X163.416 Y94.843 I-1.175 J-0.931
G01 X115.104 Y152.817
G03 X115.077 Y152.848 I-1.152 J-0.96
G01 X114.964 Y152.977
G03 X114.909 Y153.036 I-1.125 J-0.991
G01 X114.789 Y153.159
G03 X114.731 Y153.215 I-1.071 J-1.05
G01 X114.604 Y153.331
G03 X114.541 Y153.386 I-1.013 J-1.105
G01 X114.408 Y153.494
G03 X114.342 Y153.545 I-0.949 J-1.161
G01 X114.2 Y153.649
G03 X114.134 Y153.694 I-0.884 J-1.211
G01 X113.987 Y153.79
G03 X113.917 Y153.833 I-0.817 J-1.257
G01 X113.764 Y153.921
G03 X113.69 Y153.961 I-0.748 J-1.3
G01 X113.533 Y154.04
G03 X113.456 Y154.076 I-0.674 J-1.339
G01 X113.295 Y154.146
G03 X113.218 Y154.176 I-0.597 J-1.376
G01 X113.053 Y154.238
G03 X112.975 Y154.264 I-0.52 J-1.406
G01 X112.807 Y154.316
G03 X112.73 Y154.338 I-0.442 J-1.433
G01 X112.559 Y154.38
G03 X112.478 Y154.398 I-0.365 J-1.454
G01 X112.31 Y154.431
G03 X112.226 Y154.445 I-0.284 J-1.472
G01 X112.056 Y154.468
G03 X111.976 Y154.476 I-0.2 J-1.486
G01 X111.804 Y154.49
G03 X111.725 Y154.494 I-0.12 J-1.495
G01 X111.553 Y154.499
G03 X111.512 Y154.5 I-0.041 J-1.499
G01 X54.487 Y154.5
G03 X54.446 Y154.499 I0 J-1.5
G01 X54.274 Y154.494
G03 X54.195 Y154.49 I0.041 J-1.499
G01 X54.023 Y154.476
G03 X53.942 Y154.467 I0.12 J-1.495
G01 X53.772 Y154.444
G03 X53.69 Y154.431 I0.201 J-1.486
G01 X53.522 Y154.399
G03 X53.44 Y154.38 I0.283 J-1.473
G01 X53.269 Y154.338
G03 X53.192 Y154.316 I0.365 J-1.454
G01 X53.024 Y154.264
G03 X52.946 Y154.238 I0.442 J-1.433
G01 X52.781 Y154.177
G03 X52.704 Y154.146 I0.52 J-1.406
G01 X52.542 Y154.076
G03 X52.466 Y154.04 I0.597 J-1.375
G01 X52.309 Y153.961
G03 X52.235 Y153.921 I0.674 J-1.339
G01 X52.082 Y153.833
G03 X52.012 Y153.79 I0.748 J-1.3
G01 X51.865 Y153.694
G03 X51.799 Y153.649 I0.817 J-1.257
G01 X51.657 Y153.545
G03 X51.591 Y153.494 I0.884 J-1.211
G01 X51.458 Y153.386
G03 X51.395 Y153.331 I0.949 J-1.161
G01 X51.268 Y153.215
G03 X51.21 Y153.159 I1.013 J-1.105
G01 X51.09 Y153.036
G03 X51.035 Y152.977 I1.071 J-1.05
G01 X50.922 Y152.848
G03 X50.895 Y152.817 I1.125 J-0.991
G01 X2.583 Y94.843
G03 X2.56 Y94.815 I1.152 J-0.96
G01 X2.475 Y94.707
G03 X2.436 Y94.656 I1.175 J-0.931
G01 X2.355 Y94.544
G03 X2.319 Y94.493 I1.214 J-0.88
G01 X2.243 Y94.378
G03 X2.209 Y94.323 I1.249 J-0.829
G01 X2.137 Y94.205
G03 X2.105 Y94.149 I1.284 J-0.775
G01 X2.039 Y94.028
G03 X2.009 Y93.971 I1.316 J-0.719
G01 X1.948 Y93.848
G03 X1.921 Y93.788 I1.345 J-0.662
G01 X1.865 Y93.662
G03 X1.84 Y93.601 I1.373 J-0.603
G01 X1.791 Y93.473
G03 X1.767 Y93.409 I1.398 J-0.542
G01 X1.724 Y93.279
G03 X1.704 Y93.217 I1.421 J-0.478
G01 X1.666 Y93.084
G03 X1.649 Y93.021 I1.441 J-0.416
G01 X1.617 Y92.887
G03 X1.603 Y92.824 I1.457 J-0.353
G01 X1.576 Y92.689
G03 X1.565 Y92.625 I1.471 J-0.289
G01 X1.544 Y92.489
G03 X1.536 Y92.425 I1.482 J-0.226
G01 X1.521 Y92.288
G03 X1.515 Y92.225 I1.491 J-0.163
G01 X1.506 Y92.087
G03 X1.503 Y92.023 I1.496 J-0.1
G01 X1.5 Y91.886
G03 X1.5 Y91.85 I1.499 J-0.036
G01 X1.5 Y6.175
G03 X1.5 Y6.14 I1.5 J0
G01 X1.503 Y5.995
G03 X1.506 Y5.929 I1.499 J0.034
G01 X1.516 Y5.784
G03 X1.522 Y5.714 I1.496 J0.1
G01 X1.539 Y5.57
G03 X1.549 Y5.497 I1.49 J0.17
G01 X1.572 Y5.354
G03 X1.585 Y5.284 I1.48 J0.242
G01 X1.618 Y5.134
G03 X1.633 Y5.069 I1.467 J0.312
G01 X1.671 Y4.92
G03 X1.691 Y4.851 I1.451 J0.376
G01 X1.737 Y4.704
G03 X1.762 Y4.63 I1.432 J0.446
G01 X1.815 Y4.486
G03 X1.843 Y4.415 I1.407 J0.519
G01 X1.907 Y4.268
G03 X1.936 Y4.204 I1.378 J0.59
G01 X2.006 Y4.06
G03 X2.041 Y3.992 I1.349 J0.654
G01 X2.118 Y3.851
G03 X2.157 Y3.784 I1.314 J0.721
G01 X2.241 Y3.648
G03 X2.285 Y3.582 I1.275 J0.789
G01 X2.378 Y3.448
G03 X2.422 Y3.388 I1.232 J0.854
G01 X2.522 Y3.258
G03 X2.57 Y3.198 I1.188 J0.915
G01 X2.677 Y3.073
G03 X2.728 Y3.016 I1.139 J0.975
G01 X2.841 Y2.898
G03 X2.898 Y2.841 I1.088 J1.031
G01 X3.016 Y2.728
G03 X3.073 Y2.677 I1.031 J1.088
G01 X3.198 Y2.57
G03 X3.258 Y2.522 I0.975 J1.139
G01 X3.388 Y2.422
G03 X3.448 Y2.378 I0.915 J1.188
G01 X3.582 Y2.285
G03 X3.648 Y2.241 I0.854 J1.232
G01 X3.784 Y2.157
G03 X3.852 Y2.118 I0.789 J1.275
G01 X3.993 Y2.04
G03 X4.059 Y2.006 I0.721 J1.315
G01 X4.203 Y1.936
G03 X4.269 Y1.906 I0.655 J1.349
G01 X4.416 Y1.843
G03 X4.486 Y1.815 I0.589 J1.379
G01 X4.63 Y1.762
G03 X4.704 Y1.737 I0.519 J1.407
G01 X4.851 Y1.691
G03 X4.919 Y1.672 I0.446 J1.432
G01 X5.068 Y1.633
G03 X5.134 Y1.617 I0.377 J1.451
G01 X5.285 Y1.585
G03 X5.353 Y1.572 I0.311 J1.467
G01 X5.496 Y1.549
G03 X5.57 Y1.539 I0.243 J1.48
G01 X5.714 Y1.522
G03 X5.784 Y1.516 I0.17 J1.49
G01 X5.929 Y1.506
G03 X5.996 Y1.503 I0.1 J1.496
G01 X6.141 Y1.5
G03 X6.175 Y1.5 I0.033 J1.499
G01 X83 Y1.5
Z-2
X159.825 Y1.5
G03 X159.858 Y1.5 I0 J1.5
G01 X160.003 Y1.503
G03 X160.071 Y1.506 I-0.033 J1.499
G01 X160.216 Y1.516
G03 X160.285 Y1.522 I-0.101 J1.496
G01 X160.429 Y1.539
G03 X160.502 Y1.549 I-0.17 J1.49
G01 X160.645 Y1.572
G03 X160.715 Y1.585 I-0.242 J1.48
G01 X160.865 Y1.618
G03 X160.93 Y1.633 I-0.312 J1.467
G01 X161.079 Y1.671
G03 X161.148 Y1.691 I-0.376 J1.451
G01 X161.295 Y1.737
G03 X161.369 Y1.762 I-0.446 J1.432
G01 X161.513 Y1.815
G03 X161.584 Y1.843 I-0.519 J1.407
G01 X161.731 Y1.907
G03 X161.796 Y1.936 I-0.59 J1.378
G01 X161.94 Y2.006
G03 X162.006 Y2.04 I-0.655 J1.349
G01 X162.146 Y2.117
G03 X162.215 Y2.157 I-0.72 J1.315
G01 X162.352 Y2.242
G03 X162.416 Y2.284 I-0.789 J1.275
G01 X162.551 Y2.377
G03 X162.611 Y2.422 I-0.854 J1.232
G01 X162.741 Y2.522
G03 X162.801 Y2.57 I-0.915 J1.188
G01 X162.926 Y2.677
G03 X162.983 Y2.728 I-0.975 J1.139
G01 X163.101 Y2.841
G03 X163.158 Y2.898 I-1.031 J1.088
G01 X163.271 Y3.016
G03 X163.322 Y3.074 I-1.088 J1.031
G01 X163.429 Y3.198
G03 X163.477 Y3.257 I-1.14 J0.974
G01 X163.577 Y3.387
G03 X163.621 Y3.448 I-1.188 J0.915
G01 X163.714 Y3.582
G03 X163.758 Y3.648 I-1.232 J0.854
G01 X163.842 Y3.784
G03 X163.881 Y3.852 I-1.275 J0.789
G01 X163.959 Y3.993
G03 X163.993 Y4.059 I-1.315 J0.721
G01 X164.063 Y4.204
G03 X164.092 Y4.268 I-1.349 J0.654
G01 X164.156 Y4.415
G03 X164.184 Y4.486 I-1.378 J0.59
G01 X164.237 Y4.63
G03 X164.262 Y4.704 I-1.407 J0.519
G01 X164.308 Y4.851
G03 X164.327 Y4.919 I-1.432 J0.445
G01 X164.366 Y5.069
G03 X164.382 Y5.134 I-1.451 J0.377
G01 X164.414 Y5.285
G03 X164.427 Y5.353 I-1.467 J0.311
G01 X164.45 Y5.496
G03 X164.461 Y5.571 I-1.48 J0.243
G01 X164.477 Y5.715
G03 X164.483 Y5.783 I-1.49 J0.169
G01 X164.493 Y5.928
G03 X164.496 Y5.996 I-1.496 J0.101
G01 X164.499 Y6.141
G03 X164.5 Y6.175 I-1.499 J0.033
G01 X164.5 Y91.85
G03 X164.499 Y91.886 I-1.5 J0
G01 X164.496 Y92.023
G03 X164.493 Y92.088 I-1.499 J-0.036
G01 X164.484 Y92.225
G03 X164.478 Y92.288 I-1.496 J-0.1
G01 X164.463 Y92.425
G03 X164.455 Y92.489 I-1.491 J-0.163
G01 X164.434 Y92.625
G03 X164.423 Y92.688 I-1.482 J-0.226
G01 X164.396 Y92.824
G03 X164.382 Y92.888 I-1.471 J-0.289
G01 X164.35 Y93.022
G03 X164.333 Y93.084 I-1.457 J-0.353
G01 X164.295 Y93.217
G03 X164.275 Y93.279 I-1.441 J-0.415
G01 X164.232 Y93.409
G03 X164.208 Y93.474 I-1.421 J-0.478
G01 X164.158 Y93.602
G03 X164.134 Y93.662 I-1.398 J-0.542
G01 X164.078 Y93.788
G03 X164.051 Y93.848 I-1.373 J-0.603
G01 X163.99 Y93.971
G03 X163.96 Y94.028 I-1.345 J-0.662
G01 X163.894 Y94.149
G03 X163.862 Y94.205 I-1.316 J-0.719
G01 X163.79 Y94.323
G03 X163.756 Y94.378 I-1.284 J-0.775
G01 X163.68 Y94.493
G03 X163.644 Y94.544 I-1.249 J-0.829
G01 X163.563 Y94.656
G03 X163.524 Y94.707 I-1.214 J-0.88
G01 X163.439 Y94.815
G03 X163.416 Y94.843 I-1.175 J-0.931
G01 X115.104 Y152.817
G03 X115.077 Y152.848 I-1.152 J-0.96
G01 X114.964 Y152.977
G03 X114.909 Y153.036 I-1.125 J-0.991
G01 X114.789 Y153.159
G03 X114.731 Y153.215 I-1.071 J-1.05
G01 X114.604 Y153.331
G03 X114.541 Y153.386 I-1.013 J-1.105
G01 X114.408 Y153.494
G03 X114.342 Y153.545 I-0.949 J-1.161
G01 X114.2 Y153.649
G03 X114.134 Y153.694 I-0.884 J-1.211
G01 X113.987 Y153.79
G03 X113.917 Y153.833 I-0.817 J-1.257
G01 X113.764 Y153.921
G03 X113.69 Y153.961 I-0.748 J-1.3
G01 X113.533 Y154.04
G03 X113.456 Y154.076 I-0.674 J-1.339
G01 X113.295 Y154.146
G03 X113.218 Y154.176 I-0.597 J-1.376
G01 X113.053 Y154.238
G03 X112.975 Y154.264 I-0.52 J-1.406
G01 X112.807 Y154.316
G03 X112.73 Y154.338 I-0.442 J-1.433
G01 X112.559 Y154.38
G03 X112.478 Y154.398 I-0.365 J-1.454
G01 X112.31 Y154.431
G03 X112.226 Y154.445 I-0.284 J-1.472
G01 X112.056 Y154.468
G03 X111.976 Y154.476 I-0.2 J-1.486
G01 X111.804 Y154.49
G03 X111.725 Y154.494 I-0.12 J-1.495
G01 X111.553 Y154.499
G03 X111.512 Y154.5 I-0.041 J-1.499
G01 X54.487 Y154.5
G03 X54.446 Y154.499 I0 J-1.5
G01 X54.274 Y154.494
G03 X54.195 Y154.49 I0.041 J-1.499
G01 X54.023 Y154.476
G03 X53.942 Y154.467 I0.12 J-1.495
G01 X53.772 Y154.444
G03 X53.69 Y154.431 I0.201 J-1.486
G01 X53.522 Y154.399
G03 X53.44 Y154.38 I0.283 J-1.473
G01 X53.269 Y154.338
G03 X53.192 Y154.316 I0.365 J-1.454
G01 X53.024 Y154.264
G03 X52.946 Y154.238 I0.442 J-1.433
G01 X52.781 Y154.177
G03 X52.704 Y154.146 I0.52 J-1.406
G01 X52.542 Y154.076
G03 X52.466 Y154.04 I0.597 J-1.375
G01 X52.309 Y153.961
G03 X52.235 Y153.921 I0.674 J-1.339
G01 X52.082 Y153.833
G03 X52.012 Y153.79 I0.748 J-1.3
G01 X51.865 Y153.694
G03 X51.799 Y153.649 I0.817 J-1.257
G01 X51.657 Y153.545
G03 X51.591 Y153.494 I0.884 J-1.211
G01 X51.458 Y153.386
G03 X51.395 Y153.331 I0.949 J-1.161
G01 X51.268 Y153.215
G03 X51.21 Y153.159 I1.013 J-1.105
G01 X51.09 Y153.036
G03 X51.035 Y152.977 I1.071 J-1.05
G01 X50.922 Y152.848
G03 X50.895 Y152.817 I1.125 J-0.991
G01 X2.583 Y94.843
G03 X2.56 Y94.815 I1.152 J-0.96
G01 X2.475 Y94.707
G03 X2.436 Y94.656 I1.175 J-0.931
G01 X2.355 Y94.544
G03 X2.319 Y94.493 I1.214 J-0.88
G01 X2.243 Y94.378
G03 X2.209 Y94.323 I1.249 J-0.829
G01 X2.137 Y94.205
G03 X2.105 Y94.149 I1.284 J-0.775
G01 X2.039 Y94.028
G03 X2.009 Y93.971 I1.316 J-0.719
G01 X1.948 Y93.848
G03 X1.921 Y93.788 I1.345 J-0.662
G01 X1.865 Y93.662
G03 X1.84 Y93.601 I1.373 J-0.603
G01 X1.791 Y93.473
G03 X1.767 Y93.409 I1.398 J-0.542
G01 X1.724 Y93.279
G03 X1.704 Y93.217 I1.421 J-0.478
G01 X1.666 Y93.084
G03 X1.649 Y93.021 I1.441 J-0.416
G01 X1.617 Y92.887
G03 X1.603 Y92.824 I1.457 J-0.353
G01 X1.576 Y92.689
G03 X1.565 Y92.625 I1.471 J-0.289
G01 X1.544 Y92.489
G03 X1.536 Y92.425 I1.482 J-0.226
G01 X1.521 Y92.288
G03 X1.515 Y92.225 I1.491 J-0.163
G01 X1.506 Y92.087
G03 X1.503 Y92.023 I1.496 J-0.1
G01 X1.5 Y91.886
G03 X1.5 Y91.85 I1.499 J-0.036
G01 X1.5 Y6.175
G03 X1.5 Y6.14 I1.5 J0
G01 X1.503 Y5.995
G03 X1.506 Y5.929 I1.499 J0.034
G01 X1.516 Y5.784
G03 X1.522 Y5.714 I1.496 J0.1
G01 X1.539 Y5.57
G03 X1.549 Y5.497 I1.49 J0.17
G01 X1.572 Y5.354
G03 X1.585 Y5.284 I1.48 J0.242
G01 X1.618 Y5.134
G03 X1.633 Y5.069 I1.467 J0.312
G01 X1.671 Y4.92
G03 X1.691 Y4.851 I1.451 J0.376
G01 X1.737 Y4.704
G03 X1.762 Y4.63 I1.432 J0.446
G01 X1.815 Y4.486
G03 X1.843 Y4.415 I1.407 J0.519
G01 X1.907 Y4.268
G03 X1.936 Y4.204 I1.378 J0.59
G01 X2.006 Y4.06
G03 X2.041 Y3.992 I1.349 J0.654
G01 X2.118 Y3.851
G03 X2.157 Y3.784 I1.314 J0.721
G01 X2.241 Y3.648
G03 X2.285 Y3.582 I1.275 J0.789
G01 X2.378 Y3.448
G03 X2.422 Y3.388 I1.232 J0.854
G01 X2.522 Y3.258
G03 X2.57 Y3.198 I1.188 J0.915
G01 X2.677 Y3.073
G03 X2.728 Y3.016 I1.139 J0.975
G01 X2.841 Y2.898
G03 X2.898 Y2.841 I1.088 J1.031
G01 X3.016 Y2.728
G03 X3.073 Y2.677 I1.031 J1.088
G01 X3.198 Y2.57
G03 X3.258 Y2.522 I0.975 J1.139
G01 X3.388 Y2.422
G03 X3.448 Y2.378 I0.915 J1.188
G01 X3.582 Y2.285
G03 X3.648 Y2.241 I0.854 J1.232
G01 X3.784 Y2.157
G03 X3.852 Y2.118 I0.789 J1.275
G01 X3.993 Y2.04
G03 X4.059 Y2.006 I0.721 J1.315
G01 X4.203 Y1.936
G03 X4.269 Y1.906 I0.655 J1.349
G01 X4.416 Y1.843
G03 X4.486 Y1.815 I0.589 J1.379
G01 X4.63 Y1.762
G03 X4.704 Y1.737 I0.519 J1.407
G01 X4.851 Y1.691
G03 X4.919 Y1.672 I0.446 J1.432
G01 X5.068 Y1.633
G03 X5.134 Y1.617 I0.377 J1.451
G01 X5.285 Y1.585
G03 X5.353 Y1.572 I0.311 J1.467
G01 X5.496 Y1.549
G03 X5.57 Y1.539 I0.243 J1.48
G01 X5.714 Y1.522
G03 X5.784 Y1.516 I0.17 J1.49
G01 X5.929 Y1.506
G03 X5.996 Y1.503 I0.1 J1.496
G01 X6.141 Y1.5
G03 X6.175 Y1.5 I0.033 J1.499
G01 X83 Y1.5
Z-2.5
X159.825 Y1.5
G03 X159.858 Y1.5 I0 J1.5
G01 X160.003 Y1.503
G03 X160.071 Y1.506 I-0.033 J1.499
G01 X160.216 Y1.516
G03 X160.285 Y1.522 I-0.101 J1.496
G01 X160.429 Y1.539
G03 X160.502 Y1.549 I-0.17 J1.49
G01 X160.645 Y1.572
G03 X160.715 Y1.585 I-0.242 J1.48
G01 X160.865 Y1.618
G03 X160.93 Y1.633 I-0.312 J1.467
G01 X161.079 Y1.671
G03 X161.148 Y1.691 I-0.376 J1.451
G01 X161.295 Y1.737
G03 X161.369 Y1.762 I-0.446 J1.432
G01 X161.513 Y1.815
G03 X161.584 Y1.843 I-0.519 J1.407
G01 X161.731 Y1.907
G03 X161.796 Y1.936 I-0.59 J1.378
G01 X161.94 Y2.006
G03 X162.006 Y2.04 I-0.655 J1.349
G01 X162.146 Y2.117
G03 X162.215 Y2.157 I-0.72 J1.315
G01 X162.352 Y2.242
G03 X162.416 Y2.284 I-0.789 J1.275
G01 X162.551 Y2.377
G03 X162.611 Y2.422 I-0.854 J1.232
G01 X162.741 Y2.522
G03 X162.801 Y2.57 I-0.915 J1.188
G01 X162.926 Y2.677
G03 X162.983 Y2.728 I-0.975 J1.139
G01 X163.101 Y2.841
G03 X163.158 Y2.898 I-1.031 J1.088
G01 X163.271 Y3.016
G03 X163.322 Y3.074 I-1.088 J1.031
G01 X163.429 Y3.198
G03 X163.477 Y3.257 I-1.14 J0.974
G01 X163.577 Y3.387
G03 X163.621 Y3.448 I-1.188 J0.915
G01 X163.714 Y3.582
G03 X163.758 Y3.648 I-1.232 J0.854
G01 X163.842 Y3.784
G03 X163.881 Y3.852 I-1.275 J0.789
G01 X163.959 Y3.993
G03 X163.993 Y4.059 I-1.315 J0.721
G01 X164.063 Y4.204
G03 X164.092 Y4.268 I-1.349 J0.654
G01 X164.156 Y4.415
G03 X164.184 Y4.486 I-1.378 J0.59
G01 X164.237 Y4.63
G03 X164.262 Y4.704 I-1.407 J0.519
G01 X164.308 Y4.851
G03 X164.327 Y4.919 I-1.432 J0.445
G01 X164.366 Y5.069
G03 X164.382 Y5.134 I-1.451 J0.377
G01 X164.414 Y5.285
G03 X164.427 Y5.353 I-1.467 J0.311
G01 X164.45 Y5.496
G03 X164.461 Y5.571 I-1.48 J0.243
G01 X164.477 Y5.715
G03 X164.483 Y5.783 I-1.49 J0.169
G01 X164.493 Y5.928
G03 X164.496 Y5.996 I-1.496 J0.101
G01 X164.499 Y6.141
G03 X164.5 Y6.175 I-1.499 J0.033
G01 X164.5 Y91.85
G03 X164.499 Y91.886 I-1.5 J0
G01 X164.496 Y92.023
G03 X164.493 Y92.088 I-1.499 J-0.036
G01 X164.484 Y92.225
G03 X164.478 Y92.288 I-1.496 J-0.1
G01 X164.463 Y92.425
G03 X164.455 Y92.489 I-1.491 J-0.163
G01 X164.434 Y92.625
G03 X164.423 Y92.688 I-1.482 J-0.226
G01 X164.396 Y92.824
G03 X164.382 Y92.888 I-1.471 J-0.289
G01 X164.35 Y93.022
G03 X164.333 Y93.084 I-1.457 J-0.353
G01 X164.295 Y93.217
G03 X164.275 Y93.279 I-1.441 J-0.415
G01 X164.232 Y93.409
G03 X164.208 Y93.474 I-1.421 J-0.478
G01 X164.158 Y93.602
G03 X164.134 Y93.662 I-1.398 J-0.542
G01 X164.078 Y93.788
G03 X164.051 Y93.848 I-1.373 J-0.603
G01 X163.99 Y93.971
G03 X163.96 Y94.028 I-1.345 J-0.662
G01 X163.894 Y94.149
G03 X163.862 Y94.205 I-1.316 J-0.719
G01 X163.79 Y94.323
G03 X163.756 Y94.378 I-1.284 J-0.775
G01 X163.68 Y94.493
G03 X163.644 Y94.544 I-1.249 J-0.829
G01 X163.563 Y94.656
G03 X163.524 Y94.707 I-1.214 J-0.88
G01 X163.439 Y94.815
G03 X163.416 Y94.843 I-1.175 J-0.931
G01 X115.104 Y152.817
G03 X115.077 Y152.848 I-1.152 J-0.96
G01 X114.964 Y152.977
G03 X114.909 Y153.036 I-1.125 J-0.991
G01 X114.789 Y153.159
G03 X114.731 Y153.215 I-1.071 J-1.05
G01 X114.604 Y153.331
G03 X114.541 Y153.386 I-1.013 J-1.105
G01 X114.408 Y153.494
G03 X114.342 Y153.545 I-0.949 J-1.161
G01 X114.2 Y153.649
G03 X114.134 Y153.694 I-0.884 J-1.211
G01 X113.987 Y153.79
G03 X113.917 Y153.833 I-0.817 J-1.257
G01 X113.764 Y153.921
G03 X113.69 Y153.961 I-0.748 J-1.3
G01 X113.533 Y154.04
G03 X113.456 Y154.076 I-0.674 J-1.339
G01 X113.295 Y154.146
G03 X113.218 Y154.176 I-0.597 J-1.376
G01 X113.053 Y154.238
G03 X112.975 Y154.264 I-0.52 J-1.406
G01 X112.807 Y154.316
G03 X112.73 Y154.338 I-0.442 J-1.433
G01 X112.559 Y154.38
G03 X112.478 Y154.398 I-0.365 J-1.454
G01 X112.31 Y154.431
G03 X112.226 Y154.445 I-0.284 J-1.472
G01 X112.056 Y154.468
G03 X111.976 Y154.476 I-0.2 J-1.486
G01 X111.804 Y154.49
G03 X111.725 Y154.494 I-0.12 J-1.495
G01 X111.553 Y154.499
G03 X111.512 Y154.5 I-0.041 J-1.499
G01 X54.487 Y154.5
G03 X54.446 Y154.499 I0 J-1.5
G01 X54.274 Y154.494
G03 X54.195 Y154.49 I0.041 J-1.499
G01 X54.023 Y154.476
G03 X53.942 Y154.467 I0.12 J-1.495
G01 X53.772 Y154.444
G03 X53.69 Y154.431 I0.201 J-1.486
G01 X53.522 Y154.399
G03 X53.44 Y154.38 I0.283 J-1.473
G01 X53.269 Y154.338
G03 X53.192 Y154.316 I0.365 J-1.454
G01 X53.024 Y154.264
G03 X52.946 Y154.238 I0.442 J-1.433
G01 X52.781 Y154.177
G03 X52.704 Y154.146 I0.52 J-1.406
G01 X52.542 Y154.076
G03 X52.466 Y154.04 I0.597 J-1.375
G01 X52.309 Y153.961
G03 X52.235 Y153.921 I0.674 J-1.339
G01 X52.082 Y153.833
G03 X52.012 Y153.79 I0.748 J-1.3
G01 X51.865 Y153.694
G03 X51.799 Y153.649 I0.817 J-1.257
G01 X51.657 Y153.545
G03 X51.591 Y153.494 I0.884 J-1.211
G01 X51.458 Y153.386
G03 X51.395 Y153.331 I0.949 J-1.161
G01 X51.268 Y153.215
G03 X51.21 Y153.159 I1.013 J-1.105
G01 X51.09 Y153.036
G03 X51.035 Y152.977 I1.071 J-1.05
G01 X50.922 Y152.848
G03 X50.895 Y152.817 I1.125 J-0.991
G01 X2.583 Y94.843
G03 X2.56 Y94.815 I1.152 J-0.96
G01 X2.475 Y94.707
G03 X2.436 Y94.656 I1.175 J-0.931
G01 X2.355 Y94.544
G03 X2.319 Y94.493 I1.214 J-0.88
G01 X2.243 Y94.378
G03 X2.209 Y94.323 I1.249 J-0.829
G01 X2.137 Y94.205
G03 X2.105 Y94.149 I1.284 J-0.775
G01 X2.039 Y94.028
G03 X2.009 Y93.971 I1.316 J-0.719
G01 X1.948 Y93.848
G03 X1.921 Y93.788 I1.345 J-0.662
G01 X1.865 Y93.662
G03 X1.84 Y93.601 I1.373 J-0.603
G01 X1.791 Y93.473
G03 X1.767 Y93.409 I1.398 J-0.542
G01 X1.724 Y93.279
G03 X1.704 Y93.217 I1.421 J-0.478
G01 X1.666 Y93.084
G03 X1.649 Y93.021 I1.441 J-0.416
G01 X1.617 Y92.887
G03 X1.603 Y92.824 I1.457 J-0.353
G01 X1.576 Y92.689
G03 X1.565 Y92.625 I1.471 J-0.289
G01 X1.544 Y92.489
G03 X1.536 Y92.425 I1.482 J-0.226
G01 X1.521 Y92.288
G03 X1.515 Y92.225 I1.491 J-0.163
G01 X1.506 Y92.087
G03 X1.503 Y92.023 I1.496 J-0.1
G01 X1.5 Y91.886
G03 X1.5 Y91.85 I1.499 J-0.036
G01 X1.5 Y6.175
G03 X1.5 Y6.14 I1.5 J0
G01 X1.503 Y5.995
G03 X1.506 Y5.929 I1.499 J0.034
G01 X1.516 Y5.784
G03 X1.522 Y5.714 I1.496 J0.1
G01 X1.539 Y5.57
G03 X1.549 Y5.497 I1.49 J0.17
G01 X1.572 Y5.354
G03 X1.585 Y5.284 I1.48 J0.242
G01 X1.618 Y5.134
G03 X1.633 Y5.069 I1.467 J0.312
G01 X1.671 Y4.92
G03 X1.691 Y4.851 I1.451 J0.376
G01 X1.737 Y4.704
G03 X1.762 Y4.63 I1.432 J0.446
G01 X1.815 Y4.486
G03 X1.843 Y4.415 I1.407 J0.519
G01 X1.907 Y4.268
G03 X1.936 Y4.204 I1.378 J0.59
G01 X2.006 Y4.06
G03 X2.041 Y3.992 I1.349 J0.654
G01 X2.118 Y3.851
G03 X2.157 Y3.784 I1.314 J0.721
G01 X2.241 Y3.648
G03 X2.285 Y3.582 I1.275 J0.789
G01 X2.378 Y3.448
G03 X2.422 Y3.388 I1.232 J0.854
G01 X2.522 Y3.258
G03 X2.57 Y3.198 I1.188 J0.915
G01 X2.677 Y3.073
G03 X2.728 Y3.016 I1.139 J0.975
G01 X2.841 Y2.898
G03 X2.898 Y2.841 I1.088 J1.031
G01 X3.016 Y2.728
G03 X3.073 Y2.677 I1.031 J1.088
G01 X3.198 Y2.57
G03 X3.258 Y2.522 I0.975 J1.139
G01 X3.388 Y2.422
G03 X3.448 Y2.378 I0.915 J1.188
G01 X3.582 Y2.285
G03 X3.648 Y2.241 I0.854 J1.232
G01 X3.784 Y2.157
G03 X3.852 Y2.118 I0.789 J1.275
G01 X3.993 Y2.04
G03 X4.059 Y2.006 I0.721 J1.315
G01 X4.203 Y1.936
G03 X4.269 Y1.906 I0.655 J1.349
G01 X4.416 Y1.843
G03 X4.486 Y1.815 I0.589 J1.379
G01 X4.63 Y1.762
G03 X4.704 Y1.737 I0.519 J1.407
G01 X4.851 Y1.691
G03 X4.919 Y1.672 I0.446 J1.432
G01 X5.068 Y1.633
G03 X5.134 Y1.617 I0.377 J1.451
G01 X5.285 Y1.585
G03 X5.353 Y1.572 I0.311 J1.467
G01 X5.496 Y1.549
G03 X5.57 Y1.539 I0.243 J1.48
G01 X5.714 Y1.522
G03 X5.784 Y1.516 I0.17 J1.49
G01 X5.929 Y1.506
G03 X5.996 Y1.503 I0.1 J1.496
G01 X6.141 Y1.5
G03 X6.175 Y1.5 I0.033 J1.499
G01 X83 Y1.5
Z-3
X159.825 Y1.5
G03 X159.858 Y1.5 I0 J1.5
G01 X160.003 Y1.503
G03 X160.071 Y1.506 I-0.033 J1.499
G01 X160.216 Y1.516
G03 X160.285 Y1.522 I-0.101 J1.496
G01 X160.429 Y1.539
G03 X160.502 Y1.549 I-0.17 J1.49
G01 X160.645 Y1.572
G03 X160.715 Y1.585 I-0.242 J1.48
G01 X160.865 Y1.618
G03 X160.93 Y1.633 I-0.312 J1.467
G01 X161.079 Y1.671
G03 X161.148 Y1.691 I-0.376 J1.451
G01 X161.295 Y1.737
G03 X161.369 Y1.762 I-0.446 J1.432
G01 X161.513 Y1.815
G03 X161.584 Y1.843 I-0.519 J1.407
G01 X161.731 Y1.907
G03 X161.796 Y1.936 I-0.59 J1.378
G01 X161.94 Y2.006
G03 X162.006 Y2.04 I-0.655 J1.349
G01 X162.146 Y2.117
G03 X162.215 Y2.157 I-0.72 J1.315
G01 X162.352 Y2.242
G03 X162.416 Y2.284 I-0.789 J1.275
G01 X162.551 Y2.377
G03 X162.611 Y2.422 I-0.854 J1.232
G01 X162.741 Y2.522
G03 X162.801 Y2.57 I-0.915 J1.188
G01 X162.926 Y2.677
G03 X162.983 Y2.728 I-0.975 J1.139
G01 X163.101 Y2.841
G03 X163.158 Y2.898 I-1.031 J1.088
G01 X163.271 Y3.016
G03 X163.322 Y3.074 I-1.088 J1.031
G01 X163.429 Y3.198
G03 X163.477 Y3.257 I-1.14 J0.974
G01 X163.577 Y3.387
G03 X163.621 Y3.448 I-1.188 J0.915
G01 X163.714 Y3.582
G03 X163.758 Y3.648 I-1.232 J0.854
G01 X163.842 Y3.784
G03 X163.881 Y3.852 I-1.275 J0.789
G01 X163.959 Y3.993
G03 X163.993 Y4.059 I-1.315 J0.721
G01 X164.063 Y4.204
G03 X164.092 Y4.268 I-1.349 J0.654
G01 X164.156 Y4.415
G03 X164.184 Y4.486 I-1.378 J0.59
G01 X164.237 Y4.63
G03 X164.262 Y4.704 I-1.407 J0.519
G01 X164.308 Y4.851
G03 X164.327 Y4.919 I-1.432 J0.445
G01 X164.366 Y5.069
G03 X164.382 Y5.134 I-1.451 J0.377
G01 X164.414 Y5.285
G03 X164.427 Y5.353 I-1.467 J0.311
G01 X164.45 Y5.496
G03 X164.461 Y5.571 I-1.48 J0.243
G01 X164.477 Y5.715
G03 X164.483 Y5.783 I-1.49 J0.169
G01 X164.493 Y5.928
G03 X164.496 Y5.996 I-1.496 J0.101
G01 X164.499 Y6.141
G03 X164.5 Y6.175 I-1.499 J0.033
G01 X164.5 Y91.85
G03 X164.499 Y91.886 I-1.5 J0
G01 X164.496 Y92.023
G03 X164.493 Y92.088 I-1.499 J-0.036
G01 X164.484 Y92.225
G03 X164.478 Y92.288 I-1.496 J-0.1
G01 X164.463 Y92.425
G03 X164.455 Y92.489 I-1.491 J-0.163
G01 X164.434 Y92.625
G03 X164.423 Y92.688 I-1.482 J-0.226
G01 X164.396 Y92.824
G03 X164.382 Y92.888 I-1.471 J-0.289
G01 X164.35 Y93.022
G03 X164.333 Y93.084 I-1.457 J-0.353
G01 X164.295 Y93.217
G03 X164.275 Y93.279 I-1.441 J-0.415
G01 X164.232 Y93.409
G03 X164.208 Y93.474 I-1.421 J-0.478
G01 X164.158 Y93.602
G03 X164.134 Y93.662 I-1.398 J-0.542
G01 X164.078 Y93.788
G03 X164.051 Y93.848 I-1.373 J-0.603
G01 X163.99 Y93.971
G03 X163.96 Y94.028 I-1.345 J-0.662
G01 X163.894 Y94.149
G03 X163.862 Y94.205 I-1.316 J-0.719
G01 X163.79 Y94.323
G03 X163.756 Y94.378 I-1.284 J-0.775
G01 X163.68 Y94.493
G03 X163.644 Y94.544 I-1.249 J-0.829
G01 X163.563 Y94.656
G03 X163.524 Y94.707 I-1.214 J-0.88
G01 X163.439 Y94.815
