(Created with emc2b post processor 2016/11/02 21:40)
(tool change to 3 mm Slot Cutter)
T1 M06 G43
G17 G90 G21
G00 Z1 S7000 M03
X-19.885 Y65.946
G01 Z-3.6 F200
G03 X-19.448 Y65.925 I0.533 J6.552
G01 X20.122 Y65.914
G02 X20.845 Y64.632 I-0.027 J-0.86
X20.248 Y64.119 I-0.757 J0.277
X19.357 Y64.075 I-0.55 J2.114
G01 X-19.963 Y64.075
G02 X-20.874 Y65.291 I-0.115 J0.862
X-20.3 Y65.868 I0.794 J-0.216
X-19.885 Y65.946 I0.46 J-1.306
G00 Z1
X29.98 Y55.923 S7000 M03
G01 Z-3.6
G02 X30.107 Y54.084 I0.022 J-0.922
X29.858 Y55.914 I-0.112 J0.916
G01 X29.98 Y55.923
G00 Z1
X-19.812 Y45.949 S7000 M03
G01 Z-3.6
G03 X-19.356 Y45.925 I0.618 J7.4
G01 X20.122 Y45.914
G02 X20.845 Y44.632 I-0.027 J-0.86
X20.248 Y44.119 I-0.757 J0.277
X19.356 Y44.074 I-0.555 J2.141
G01 X-20.042 Y44.076
G02 X-20.859 Y45.335 I-0.044 J0.865
X-20.257 Y45.877 I0.773 J-0.253
X-19.812 Y45.949 I0.455 J-1.401
G00 Z1
X-30.018 Y55.923 S7000 M03
G01 Z-3.6
G02 X-29.891 Y54.084 I0.022 J-0.922
X-30.14 Y55.914 I-0.112 J0.916
G01 X-30.018 Y55.923
G00 Z1
X-23.609 Y36.838 S7000 M03
G01 Z-3.6
G02 X-22.601 Y35.856 I0.025 J-0.981
X-22.65 Y30.806 I-968.19 J6.869
X-24.143 Y30.136 I-0.925 J0.063
X-24.497 Y31.044 I0.656 J0.778
G03 X-24.494 Y31.985 I-11.693 J0.507
G01 X-24.494 Y33.752
G03 X-24.502 Y35.54 I-199.03 J0.003
X-24.53 Y35.956 I-5.279 J-0.146
G02 X-23.609 Y36.838 I0.948 J-0.068
G00 Z1
(Sketch 9)
X-15.617 Y20.326 S7000 M03
G01 Z-3.6
G03 X-15.619 Y22.861 I-2066.133 J-0.27
G02 X-15.613 Y27.837 I982.297 J1.333
X-15.574 Y27.884 I0.171 J-0.102
X-15.516 Y27.92 I0.133 J-0.151
G03 X-15.454 Y27.917 I0.096 J1.496
G02 X-15.392 Y27.89 I-0.002 J-0.087
X-15.368 Y27.828 I-0.062 J-0.059
G03 X-15.368 Y27.795 I1.499 J-0.034
X-15.368 Y22.726 I2104.202 J-2.243
G02 X-15.374 Y17.741 I-985.132 J-1.322
X-15.404 Y17.692 I-0.094 J0.023
X-15.476 Y17.667 I-0.066 J0.075
G03 X-15.533 Y17.67 I-0.091 J-1.497
G02 X-15.595 Y17.697 I0.002 J0.087
X-15.619 Y17.759 I0.062 J0.06
G03 X-15.619 Y17.792 I-1.499 J0.034
X-15.617 Y20.326 I-2066.132 J2.263
G00 Z1
G90
(Sketch 11)
X7.992 Y9.035 S7000 M03
G01 Z-3.6
G02 X9.992 Y9.037 I0.999 J0
G03 X10.004 Y6.495 Z-3.6 I317.074 J0.286
G02 X9.963 Y1.515 Z-3.6 I-145.053 J-1.294
X9.358 Y-1.236 Z-3.6 I-9.179 J0.577
X7.943 Y-3.758 Z-3.6 I-9.604 J3.728
X5.884 Y-5.789 Z-3.6 I-8.216 J6.271
X3.365 Y-7.114 Z-3.6 I-5.531 J7.457
G03 X3.349 Y-7.12 Z-3.6 I0.486 J-1.418
G02 X1.472 Y-7.589 Z-3.6 I-3.36 J9.449
X-0.458 Y-7.689 Z-3.6 I-1.483 J9.915
G03 X-0.472 Y-7.689 Z-3.6 I-0.066 J-1.498
G02 X-3.217 Y-7.172 Z-3.6 I0.333 J9.312
X-5.741 Y-5.875 Z-3.6 I3.414 J9.753
X-7.816 Y-3.942 Z-3.6 I5.927 J8.441
X-9.231 Y-1.536 Z-3.6 I7.189 J5.846
G03 X-9.253 Y-1.483 Z-3.6 I-1.392 J-0.557
G02 X-9.677 Y-0.236 Z-3.6 I6.6 J2.937
X-9.918 Y1.145 Z-3.6 I10.778 J2.594
X-10.008 Y2.594 Z-3.6 I15.133 J1.664
X-10.01 Y3.509 Z-3.6 I39.695 J0.564
X-10 Y4.131 Z-2.977 I39.697 J-0.351
G03 X-10 Y4.153 Z-2.955 I-1.499 J0.036
X-9.991 Y5.509 Z-1.6 I-210.727 J2.04
X-10.005 Y8.759 Z-1.6 I-210.735 J0.684
G02 X-9.976 Y12.509 Z-1.6 I93.792 J1.141
X-9.953 Y13.227 Z-2.318 I93.763 J-2.608
X-9.764 Y14.493 Z-3.6 I9.218 J-0.729
X-9.319 Y15.935 Z-3.6 I9.029 J-1.996
X-7.9 Y18.414 Z-3.6 I9.571 J-3.833
X-5.855 Y20.409 Z-3.6 I8.166 J-6.322
X-3.365 Y21.714 Z-3.6 I5.507 J-7.483
G03 X-3.332 Y21.726 Z-3.6 I-0.486 J1.418
G02 X-0.578 Y22.287 Z-3.6 I3.204 J-8.677
X2.266 Y22.03 Z-3.6 I0.502 J-10.299
X4.932 Y21.002 Z-3.6 I-2.346 J-10.054
X7.156 Y19.28 Z-3.6 I-4.507 J-8.117
G03 X7.177 Y19.258 Z-3.6 I1.087 J1.033
G02 X9.378 Y15.78 Z-3.6 I-6.826 J-6.755
X10.001 Y11.642 Z-3.6 I-9.956 J-3.615
G03 X10 Y11.579 Z-3.6 I1.498 J-0.073
X9.992 Y9.037 Z-3.6 I317.066 J-2.255
G02 X7.992 Y9.035 I-0.999 J-0
G00 Z1
G90
(Sketch 10)
X15.617 Y25.261 S7000 M03
G01 Z-3.6
G03 X15.619 Y22.726 I2066.133 J0.27
G02 X15.613 Y17.741 I-982.297 J-1.333
X15.583 Y17.692 I-0.094 J0.023
X15.511 Y17.667 I-0.066 J0.075
G03 X15.453 Y17.67 I-0.091 J-1.497
G02 X15.392 Y17.697 I0.002 J0.087
X15.368 Y17.759 I0.062 J0.059
G03 X15.368 Y17.792 I-1.499 J0.034
X15.368 Y22.861 I-2104.202 J2.243
G02 X15.374 Y27.837 I985.132 J1.322
X15.413 Y27.884 I0.171 J-0.102
X15.471 Y27.92 I0.133 J-0.151
G03 X15.534 Y27.917 I0.096 J1.496
G02 X15.595 Y27.89 I-0.001 J-0.087
X15.619 Y27.828 I-0.062 J-0.06
G03 X15.619 Y27.795 I1.499 J-0.034
X15.617 Y25.261 I2066.132 J-2.263
G00 Z1
G90
X23.529 Y36.838 S7000 M03
G01 Z-3.6
G02 X24.537 Y35.856 I0.025 J-0.981
X24.488 Y30.806 I-968.19 J6.869
X22.995 Y30.136 I-0.925 J0.063
X22.641 Y31.044 I0.656 J0.778
G03 X22.644 Y31.986 I-11.725 J0.508
G01 X22.644 Y33.751
G03 X22.636 Y35.54 I-199.142 J0.004
X22.608 Y35.956 I-5.279 J-0.146
G02 X23.529 Y36.838 I0.948 J-0.068
G00 Z1
X69.98 Y3.223 S7000 M03
G01 Z-3.6
G02 X70.107 Y1.385 I0.022 J-0.921
X69.858 Y3.214 I-0.113 J0.916
G01 X69.98 Y3.223
G00 Z1
X50.047 Y0.124 S7000 M03
G01 Z-3.6
G02 X49.998 Y-1.723 I-0.046 J-0.922
X49.926 Y0.12 I0.001 J0.922
G01 X50.047 Y0.124
G00 Z1
X29.98 Y1.723 S7000 M03
G01 Z-3.6
G02 X30.107 Y-0.114 I0.022 J-0.921
X29.858 Y1.714 I-0.113 J0.915
G01 X29.98 Y1.723
G00 Z1
X-30.018 Y1.723 S7000 M03
G01 Z-3.6
G02 X-29.891 Y-0.114 I0.022 J-0.921
X-30.14 Y1.714 I-0.113 J0.915
G01 X-30.018 Y1.723
G00 Z1
X-49.949 Y0.125 S7000 M03
G01 Z-3.6
G02 X-50.032 Y-1.726 I-0.053 J-0.924
X-50.068 Y0.124 I0.035 J0.926
G01 X-49.949 Y0.125
G00 Z1
X-70.018 Y3.223 S7000 M03
G01 Z-3.6
G02 X-69.891 Y1.385 I0.022 J-0.921
X-70.14 Y3.214 I-0.113 J0.916
G01 X-70.018 Y3.223
G00 Z1
(Sketch 21)
X-75.061 Y-29.416 S7000 M03
G01 Z-3.6
G03 X-75.063 Y-26.395 I-2525.866 J-0.324
G02 X-75.056 Y-20.474 I1200.354 J1.59
X-75.036 Y-20.454 I0.108 J-0.089
X-75.007 Y-20.436 I0.087 J-0.107
G03 X-74.957 Y-20.441 I0.181 J1.488
G02 X-74.943 Y-20.448 I-0.001 J-0.019
X-74.933 Y-20.482 I-0.035 J-0.029
G03 X-74.937 Y-20.593 I1.495 J-0.112
X-74.936 Y-26.62 I2512.686 J-2.69
G02 X-74.943 Y-32.544 I-1194.079 J-1.585
X-74.952 Y-32.555 I-0.032 J0.016
X-74.977 Y-32.563 I-0.023 J0.026
G03 X-75.016 Y-32.561 I-0.093 J-1.497
G02 X-75.042 Y-32.539 I0.074 J0.114
X-75.064 Y-32.509 I0.104 J0.096
G03 X-75.062 Y-32.438 I-1.498 J0.072
X-75.061 Y-29.416 I-2525.865 J2.697
G00 Z1
G90
X-70.033 Y-61.431 S7000 M03
G01 Z-3.6
G02 X-69.934 Y-63.16 I0.038 J-0.865
X-70.115 Y-61.437 I-0.066 J0.864
G01 X-70.033 Y-61.431
X-70.026 Y-60.429
G02 X-69.858 Y-64.163 I0.031 J-1.869
X-70.273 Y-60.446 I-0.144 J1.865
G01 X-70.026 Y-60.429
G00 Z1
X-50.018 Y-61.375 S7000 M03
G01 Z-3.6
G02 X-49.891 Y-63.214 I0.022 J-0.922
X-50.14 Y-61.384 I-0.111 J0.916
G01 X-50.018 Y-61.375
G00 Z1
X-24.703 Y-64.044 S7000 M03
G01 Z-3.6
G03 X-24.217 Y-64.074 I0.641 J6.445
G01 X25.122 Y-64.084
G02 X25.817 Y-65.426 I-0.022 J-0.862
X25.4 Y-65.82 I-0.64 J0.26
X24.107 Y-65.925 I-0.876 J2.778
G01 X-24.961 Y-65.925
G02 X-25.935 Y-65.264 I-0.117 J0.874
X-25.541 Y-64.246 I1.069 J0.171
X-24.703 Y-64.044 I0.823 J-1.575
G00 Z1
X49.98 Y-61.375 S7000 M03
G01 Z-3.6
G02 X50.107 Y-63.214 I0.022 J-0.922
X49.858 Y-61.384 I-0.112 J0.916
G01 X49.98 Y-61.375
G00 Z1
X69.958 Y-61.433 S7000 M03
G01 Z-3.6
G02 X70.063 Y-63.16 I0.044 J-0.864
X69.875 Y-61.439 I-0.068 J0.863
G01 X69.958 Y-61.433
X69.959 Y-60.43
G02 X70.14 Y-64.163 I0.044 J-1.868
X69.712 Y-60.449 I-0.145 J1.864
G01 X69.959 Y-60.43
G00 Z1
(Sketch 17)
X15.617 Y-5.726 S7000 M03
G01 Z-3.6
G03 X15.619 Y-8.261 I2066.142 J0.27
G02 X15.613 Y-13.246 I-982.301 J-1.333
X15.583 Y-13.295 I-0.094 J0.023
X15.511 Y-13.32 I-0.066 J0.075
G03 X15.453 Y-13.317 I-0.091 J-1.497
G02 X15.392 Y-13.29 I0.002 J0.087
X15.368 Y-13.228 I0.062 J0.059
G03 X15.368 Y-13.195 I-1.499 J0.034
X15.368 Y-8.126 I-2104.198 J2.243
G02 X15.374 Y-3.15 I985.13 J1.322
X15.413 Y-3.103 I0.172 J-0.102
X15.471 Y-3.067 I0.133 J-0.151
G03 X15.534 Y-3.07 I0.096 J1.496
G02 X15.595 Y-3.097 I-0.002 J-0.087
X15.619 Y-3.159 I-0.062 J-0.06
G03 X15.619 Y-3.192 I1.499 J-0.034
X15.617 Y-5.726 I2066.14 J-2.263
G00 Z1
G90
X-23.609 Y-10.3 S7000 M03
G01 Z-3.6
G02 X-22.601 Y-11.282 I0.025 J-0.981
X-22.65 Y-16.332 I-968.19 J6.869
X-24.177 Y-16.973 I-0.924 J0.062
X-24.491 Y-16.313 I0.628 J0.703
G03 X-24.507 Y-11.472 I-420.001 J1.032
G02 X-24.412 Y-10.771 I0.914 J0.233
X-23.609 Y-10.3 I0.868 J-0.56
G00 Z1
X23.529 Y-10.3 S7000 M03
G01 Z-3.6
G02 X24.537 Y-11.282 I0.025 J-0.981
X24.488 Y-16.332 I-968.19 J6.869
X22.961 Y-16.973 I-0.924 J0.062
X22.647 Y-16.313 I0.628 J0.703
G03 X22.631 Y-11.472 I-420.001 J1.032
G02 X22.726 Y-10.771 I0.914 J0.233
X23.529 Y-10.3 I0.868 J-0.56
G00 Z1
(Sketch 18)
X-15.37 Y-5.726 S7000 M03
G01 Z-3.6
G03 X-15.368 Y-8.261 I2104.203 J0.29
G02 X-15.374 Y-13.246 I-985.132 J-1.322
X-15.404 Y-13.295 I-0.094 J0.023
X-15.476 Y-13.32 I-0.066 J0.075
G03 X-15.533 Y-13.317 I-0.091 J-1.497
G02 X-15.595 Y-13.29 I0.002 J0.087
X-15.619 Y-13.228 I0.062 J0.06
G03 X-15.619 Y-13.195 I-1.499 J0.034
X-15.619 Y-8.126 I-2066.128 J2.263
G02 X-15.613 Y-3.15 I982.295 J1.333
X-15.574 Y-3.103 I0.172 J-0.102
X-15.516 Y-3.067 I0.133 J-0.151
G03 X-15.453 Y-3.07 I0.096 J1.496
G02 X-15.392 Y-3.097 I-0.002 J-0.087
X-15.368 Y-3.159 I-0.062 J-0.06
G03 X-15.368 Y-3.192 I1.499 J-0.034
X-15.37 Y-5.726 I2104.202 J-2.243
G00 Z1
G90
(Sketch 20)
X74.938 Y-29.418 S7000 M03
G01 Z-3.6
G03 X74.936 Y-26.399 I-2766.314 J-0.338
G02 X74.942 Y-20.474 I1312.321 J1.592
X74.962 Y-20.454 I0.108 J-0.088
X74.992 Y-20.436 I0.088 J-0.108
G03 X75.042 Y-20.441 I0.181 J1.488
G02 X75.056 Y-20.448 I-0.001 J-0.02
X75.066 Y-20.481 I-0.035 J-0.029
G03 X75.062 Y-20.593 I1.495 J-0.112
X75.063 Y-26.62 I2512.686 J-2.69
G02 X75.056 Y-32.544 I-1194.079 J-1.585
X75.047 Y-32.555 I-0.032 J0.016
X75.022 Y-32.563 I-0.023 J0.026
G03 X74.983 Y-32.561 I-0.094 J-1.497
G02 X74.957 Y-32.539 I0.074 J0.114
X74.935 Y-32.509 I0.104 J0.096
G03 X74.937 Y-32.438 I-1.498 J0.072
X74.938 Y-29.418 I-2766.313 J2.681
G00 Z1
G90
(Sketch 2)
X0 Y-78.5 S7000 M03
Z2
G01 Z-1.6
G02 X0 Y-76.5 I0 J1
G01 X3.5 Y-76.5 Z-1.6
X5.499 Y-76.5 Z-3.6
X76.825 Y-76.5 Z-3.6
G03 X76.858 Y-76.499 Z-3.6 I0 J1.5
G01 X77.003 Y-76.496 Z-3.6
G03 X77.071 Y-76.493 Z-3.6 I-0.033 J1.499
G01 X77.216 Y-76.483 Z-3.6
G03 X77.285 Y-76.477 Z-3.6 I-0.101 J1.496
G01 X77.429 Y-76.46 Z-3.6
G03 X77.502 Y-76.45 Z-3.6 I-0.17 J1.49
G01 X77.645 Y-76.427 Z-3.6
G03 X77.715 Y-76.414 Z-3.6 I-0.242 J1.48
G01 X77.865 Y-76.381 Z-3.6
G03 X77.93 Y-76.366 Z-3.6 I-0.312 J1.467
G01 X78.079 Y-76.328 Z-3.6
G03 X78.148 Y-76.308 Z-3.6 I-0.376 J1.451
G01 X78.295 Y-76.262 Z-3.6
G03 X78.369 Y-76.237 Z-3.6 I-0.446 J1.432
G01 X78.513 Y-76.184 Z-3.6
G03 X78.584 Y-76.156 Z-3.6 I-0.519 J1.407
G01 X78.731 Y-76.092 Z-3.6
G03 X78.796 Y-76.063 Z-3.6 I-0.59 J1.378
G01 X78.94 Y-75.993 Z-3.6
G03 X79.006 Y-75.959 Z-3.6 I-0.655 J1.349
G01 X79.146 Y-75.882 Z-3.6
G03 X79.215 Y-75.842 Z-3.6 I-0.72 J1.315
G01 X79.352 Y-75.757 Z-3.6
G03 X79.416 Y-75.715 Z-3.6 I-0.789 J1.275
G01 X79.551 Y-75.622 Z-3.6
G03 X79.611 Y-75.577 Z-3.6 I-0.854 J1.232
G01 X79.741 Y-75.477 Z-3.6
G03 X79.801 Y-75.429 Z-3.6 I-0.915 J1.188
G01 X79.926 Y-75.322 Z-3.6
G03 X79.983 Y-75.271 Z-3.6 I-0.975 J1.139
G01 X80.101 Y-75.158 Z-3.6
G03 X80.158 Y-75.101 Z-3.6 I-1.031 J1.088
G01 X80.271 Y-74.983 Z-3.6
G03 X80.322 Y-74.925 Z-3.6 I-1.088 J1.031
G01 X80.429 Y-74.801 Z-3.6
G03 X80.477 Y-74.742 Z-3.6 I-1.14 J0.974
G01 X80.577 Y-74.612 Z-3.6
G03 X80.621 Y-74.551 Z-3.6 I-1.188 J0.915
G01 X80.714 Y-74.417 Z-3.6
G03 X80.758 Y-74.351 Z-3.6 I-1.232 J0.854
G01 X80.842 Y-74.215 Z-3.6
G03 X80.881 Y-74.147 Z-3.6 I-1.275 J0.789
G01 X80.959 Y-74.006 Z-3.6
G03 X80.993 Y-73.94 Z-3.6 I-1.315 J0.721
G01 X81.063 Y-73.795 Z-3.6
G03 X81.092 Y-73.731 Z-3.6 I-1.349 J0.654
G01 X81.156 Y-73.584 Z-3.6
G03 X81.184 Y-73.513 Z-3.6 I-1.378 J0.59
G01 X81.237 Y-73.369 Z-3.6
G03 X81.262 Y-73.295 Z-3.6 I-1.407 J0.519
G01 X81.308 Y-73.148 Z-3.6
G03 X81.327 Y-73.08 Z-3.6 I-1.432 J0.445
G01 X81.366 Y-72.93 Z-3.6
G03 X81.382 Y-72.865 Z-3.6 I-1.451 J0.377
G01 X81.414 Y-72.714 Z-3.6
G03 X81.427 Y-72.646 Z-3.6 I-1.467 J0.311
G01 X81.45 Y-72.503 Z-3.6
G03 X81.461 Y-72.428 Z-3.6 I-1.48 J0.243
G01 X81.477 Y-72.284 Z-3.6
G03 X81.483 Y-72.216 Z-3.6 I-1.49 J0.169
G01 X81.493 Y-72.071 Z-3.6
G03 X81.496 Y-72.003 Z-3.6 I-1.496 J0.101
G01 X81.499 Y-71.858 Z-3.6
G03 X81.5 Y-71.825 Z-3.6 I-1.499 J0.033
G01 X81.5 Y-29.5 Z-3.6
X81.5 Y-27.5 Z-1.6
X81.5 Y-20.5 Z-1.6
X81.5 Y-18.5 Z-3.6
X81.5 Y13.85 Z-3.6
G03 X81.499 Y13.886 Z-3.6 I-1.5 J0
G01 X81.496 Y14.023 Z-3.6
G03 X81.493 Y14.088 Z-3.6 I-1.499 J-0.036
G01 X81.484 Y14.225 Z-3.6
G03 X81.478 Y14.288 Z-3.6 I-1.496 J-0.1
G01 X81.463 Y14.425 Z-3.6
G03 X81.455 Y14.489 Z-3.6 I-1.491 J-0.163
G01 X81.434 Y14.625 Z-3.6
G03 X81.423 Y14.688 Z-3.6 I-1.482 J-0.226
G01 X81.396 Y14.824 Z-3.6
G03 X81.382 Y14.888 Z-3.6 I-1.471 J-0.289
G01 X81.35 Y15.022 Z-3.6
G03 X81.333 Y15.084 Z-3.6 I-1.457 J-0.353
G01 X81.295 Y15.217 Z-3.6
G03 X81.275 Y15.279 Z-3.6 I-1.441 J-0.415
G01 X81.232 Y15.409 Z-3.6
G03 X81.208 Y15.474 Z-3.6 I-1.421 J-0.478
G01 X81.158 Y15.602 Z-3.6
G03 X81.134 Y15.662 Z-3.6 I-1.398 J-0.542
G01 X81.078 Y15.788 Z-3.6
G03 X81.051 Y15.848 Z-3.6 I-1.373 J-0.603
G01 X80.99 Y15.971 Z-3.6
G03 X80.96 Y16.028 Z-3.6 I-1.345 J-0.662
G01 X80.894 Y16.149 Z-3.6
G03 X80.862 Y16.205 Z-3.6 I-1.316 J-0.719
G01 X80.79 Y16.323 Z-3.6
G03 X80.756 Y16.378 Z-3.6 I-1.284 J-0.775
G01 X80.68 Y16.493 Z-3.6
G03 X80.644 Y16.544 Z-3.6 I-1.249 J-0.829
G01 X80.563 Y16.656 Z-3.6
G03 X80.524 Y16.707 Z-3.6 I-1.214 J-0.88
G01 X80.439 Y16.815 Z-3.6
G03 X80.416 Y16.843 Z-3.6 I-1.175 J-0.931
G01 X53.279 Y49.407 Z-3.6
X51.999 Y50.943 Z-1.6
X47.518 Y56.321 Z-1.6
X46.237 Y57.857 Z-3.6
X32.104 Y74.817 Z-3.6
G03 X32.077 Y74.848 Z-3.6 I-1.152 J-0.96
G01 X31.964 Y74.977 Z-3.6
G03 X31.909 Y75.036 Z-3.6 I-1.125 J-0.991
G01 X31.789 Y75.159 Z-3.6
G03 X31.731 Y75.215 Z-3.6 I-1.071 J-1.05
G01 X31.604 Y75.331 Z-3.6
G03 X31.541 Y75.386 Z-3.6 I-1.013 J-1.105
G01 X31.408 Y75.494 Z-3.6
G03 X31.342 Y75.545 Z-3.6 I-0.949 J-1.161
G01 X31.2 Y75.649 Z-3.6
G03 X31.134 Y75.694 Z-3.6 I-0.884 J-1.211
G01 X30.987 Y75.79 Z-3.6
G03 X30.917 Y75.833 Z-3.6 I-0.817 J-1.257
G01 X30.764 Y75.921 Z-3.6
G03 X30.69 Y75.961 Z-3.6 I-0.748 J-1.3
G01 X30.533 Y76.04 Z-3.6
G03 X30.456 Y76.076 Z-3.6 I-0.674 J-1.339
G01 X30.295 Y76.146 Z-3.6
G03 X30.218 Y76.176 Z-3.6 I-0.597 J-1.376
G01 X30.053 Y76.238 Z-3.6
G03 X29.975 Y76.264 Z-3.6 I-0.52 J-1.406
G01 X29.807 Y76.316 Z-3.6
G03 X29.73 Y76.338 Z-3.6 I-0.442 J-1.433
G01 X29.559 Y76.38 Z-3.6
G03 X29.478 Y76.398 Z-3.6 I-0.365 J-1.454
G01 X29.31 Y76.431 Z-3.6
G03 X29.226 Y76.445 Z-3.6 I-0.284 J-1.472
G01 X29.056 Y76.468 Z-3.6
G03 X28.976 Y76.476 Z-3.6 I-0.2 J-1.486
G01 X28.804 Y76.49 Z-3.6
G03 X28.725 Y76.494 Z-3.6 I-0.12 J-1.495
G01 X28.553 Y76.499 Z-3.6
G03 X28.512 Y76.5 Z-3.6 I-0.041 J-1.499
G01 X-28.512 Y76.5 Z-3.6
G03 X-28.553 Y76.499 Z-3.6 I0 J-1.5
G01 X-28.725 Y76.494 Z-3.6
G03 X-28.804 Y76.49 Z-3.6 I0.041 J-1.499
G01 X-28.976 Y76.476 Z-3.6
G03 X-29.057 Y76.467 Z-3.6 I0.12 J-1.495
G01 X-29.227 Y76.444 Z-3.6
G03 X-29.309 Y76.431 Z-3.6 I0.201 J-1.486
G01 X-29.477 Y76.399 Z-3.6
G03 X-29.559 Y76.38 Z-3.6 I0.283 J-1.473
G01 X-29.73 Y76.338 Z-3.6
G03 X-29.807 Y76.316 Z-3.6 I0.365 J-1.454
G01 X-29.975 Y76.264 Z-3.6
G03 X-30.053 Y76.238 Z-3.6 I0.442 J-1.433
G01 X-30.218 Y76.177 Z-3.6
G03 X-30.295 Y76.146 Z-3.6 I0.52 J-1.406
G01 X-30.457 Y76.076 Z-3.6
G03 X-30.533 Y76.04 Z-3.6 I0.597 J-1.375
G01 X-30.69 Y75.961 Z-3.6
G03 X-30.764 Y75.921 Z-3.6 I0.674 J-1.339
G01 X-30.917 Y75.833 Z-3.6
G03 X-30.987 Y75.79 Z-3.6 I0.748 J-1.3
G01 X-31.134 Y75.694 Z-3.6
G03 X-31.2 Y75.649 Z-3.6 I0.817 J-1.257
G01 X-31.342 Y75.545 Z-3.6
G03 X-31.408 Y75.494 Z-3.6 I0.884 J-1.211
G01 X-31.541 Y75.386 Z-3.6
G03 X-31.604 Y75.331 Z-3.6 I0.949 J-1.161
G01 X-31.731 Y75.215 Z-3.6
G03 X-31.789 Y75.159 Z-3.6 I1.013 J-1.105
G01 X-31.909 Y75.036 Z-3.6
G03 X-31.964 Y74.977 Z-3.6 I1.071 J-1.05
G01 X-32.077 Y74.848 Z-3.6
G03 X-32.104 Y74.817 Z-3.6 I1.125 J-0.991
G01 X-42.631 Y62.185 Z-3.6
X-43.911 Y60.649 Z-1.6
X-48.392 Y55.271 Z-1.6
X-49.673 Y53.735 Z-3.6
X-80.416 Y16.843 Z-3.6
G03 X-80.439 Y16.815 Z-3.6 I1.152 J-0.96
G01 X-80.524 Y16.707 Z-3.6
G03 X-80.563 Y16.656 Z-3.6 I1.175 J-0.931
G01 X-80.644 Y16.544 Z-3.6
G03 X-80.68 Y16.493 Z-3.6 I1.214 J-0.88
G01 X-80.756 Y16.378 Z-3.6
G03 X-80.79 Y16.323 Z-3.6 I1.249 J-0.829
G01 X-80.862 Y16.205 Z-3.6
G03 X-80.894 Y16.149 Z-3.6 I1.284 J-0.775
G01 X-80.96 Y16.028 Z-3.6
G03 X-80.99 Y15.971 Z-3.6 I1.316 J-0.719
G01 X-81.051 Y15.848 Z-3.6
G03 X-81.078 Y15.788 Z-3.6 I1.345 J-0.662
G01 X-81.134 Y15.662 Z-3.6
G03 X-81.159 Y15.601 Z-3.6 I1.373 J-0.603
G01 X-81.208 Y15.473 Z-3.6
G03 X-81.232 Y15.409 Z-3.6 I1.398 J-0.542
G01 X-81.275 Y15.279 Z-3.6
G03 X-81.295 Y15.217 Z-3.6 I1.421 J-0.478
G01 X-81.333 Y15.084 Z-3.6
G03 X-81.35 Y15.021 Z-3.6 I1.441 J-0.416
G01 X-81.382 Y14.887 Z-3.6
G03 X-81.396 Y14.824 Z-3.6 I1.457 J-0.353
G01 X-81.423 Y14.689 Z-3.6
G03 X-81.434 Y14.625 Z-3.6 I1.471 J-0.289
G01 X-81.455 Y14.489 Z-3.6
G03 X-81.463 Y14.425 Z-3.6 I1.482 J-0.226
G01 X-81.478 Y14.288 Z-3.6
G03 X-81.484 Y14.225 Z-3.6 I1.491 J-0.163
G01 X-81.493 Y14.087 Z-3.6
G03 X-81.496 Y14.023 Z-3.6 I1.496 J-0.1
G01 X-81.499 Y13.886 Z-3.6
G03 X-81.5 Y13.85 Z-3.6 I1.499 J-0.036
G01 X-81.5 Y-21.5 Z-3.6
X-81.5 Y-23.5 Z-1.6
X-81.5 Y-30.5 Z-1.6
X-81.5 Y-32.5 Z-3.6
X-81.5 Y-71.825 Z-3.6
G03 X-81.499 Y-71.859 Z-3.6 I1.5 J0
G01 X-81.496 Y-72.004 Z-3.6
G03 X-81.493 Y-72.07 Z-3.6 I1.499 J0.034
G01 X-81.483 Y-72.215 Z-3.6
G03 X-81.477 Y-72.285 Z-3.6 I1.496 J0.1
G01 X-81.46 Y-72.429 Z-3.6
G03 X-81.45 Y-72.502 Z-3.6 I1.49 J0.17
G01 X-81.427 Y-72.645 Z-3.6
G03 X-81.414 Y-72.715 Z-3.6 I1.48 J0.242
G01 X-81.381 Y-72.865 Z-3.6
G03 X-81.366 Y-72.93 Z-3.6 I1.467 J0.312
G01 X-81.328 Y-73.079 Z-3.6
G03 X-81.308 Y-73.148 Z-3.6 I1.451 J0.376
G01 X-81.262 Y-73.295 Z-3.6
G03 X-81.237 Y-73.369 Z-3.6 I1.432 J0.446
G01 X-81.184 Y-73.513 Z-3.6
G03 X-81.156 Y-73.584 Z-3.6 I1.407 J0.519
G01 X-81.092 Y-73.731 Z-3.6
G03 X-81.063 Y-73.795 Z-3.6 I1.378 J0.59
G01 X-80.993 Y-73.939 Z-3.6
G03 X-80.958 Y-74.007 Z-3.6 I1.349 J0.654
G01 X-80.881 Y-74.148 Z-3.6
G03 X-80.842 Y-74.215 Z-3.6 I1.314 J0.721
G01 X-80.758 Y-74.351 Z-3.6
G03 X-80.714 Y-74.417 Z-3.6 I1.275 J0.789
G01 X-80.621 Y-74.551 Z-3.6
G03 X-80.577 Y-74.611 Z-3.6 I1.232 J0.854
G01 X-80.477 Y-74.741 Z-3.6
G03 X-80.429 Y-74.801 Z-3.6 I1.188 J0.915
G01 X-80.322 Y-74.926 Z-3.6
G03 X-80.271 Y-74.983 Z-3.6 I1.139 J0.975
G01 X-80.158 Y-75.101 Z-3.6
G03 X-80.101 Y-75.158 Z-3.6 I1.088 J1.031
G01 X-79.983 Y-75.271 Z-3.6
G03 X-79.926 Y-75.322 Z-3.6 I1.031 J1.088
G01 X-79.801 Y-75.429 Z-3.6
G03 X-79.741 Y-75.477 Z-3.6 I0.975 J1.139
G01 X-79.611 Y-75.577 Z-3.6
G03 X-79.551 Y-75.621 Z-3.6 I0.915 J1.188
G01 X-79.417 Y-75.714 Z-3.6
G03 X-79.351 Y-75.758 Z-3.6 I0.854 J1.232
G01 X-79.215 Y-75.842 Z-3.6
G03 X-79.147 Y-75.881 Z-3.6 I0.789 J1.275
G01 X-79.006 Y-75.959 Z-3.6
G03 X-78.94 Y-75.993 Z-3.6 I0.721 J1.315
G01 X-78.796 Y-76.063 Z-3.6
G03 X-78.73 Y-76.093 Z-3.6 I0.655 J1.349
G01 X-78.583 Y-76.156 Z-3.6
G03 X-78.513 Y-76.184 Z-3.6 I0.589 J1.379
G01 X-78.369 Y-76.237 Z-3.6
G03 X-78.295 Y-76.262 Z-3.6 I0.519 J1.407
G01 X-78.148 Y-76.308 Z-3.6
G03 X-78.08 Y-76.327 Z-3.6 I0.446 J1.432
G01 X-77.931 Y-76.366 Z-3.6
G03 X-77.865 Y-76.382 Z-3.6 I0.377 J1.451
G01 X-77.714 Y-76.414 Z-3.6
G03 X-77.646 Y-76.427 Z-3.6 I0.311 J1.467
G01 X-77.503 Y-76.45 Z-3.6
G03 X-77.429 Y-76.46 Z-3.6 I0.243 J1.48
G01 X-77.285 Y-76.477 Z-3.6
G03 X-77.215 Y-76.483 Z-3.6 I0.17 J1.49
G01 X-77.07 Y-76.493 Z-3.6
G03 X-77.003 Y-76.496 Z-3.6 I0.1 J1.496
G01 X-76.858 Y-76.499 Z-3.6
G03 X-76.825 Y-76.5 Z-3.6 I0.033 J1.499
G01 X-5.499 Y-76.5 Z-3.6
X-3.5 Y-76.5 Z-1.6
X0 Y-76.5 Z-1.6
G02 X0 Y-78.5 I0 J-1
G00 Z1
T0 M06 M02
